Vakken/Crossmedia/Illu & Foto II/Les 3/Les 3/Les 3 Adjustmentlayers en Blending 2/Expert Color Grading with Color Lookup Tables/3a Spot_Color_Start.3DL
#Created by: Adobe Photoshop Export Color Lookup Plugin
#Copyright: (C) Copyright 2023 MD
#Description: Spot_Color.psd
0 341 682 1023
32 32 32
32 32 32
32 32 32
32 32 32
500 500 500
32 32 32
32 32 32
32 32 32
1147 1147 1147
32 32 32
32 32 32
32 32 32
1977 1977 1977
130 130 130
32 32 32
32 32 32
32 32 32
32 32 32
32 32 32
32 32 32
1322 1322 32
1322 1322 1322
32 32 32
32 32 32
1321 3155 32
2169 2169 2169
229 229 229
32 32 32
1322 4095 32
2992 2992 2992
758 758 758
32 32 32
32 32 32
32 32 32
32 32 32
32 32 32
3155 1321 32
999 999 999
32 32 32
32 32 32
3155 3155 32
3155 3155 1322
3155 3155 3155
689 689 689
3155 4095 32
3155 4095 1321
3726 3726 3726
1690 1690 1690
32 32 32
32 32 32
32 32 32
32 32 32
4095 1322 32
716 716 716
32 32 32
32 32 32
4094 3155 31
4095 3155 1321
2838 2838 2838
1131 1131 1131
4095 4095 32
4095 4095 1322
4095 4095 3155
4095 4095 4095
