Vakken/Crossmedia/Illu & Foto II/Les 3/Les 3/Les 3 Adjustmentlayers en Blending 2/Expert Color Grading with Color Lookup Tables/3a Spot_Color_Start.3DL
#Created by: Adobe Photoshop Export Color Lookup Plugin
#Copyright: (C) Copyright 2023 MD
#Description: Spot_Color.psd
0 146 292 438 585 731 877 1023
32 32 32
32 32 32
32 32 32
32 32 32
32 32 32
32 32 32
32 32 32
32 32 32
222 222 222
32 32 32
32 32 32
32 32 32
32 32 32
32 32 32
32 32 32
32 32 32
426 426 426
32 32 32
32 32 32
32 32 32
32 32 32
32 32 32
32 32 32
32 32 32
660 660 660
74 74 74
32 32 32
32 32 32
32 32 32
32 32 32
32 32 32
32 32 32
937 937 937
266 266 266
32 32 32
32 32 32
32 32 32
32 32 32
32 32 32
32 32 32
1258 1258 1258
475 475 475
32 32 32
32 32 32
32 32 32
32 32 32
32 32 32
32 32 32
1609 1609 1609
718 718 718
116 116 116
32 32 32
32 32 32
32 32 32
32 32 32
32 32 32
1977 1977 1977
1006 1006 1006
310 310 310
32 32 32
32 32 32
32 32 32
32 32 32
32 32 32
32 32 32
32 32 32
32 32 32
32 32 32
32 32 32
32 32 32
32 32 32
32 32 32
475 475 32
475 475 475
32 32 32
32 32 32
32 32 32
32 32 32
32 32 32
32 32 32
475 1075 32
718 718 718
116 116 116
32 32 32
32 32 32
32 32 32
32 32 32
32 32 32
633 1428 378
1005 1005 1005
310 310 310
32 32 32
32 32 32
32 32 32
32 32 32
32 32 32
1174 1174 1174
1334 1334 1334
526 526 526
32 32 32
32 32 32
32 32 32
32 32 32
32 32 32
475 3367 32
1690 1690 1690
778 778 778
158 158 158
32 32 32
32 32 32
32 32 32
32 32 32
475 3830 32
2059 2059 2059
1075 1075 1075
356 356 356
32 32 32
32 32 32
32 32 32
32 32 32
475 4095 32
2428 2428 2428
1412 1412 1412
578 578 578
32 32 32
32 32 32
32 32 32
32 32 32
32 32 32
32 32 32
32 32 32
32 32 32
32 32 32
32 32 32
32 32 32
32 32 32
1075 475 32
384 384 384
32 32 32
32 32 32
32 32 32
32 32 32
32 32 32
32 32 32
1075 1075 32
1075 1075 475
1075 1075 1075
288 288 288
32 32 32
32 32 32
32 32 32
32 32 32
1035 1517 389
1104 1570 744
1411 1411 1411
578 578 578
32 32 32
32 32 32
32 32 32
32 32 32
1294 1294 1294
1472 1472 1472
1771 1771 1771
840 840 840
200 200 200
32 32 32
32 32 32
32 32 32
1075 3367 32
1075 3367 475
2142 2142 2142
1148 1148 1148
403 403 403
32 32 32
32 32 32
32 32 32
1075 3830 32
1075 3830 475
2508 2508 2508
1490 1490 1490
632 632 632
53 53 53
32 32 32
32 32 32
1076 4095 32
1075 4095 475
2858 2858 2858
1853 1853 1853
904 904 904
244 244 244
32 32 32
32 32 32
32 32 32
32 32 32
32 32 32
32 32 32
32 32 32
32 32 32
32 32 32
32 32 32
1853 475 32
297 297 297
32 32 32
32 32 32
32 32 32
32 32 32
32 32 32
32 32 32
1853 1076 32
1853 1075 475
944 944 944
422 422 422
32 32 32
32 32 32
32 32 32
32 32 32
1605 1605 405
1654 1654 774
1735 1735 1253
1853 1853 1853
808 808 808
116 116 116
32 32 32
32 32 32
1450 1450 1450
1627 1627 1627
1867 1867 1867
2224 2224 2224
1221 1221 1221
379 379 379
32 32 32
32 32 32
1853 3367 32
1853 3367 475
1853 3367 1076
2588 2588 2588
1569 1569 1569
689 689 689
32 32 32
32 32 32
1853 3830 32
1853 3830 475
1853 3830 1075
2932 2932 2932
1936 1936 1936
972 972 972
288 288 288
32 32 32
1853 4095 32
1853 4095 476
1853 4095 1075
3243 3243 3243
2306 2306 2306
1296 1296 1296
501 501 501
32 32 32
32 32 32
32 32 32
32 32 32
32 32 32
32 32 32
32 32 32
32 32 32
32 32 32
2667 475 32
213 213 213
32 32 32
32 32 32
32 32 32
32 32 32
32 32 32
32 32 32
2667 1075 32
2667 1076 475
821 821 821
333 333 333
32 32 32
32 32 32
32 32 32
32 32 32
2295 1730 466
2328 1780 850
2394 1858 1346
1698 1698 1698
999 999 999
239 239 239
32 32 32
32 32 32
1613 1613 1613
1790 1790 1790
2030 2030 2030
2341 2341 2341
2667 2667 2667
1530 1530 1530
578 578 578
32 32 32
2667 3367 32
2667 3367 475
2667 3367 1076
2667 3367 1853
3004 3004 3004
2018 2018 2018
938 938 938
201 201 201
2667 3830 32
2667 3830 475
2667 3830 1075
2667 3830 1853
3306 3306 3306
2388 2388 2388
1373 1373 1373
476 476 476
2667 4095 33
2667 4095 475
2667 4095 1075
2667 4095 1853
3561 3561 3561
2745 2745 2745
1731 1731 1731
809 809 809
32 32 32
32 32 32
32 32 32
32 32 32
32 32 32
32 32 32
32 32 32
32 32 32
3367 475 32
132 132 132
32 32 32
32 32 32
32 32 32
32 32 32
32 32 32
32 32 32
3368 1075 32
3367 1075 475
706 706 706
248 248 248
32 32 32
32 32 32
32 32 32
32 32 32
2924 1820 492
2949 1869 885
2994 1943 1403
1545 1545 1545
872 872 872
370 370 370
32 32 32
32 32 32
1892 1892 1892
2070 2070 2070
2310 2310 2310
2621 2621 2621
2517 2517 2517
1764 1764 1764
742 742 742
70 70 70
3367 3367 32
3367 3367 475
3367 3367 1075
3367 3367 1853
3367 3367 2667
3367 3367 3367
2347 2347 2347
1221 1221 1221
3368 3830 32
3367 3830 475
3367 3830 1075
3367 3830 1853
3367 3830 2667
3610 3610 3610
2821 2821 2821
1690 1690 1690
3368 4095 32
3368 4095 475
3367 4095 1075
3367 4095 1854
3367 4095 2667
3795 3795 3795
3144 3144 3144
2183 2183 2183
32 32 32
32 32 32
32 32 32
32 32 32
32 32 32
32 32 32
32 32 32
32 32 32
1111 1111 1111
53 53 53
32 32 32
32 32 32
32 32 32
32 32 32
32 32 32
32 32 32
3830 1075 32
3830 1075 475
600 600 600
166 166 166
32 32 32
32 32 32
32 32 32
32 32 32
3387 1868 468
3393 1913 881
3430 1981 1411
1396 1396 1396
753 753 753
283 283 283
32 32 32
32 32 32
2077 2077 2077
2255 2255 2255
2495 2495 2495
2806 2806 2806
2363 2363 2363
1610 1610 1610
925 925 925
192 192 192
3829 3368 32
3830 3367 476
3830 3367 1076
3830 3367 1853
3830 3367 2667
3249 3249 3249
2580 2580 2580
1443 1443 1443
3830 3830 32
3830 3830 475
3830 3830 1075
3830 3830 1853
3830 3830 2667
3830 3830 3367
3830 3830 3830
3110 3110 3110
3829 4095 32
3830 4095 475
3830 4095 1075
3830 4095 1853
3829 4095 2668
3830 4095 3367
3962 3962 3962
3482 3482 3482
32 32 32
32 32 32
32 32 32
32 32 32
32 32 32
32 32 32
32 32 32
32 32 32
978 978 978
32 32 32
32 32 32
32 32 32
32 32 32
32 32 32
32 32 32
32 32 32
4095 1075 32
1895 1895 1895
501 501 501
86 86 86
32 32 32
32 32 32
32 32 32
32 32 32
3680 1887 430
3686 1928 847
3705 1991 1396
1251 1251 1251
643 643 643
200 200 200
32 32 32
32 32 32
2184 2184 2184
2361 2361 2361
2601 2601 2601
2912 2912 2912
2208 2208 2208
1459 1459 1459
802 802 802
319 319 319
4095 3368 32
4095 3368 475
4095 3367 1075
4095 3367 1854
4095 3367 2667
3123 3123 3123
2428 2428 2428
1674 1674 1674
4095 3830 34
4095 3830 475
4095 3830 1075
4095 3830 1853
4095 3829 2669
4095 3830 3367
3763 3763 3763
3300 3300 3300
4095 4095 32
4095 4095 475
4095 4095 1075
4095 4095 1853
4095 4095 2667
4095 4095 3367
4095 4095 3830
4095 4095 4095
