Vakken/Crossmedia/Illu & Foto II/Les 3/Les 3/Les 3 Adjustmentlayers en Blending 2/Expert Color Grading with Color Lookup Tables/BW Filmstock.cube
TITLE "Untitled"
# LUT size
# data domain
# LUT data points
# 
# Copyright: (C) Copyright 2017 ©Richard Harrington
# Created by: Adobe Photoshop Export Color Lookup Plugin
LUT_3D_SIZE 5
DOMAIN_MIN 0.000000 0.000000 0.000000
DOMAIN_MAX 0.903226 0.903226 0.903226
0.000000 0.000000 0.000000
0.283770 0.283770 0.283770
0.514910 0.514910 0.514910
0.642461 0.642461 0.642461
0.707390 0.707390 0.707390
0.240655 0.240655 0.240655
0.198245 0.198245 0.198245
0.373587 0.373587 0.373587
0.585957 0.585957 0.585957
0.709792 0.709792 0.709792
0.507736 0.507736 0.507736
0.503156 0.503156 0.503156
0.487844 0.487844 0.487844
0.623979 0.623979 0.623979
0.764054 0.764054 0.764054
0.679042 0.679042 0.679042
0.662161 0.662161 0.662161
0.755854 0.755854 0.755854
0.739741 0.739741 0.739741
0.846375 0.846375 0.846375
0.772734 0.772734 0.772734
0.771133 0.771133 0.771133
0.833531 0.833531 0.833531
0.896985 0.896985 0.896985
0.910279 0.910279 0.910279
0.153625 0.153625 0.153625
0.213909 0.213909 0.213909
0.525257 0.525257 0.525257
0.684166 0.684166 0.684166
0.761620 0.761620 0.761620
0.167142 0.167142 0.167142
0.197765 0.197765 0.197765
0.391108 0.391108 0.391108
0.596560 0.596560 0.596560
0.730452 0.730452 0.730452
0.471027 0.471027 0.471027
0.457766 0.457766 0.457766
0.481982 0.481982 0.481982
0.628783 0.628783 0.628783
0.777603 0.777603 0.777603
0.664884 0.664884 0.664884
0.653192 0.653192 0.653192
0.734617 0.734617 0.734617
0.736667 0.736667 0.736667
0.848554 0.848554 0.848554
0.771645 0.771645 0.771645
0.773663 0.773663 0.773663
0.826451 0.826451 0.826451
0.907492 0.907492 0.907492
0.912969 0.912969 0.912969
0.322784 0.322784 0.322784
0.304142 0.304142 0.304142
0.397963 0.397963 0.397963
0.567667 0.567667 0.567667
0.700151 0.700151 0.700151
0.296903 0.296903 0.296903
0.307794 0.307794 0.307794
0.347641 0.347641 0.347641
0.563215 0.563215 0.563215
0.722701 0.722701 0.722701
0.389891 0.389891 0.389891
0.392998 0.392998 0.392998
0.482783 0.482783 0.482783
0.683237 0.683237 0.683237
0.819821 0.819821 0.819821
0.638137 0.638137 0.638137
0.619494 0.619494 0.619494
0.681444 0.681444 0.681444
0.743297 0.743297 0.743297
0.851084 0.851084 0.851084
0.767129 0.767129 0.767129
0.769082 0.769082 0.769082
0.807873 0.807873 0.807873
0.926295 0.926295 0.926295
0.923412 0.923412 0.923412
0.426856 0.426856 0.426856
0.419167 0.419167 0.419167
0.412826 0.412826 0.412826
0.530862 0.530862 0.530862
0.632275 0.632275 0.632275
0.426695 0.426695 0.426695
0.428169 0.428169 0.428169
0.389539 0.389539 0.389539
0.505749 0.505749 0.505749
0.635510 0.635510 0.635510
0.524393 0.524393 0.524393
0.562125 0.562125 0.562125
0.586502 0.586502 0.586502
0.620199 0.620199 0.620199
0.748454 0.748454 0.748454
0.591179 0.591179 0.591179
0.599827 0.599827 0.599827
0.662097 0.662097 0.662097
0.756430 0.756430 0.756430
0.888561 0.888561 0.888561
0.733079 0.733079 0.733079
0.733623 0.733623 0.733623
0.766968 0.766968 0.766968
0.895160 0.895160 0.895160
0.927224 0.927224 0.927224
0.506422 0.506422 0.506422
0.495372 0.495372 0.495372
0.451936 0.451936 0.451936
0.538230 0.538230 0.538230
0.624171 0.624171 0.624171
0.523976 0.523976 0.523976
0.525129 0.525129 0.525129
0.487555 0.487555 0.487555
0.530094 0.530094 0.530094
0.629553 0.629553 0.629553
0.666005 0.666005 0.666005
0.683109 0.683109 0.683109
0.669784 0.669784 0.669784
0.642237 0.642237 0.642237
0.726288 0.726288 0.726288
0.709023 0.709023 0.709023
0.734777 0.734777 0.734777
0.786861 0.786861 0.786861
0.800858 0.800858 0.800858
0.839168 0.839168 0.839168
0.741568 0.741568 0.741568
0.760819 0.760819 0.760819
0.805247 0.805247 0.805247
0.874787 0.874787 0.874787
0.938563 0.938563 0.938563
