Vakken/Crossmedia/Illu & Foto II/Les 3/Les 3/Les 3 Adjustmentlayers en Blending 2/Expert Color Grading with Color Lookup Tables/BW Filmstock.cube
TITLE "Untitled"
# LUT size
# data domain
# LUT data points
# 
# Copyright: (C) Copyright 2017 ©Richard Harrington
# Created by: Adobe Photoshop Export Color Lookup Plugin
LUT_3D_SIZE 32
DOMAIN_MIN 0.000000 0.000000 0.000000
DOMAIN_MAX 1.000000 1.000000 1.000000
0.000000 0.000000 0.000000
0.022518 0.022518 0.022518
0.053589 0.053589 0.053589
0.097313 0.097313 0.097313
0.141997 0.141997 0.141997
0.188219 0.188219 0.188219
0.237484 0.237484 0.237484
0.283770 0.283770 0.283770
0.327365 0.327365 0.327365
0.367949 0.367949 0.367949
0.404594 0.404594 0.404594
0.438676 0.438676 0.438676
0.464461 0.464461 0.464461
0.489798 0.489798 0.489798
0.514910 0.514910 0.514910
0.539767 0.539767 0.539767
0.561388 0.561388 0.561388
0.579871 0.579871 0.579871
0.595919 0.595919 0.595919
0.611711 0.611711 0.611711
0.627247 0.627247 0.627247
0.642461 0.642461 0.642461
0.656267 0.656267 0.656267
0.667222 0.667222 0.667222
0.675870 0.675870 0.675870
0.684102 0.684102 0.684102
0.691950 0.691950 0.691950
0.699670 0.699670 0.699670
0.707390 0.707390 0.707390
0.715334 0.715334 0.715334
0.723533 0.723533 0.723533
0.731286 0.731286 0.731286
0.014670 0.014670 0.014670
0.013614 0.013614 0.013614
0.028317 0.028317 0.028317
0.054838 0.054838 0.054838
0.080977 0.080977 0.080977
0.117717 0.117717 0.117717
0.152696 0.152696 0.152696
0.188219 0.188219 0.188219
0.229861 0.229861 0.229861
0.267306 0.267306 0.267306
0.309747 0.309747 0.309747
0.348442 0.348442 0.348442
0.386303 0.386303 0.386303
0.419103 0.419103 0.419103
0.449022 0.449022 0.449022
0.481566 0.481566 0.481566
0.506647 0.506647 0.506647
0.529453 0.529453 0.529453
0.555815 0.555815 0.555815
0.575098 0.575098 0.575098
0.595535 0.595535 0.595535
0.612640 0.612640 0.612640
0.628688 0.628688 0.628688
0.644127 0.644127 0.644127
0.659470 0.659470 0.659470
0.670905 0.670905 0.670905
0.682981 0.682981 0.682981
0.691855 0.691855 0.691855
0.700087 0.700087 0.700087
0.709023 0.709023 0.709023
0.717352 0.717352 0.717352
0.725808 0.725808 0.725808
0.039111 0.039111 0.039111
0.034658 0.034658 0.034658
0.034466 0.034466 0.034466
0.041738 0.041738 0.041738
0.062430 0.062430 0.062430
0.083507 0.083507 0.083507
0.108621 0.108621 0.108621
0.137993 0.137993 0.137993
0.169897 0.169897 0.169897
0.206061 0.206061 0.206061
0.246741 0.246741 0.246741
0.289728 0.289728 0.289728
0.331145 0.331145 0.331145
0.370383 0.370383 0.370383
0.408693 0.408693 0.408693
0.442487 0.442487 0.442487
0.472148 0.472148 0.472148
0.497934 0.497934 0.497934
0.524360 0.524360 0.524360
0.550691 0.550691 0.550691
0.574266 0.574266 0.574266
0.593709 0.593709 0.593709
0.611006 0.611006 0.611006
0.628175 0.628175 0.628175
0.645024 0.645024 0.645024
0.661905 0.661905 0.661905
0.676031 0.676031 0.676031
0.687946 0.687946 0.687946
0.697171 0.697171 0.697171
0.706012 0.706012 0.706012
0.714853 0.714853 0.714853
0.723790 0.723790 0.723790
0.086999 0.086999 0.086999
0.073449 0.073449 0.073449
0.065153 0.065153 0.065153
0.066915 0.066915 0.066915
0.072712 0.072712 0.072712
0.089305 0.089305 0.089305
0.110574 0.110574 0.110574
0.135078 0.135078 0.135078
0.164227 0.164227 0.164227
0.195810 0.195810 0.195810
0.235146 0.235146 0.235146
0.276178 0.276178 0.276178
0.317659 0.317659 0.317659
0.356930 0.356930 0.356930
0.394856 0.394856 0.394856
0.431404 0.431404 0.431404
0.463211 0.463211 0.463211
0.490759 0.490759 0.490759
0.516384 0.516384 0.516384
0.542459 0.542459 0.542459
0.568436 0.568436 0.568436
0.588809 0.588809 0.588809
0.607610 0.607610 0.607610
0.624588 0.624588 0.624588
0.641404 0.641404 0.641404
0.658285 0.658285 0.658285
0.674941 0.674941 0.674941
0.688074 0.688074 0.688074
0.699381 0.699381 0.699381
0.708383 0.708383 0.708383
0.717063 0.717063 0.717063
0.725968 0.725968 0.725968
0.135431 0.135431 0.135431
0.118581 0.118581 0.118581
0.107275 0.107275 0.107275
0.097473 0.097473 0.097473
0.097313 0.097313 0.097313
0.103495 0.103495 0.103495
0.118358 0.118358 0.118358
0.139178 0.139178 0.139178
0.163651 0.163651 0.163651
0.193729 0.193729 0.193729
0.229091 0.229091 0.229091
0.269356 0.269356 0.269356
0.310068 0.310068 0.310068
0.349114 0.349114 0.349114
0.386848 0.386848 0.386848
0.424005 0.424005 0.424005
0.458214 0.458214 0.458214
0.487363 0.487363 0.487363
0.512573 0.512573 0.512573
0.538358 0.538358 0.538358
0.564047 0.564047 0.564047
0.588039 0.588039 0.588039
0.607098 0.607098 0.607098
0.623498 0.623498 0.623498
0.640187 0.640187 0.640187
0.656780 0.656780 0.656780
0.673308 0.673308 0.673308
0.689004 0.689004 0.689004
0.701592 0.701592 0.701592
0.711009 0.711009 0.711009
0.719882 0.719882 0.719882
0.728499 0.728499 0.728499
0.168744 0.168744 0.168744
0.158462 0.158462 0.158462
0.152376 0.152376 0.152376
0.145168 0.145168 0.145168
0.131363 0.131363 0.131363
0.130562 0.130562 0.130562
0.136360 0.136360 0.136360
0.150229 0.150229 0.150229
0.167270 0.167270 0.167270
0.194594 0.194594 0.194594
0.226625 0.226625 0.226625
0.263622 0.263622 0.263622
0.304046 0.304046 0.304046
0.342805 0.342805 0.342805
0.380345 0.380345 0.380345
0.417214 0.417214 0.417214
0.453506 0.453506 0.453506
0.485185 0.485185 0.485185
0.510426 0.510426 0.510426
0.535860 0.535860 0.535860
0.561004 0.561004 0.561004
0.585637 0.585637 0.585637
0.607674 0.607674 0.607674
0.623947 0.623947 0.623947
0.640283 0.640283 0.640283
0.656619 0.656619 0.656619
0.673083 0.673083 0.673083
0.688939 0.688939 0.688939
0.704059 0.704059 0.704059
0.714405 0.714405 0.714405
0.723630 0.723630 0.723630
0.732182 0.732182 0.732182
0.203210 0.203210 0.203210
0.194817 0.194817 0.194817
0.190045 0.190045 0.190045
0.186841 0.186841 0.186841
0.181909 0.181909 0.181909
0.167431 0.167431 0.167431
0.163010 0.163010 0.163010
0.168744 0.168744 0.168744
0.182485 0.182485 0.182485
0.200807 0.200807 0.200807
0.225344 0.225344 0.225344
0.259970 0.259970 0.259970
0.299369 0.299369 0.299369
0.338128 0.338128 0.338128
0.375669 0.375669 0.375669
0.411833 0.411833 0.411833
0.448221 0.448221 0.448221
0.484768 0.484768 0.484768
0.509818 0.509818 0.509818
0.534898 0.534898 0.534898
0.560075 0.560075 0.560075
0.585092 0.585092 0.585092
0.607866 0.607866 0.607866
0.626125 0.626125 0.626125
0.642333 0.642333 0.642333
0.658317 0.658317 0.658317
0.674718 0.674718 0.674718
0.690733 0.690733 0.690733
0.706461 0.706461 0.706461
0.718697 0.718697 0.718697
0.728755 0.728755 0.728755
0.737627 0.737627 0.737627
0.240655 0.240655 0.240655
0.229219 0.229219 0.229219
0.224864 0.224864 0.224864
0.227810 0.227810 0.227810
0.231269 0.231269 0.231269
0.220091 0.220091 0.220091
0.203914 0.203914 0.203914
0.198245 0.198245 0.198245
0.203435 0.203435 0.203435
0.218841 0.218841 0.218841
0.236331 0.236331 0.236331
0.261444 0.261444 0.261444
0.297256 0.297256 0.297256
0.336014 0.336014 0.336014
0.373587 0.373587 0.373587
0.409174 0.409174 0.409174
0.446010 0.446010 0.446010
0.483680 0.483680 0.483680
0.511547 0.511547 0.511547
0.536468 0.536468 0.536468
0.561357 0.561357 0.561357
0.585957 0.585957 0.585957
0.609917 0.609917 0.609917
0.629776 0.629776 0.629776
0.646177 0.646177 0.646177
0.661936 0.661936 0.661936
0.677856 0.677856 0.677856
0.693969 0.693969 0.693969
0.709792 0.709792 0.709792
0.724270 0.724270 0.724270
0.735129 0.735129 0.735129
0.744290 0.744290 0.744290
0.279638 0.279638 0.279638
0.267434 0.267434 0.267434
0.260195 0.260195 0.260195
0.260546 0.260546 0.260546
0.269356 0.269356 0.269356
0.272335 0.272335 0.272335
0.258881 0.258881 0.258881
0.243666 0.243666 0.243666
0.235754 0.235754 0.235754
0.241295 0.241295 0.241295
0.256639 0.256639 0.256639
0.274705 0.274705 0.274705
0.299241 0.299241 0.299241
0.334957 0.334957 0.334957
0.372402 0.372402 0.372402
0.407861 0.407861 0.407861
0.444024 0.444024 0.444024
0.482815 0.482815 0.482815
0.512253 0.512253 0.512253
0.538966 0.538966 0.538966
0.563824 0.563824 0.563824
0.588103 0.588103 0.588103
0.612351 0.612351 0.612351
0.633941 0.633941 0.633941
0.651078 0.651078 0.651078
0.666837 0.666837 0.666837
0.682405 0.682405 0.682405
0.698229 0.698229 0.698229
0.714213 0.714213 0.714213
0.729459 0.729459 0.729459
0.742208 0.742208 0.742208
0.751689 0.751689 0.751689
0.320574 0.320574 0.320574
0.307441 0.307441 0.307441
0.299657 0.299657 0.299657
0.298825 0.298825 0.298825
0.305327 0.305327 0.305327
0.315737 0.315737 0.315737
0.318556 0.318556 0.318556
0.305616 0.305616 0.305616
0.290432 0.290432 0.290432
0.278517 0.278517 0.278517
0.281752 0.281752 0.281752
0.296647 0.296647 0.296647
0.317628 0.317628 0.317628
0.341747 0.341747 0.341747
0.372433 0.372433 0.372433
0.407348 0.407348 0.407348
0.443448 0.443448 0.443448
0.481502 0.481502 0.481502
0.514526 0.514526 0.514526
0.542779 0.542779 0.542779
0.567315 0.567315 0.567315
0.591691 0.591691 0.591691
0.615907 0.615907 0.615907
0.640123 0.640123 0.640123
0.657484 0.657484 0.657484
0.673275 0.673275 0.673275
0.688555 0.688555 0.688555
0.704507 0.704507 0.704507
0.720331 0.720331 0.720331
0.735866 0.735866 0.735866
0.749544 0.749544 0.749544
0.760819 0.760819 0.760819
0.358436 0.358436 0.358436
0.346327 0.346327 0.346327
0.338095 0.338095 0.338095
0.336045 0.336045 0.336045
0.341811 0.341811 0.341811
0.350780 0.350780 0.350780
0.364426 0.364426 0.364426
0.365931 0.365931 0.365931
0.352670 0.352670 0.352670
0.337551 0.337551 0.337551
0.323168 0.323168 0.323168
0.323713 0.323713 0.323713
0.341747 0.341747 0.341747
0.362504 0.362504 0.362504
0.384029 0.384029 0.384029
0.410487 0.410487 0.410487
0.444121 0.444121 0.444121
0.482175 0.482175 0.482175
0.518402 0.518402 0.518402
0.548224 0.548224 0.548224
0.572536 0.572536 0.572536
0.596624 0.596624 0.596624
0.620936 0.620936 0.620936
0.644991 0.644991 0.644991
0.665171 0.665171 0.665171
0.680995 0.680995 0.680995
0.696307 0.696307 0.696307
0.711618 0.711618 0.711618
0.727601 0.727601 0.727601
0.743233 0.743233 0.743233
0.758480 0.758480 0.758480
0.770812 0.770812 0.770812
0.397098 0.397098 0.397098
0.384222 0.384222 0.384222
0.375317 0.375317 0.375317
0.373203 0.373203 0.373203
0.376918 0.376918 0.376918
0.385086 0.385086 0.385086
0.397579 0.397579 0.397579
0.411992 0.411992 0.411992
0.411992 0.411992 0.411992
0.398731 0.398731 0.398731
0.383421 0.383421 0.383421
0.367597 0.367597 0.367597
0.368814 0.368814 0.368814
0.386976 0.386976 0.386976
0.407316 0.407316 0.407316
0.427432 0.427432 0.427432
0.449534 0.449534 0.449534
0.483519 0.483519 0.483519
0.521573 0.521573 0.521573
0.554310 0.554310 0.554310
0.578525 0.578525 0.578525
0.602550 0.602550 0.602550
0.626733 0.626733 0.626733
0.650725 0.650725 0.650725
0.671386 0.671386 0.671386
0.689676 0.689676 0.689676
0.705019 0.705019 0.705019
0.720234 0.720234 0.720234
0.735610 0.735610 0.735610
0.751497 0.751497 0.751497
0.766840 0.766840 0.766840
0.781447 0.781447 0.781447
0.437010 0.437010 0.437010
0.422883 0.422883 0.422883
0.413082 0.413082 0.413082
0.409206 0.409206 0.409206
0.411063 0.411063 0.411063
0.417246 0.417246 0.417246
0.428393 0.428393 0.428393
0.443544 0.443544 0.443544
0.458311 0.458311 0.458311
0.455140 0.455140 0.455140
0.442167 0.442167 0.442167
0.427015 0.427015 0.427015
0.409527 0.409527 0.409527
0.412954 0.412954 0.412954
0.432077 0.432077 0.432077
0.451616 0.451616 0.451616
0.472277 0.472277 0.472277
0.495787 0.495787 0.495787
0.526410 0.526410 0.526410
0.558954 0.558954 0.558954
0.584708 0.584708 0.584708
0.609084 0.609084 0.609084
0.633076 0.633076 0.633076
0.657356 0.657356 0.657356
0.679522 0.679522 0.679522
0.699094 0.699094 0.699094
0.714533 0.714533 0.714533
0.729843 0.729843 0.729843
0.745283 0.745283 0.745283
0.761203 0.761203 0.761203
0.777122 0.777122 0.777122
0.792402 0.792402 0.792402
0.473590 0.473590 0.473590
0.460937 0.460937 0.460937
0.451072 0.451072 0.451072
0.445754 0.445754 0.445754
0.445370 0.445370 0.445370
0.449790 0.449790 0.449790
0.459464 0.459464 0.459464
0.473590 0.473590 0.473590
0.489830 0.489830 0.489830
0.505878 0.505878 0.505878
0.496557 0.496557 0.496557
0.483680 0.483680 0.483680
0.468112 0.468112 0.468112
0.449053 0.449053 0.449053
0.455941 0.455941 0.455941
0.474711 0.474711 0.474711
0.494955 0.494955 0.494955
0.517345 0.517345 0.517345
0.542459 0.542459 0.542459
0.566866 0.566866 0.566866
0.590378 0.590378 0.590378
0.614401 0.614401 0.614401
0.638842 0.638842 0.638842
0.663121 0.663121 0.663121
0.687017 0.687017 0.687017
0.707806 0.707806 0.707806
0.723662 0.723662 0.723662
0.739198 0.739198 0.739198
0.754669 0.754669 0.754669
0.770588 0.770588 0.770588
0.786541 0.786541 0.786541
0.802492 0.802492 0.802492
0.507736 0.507736 0.507736
0.496045 0.496045 0.496045
0.487396 0.487396 0.487396
0.482462 0.482462 0.482462
0.480221 0.480221 0.480221
0.481918 0.481918 0.481918
0.489990 0.489990 0.489990
0.503156 0.503156 0.503156
0.518787 0.518787 0.518787
0.535539 0.535539 0.535539
0.546398 0.546398 0.546398
0.536052 0.536052 0.536052
0.522630 0.522630 0.522630
0.506391 0.506391 0.506391
0.487844 0.487844 0.487844
0.497422 0.497422 0.497422
0.516961 0.516961 0.516961
0.538262 0.538262 0.538262
0.562253 0.562253 0.562253
0.585509 0.585509 0.585509
0.605529 0.605529 0.605529
0.623979 0.623979 0.623979
0.644384 0.644384 0.644384
0.668311 0.668311 0.668311
0.692848 0.692848 0.692848
0.716166 0.716166 0.716166
0.732246 0.732246 0.732246
0.748262 0.748262 0.748262
0.764054 0.764054 0.764054
0.779686 0.779686 0.779686
0.795702 0.795702 0.795702
0.811749 0.811749 0.811749
0.539895 0.539895 0.539895
0.528684 0.528684 0.528684
0.520100 0.520100 0.520100
0.514975 0.514975 0.514975
0.511035 0.511035 0.511035
0.509946 0.509946 0.509946
0.517121 0.517121 0.517121
0.529933 0.529933 0.529933
0.544476 0.544476 0.544476
0.560300 0.560300 0.560300
0.578205 0.578205 0.578205
0.582754 0.582754 0.582754
0.572472 0.572472 0.572472
0.558954 0.558954 0.558954
0.543002 0.543002 0.543002
0.528941 0.528941 0.528941
0.539223 0.539223 0.539223
0.558923 0.558923 0.558923
0.581761 0.581761 0.581761
0.604664 0.604664 0.604664
0.625804 0.625804 0.625804
0.642525 0.642525 0.642525
0.659054 0.659054 0.659054
0.676543 0.676543 0.676543
0.698549 0.698549 0.698549
0.721068 0.721068 0.721068
0.739838 0.739838 0.739838
0.755726 0.755726 0.755726
0.771645 0.771645 0.771645
0.787084 0.787084 0.787084
0.803164 0.803164 0.803164
0.819245 0.819245 0.819245
0.569781 0.569781 0.569781
0.559467 0.559467 0.559467
0.551234 0.551234 0.551234
0.546494 0.546494 0.546494
0.542523 0.542523 0.542523
0.539800 0.539800 0.539800
0.542137 0.542137 0.542137
0.554085 0.554085 0.554085
0.567956 0.567956 0.567956
0.582177 0.582177 0.582177
0.598963 0.598963 0.598963
0.617029 0.617029 0.617029
0.613825 0.613825 0.613825
0.603671 0.603671 0.603671
0.590698 0.590698 0.590698
0.575867 0.575867 0.575867
0.567186 0.567186 0.567186
0.579103 0.579103 0.579103
0.600628 0.600628 0.600628
0.623883 0.623883 0.623883
0.645472 0.645472 0.645472
0.662161 0.662161 0.662161
0.678337 0.678337 0.678337
0.694769 0.694769 0.694769
0.712258 0.712258 0.712258
0.729971 0.729971 0.729971
0.747205 0.747205 0.747205
0.763509 0.763509 0.763509
0.779077 0.779077 0.779077
0.794548 0.794548 0.794548
0.810500 0.810500 0.810500
0.823953 0.823953 0.823953
0.597970 0.597970 0.597970
0.588487 0.588487 0.588487
0.580961 0.580961 0.580961
0.576219 0.576219 0.576219
0.572312 0.572312 0.572312
0.569364 0.569364 0.569364
0.568340 0.568340 0.568340
0.575611 0.575611 0.575611
0.588968 0.588968 0.588968
0.602101 0.602101 0.602101
0.617508 0.617508 0.617508
0.634645 0.634645 0.634645
0.647747 0.647747 0.647747
0.640828 0.640828 0.640828
0.631410 0.631410 0.631410
0.620615 0.620615 0.620615
0.607354 0.607354 0.607354
0.602614 0.602614 0.602614
0.618982 0.618982 0.618982
0.641340 0.641340 0.641340
0.665043 0.665043 0.665043
0.681412 0.681412 0.681412
0.697332 0.697332 0.697332
0.713315 0.713315 0.713315
0.730101 0.730101 0.730101
0.747141 0.747141 0.747141
0.762997 0.762997 0.762997
0.775970 0.775970 0.775970
0.789391 0.789391 0.789391
0.802364 0.802364 0.802364
0.818124 0.818124 0.818124
0.826036 0.826036 0.826036
0.619271 0.619271 0.619271
0.612063 0.612063 0.612063
0.605560 0.605560 0.605560
0.601589 0.601589 0.601589
0.599378 0.599378 0.599378
0.596432 0.596432 0.596432
0.595311 0.595311 0.595311
0.599186 0.599186 0.599186
0.609949 0.609949 0.609949
0.622185 0.622185 0.622185
0.636664 0.636664 0.636664
0.652487 0.652487 0.652487
0.670073 0.670073 0.670073
0.674974 0.674974 0.674974
0.667702 0.667702 0.667702
0.659278 0.659278 0.659278
0.648676 0.648676 0.648676
0.637015 0.637015 0.637015
0.636408 0.636408 0.636408
0.656524 0.656524 0.656524
0.680099 0.680099 0.680099
0.697204 0.697204 0.697204
0.712739 0.712739 0.712739
0.728658 0.728658 0.728658
0.745219 0.745219 0.745219
0.762388 0.762388 0.762388
0.779365 0.779365 0.779365
0.792434 0.792434 0.792434
0.804254 0.804254 0.804254
0.816169 0.816169 0.816169
0.828406 0.828406 0.828406
0.830904 0.830904 0.830904
0.639771 0.639771 0.639771
0.632980 0.632980 0.632980
0.627598 0.627598 0.627598
0.624555 0.624555 0.624555
0.622249 0.622249 0.622249
0.621000 0.621000 0.621000
0.619815 0.619815 0.619815
0.621833 0.621833 0.621833
0.630738 0.630738 0.630738
0.641628 0.641628 0.641628
0.655946 0.655946 0.655946
0.670905 0.670905 0.670905
0.687114 0.687114 0.687114
0.706685 0.706685 0.706685
0.701464 0.701464 0.701464
0.694833 0.694833 0.694833
0.686633 0.686633 0.686633
0.677344 0.677344 0.677344
0.667318 0.667318 0.667318
0.672123 0.672123 0.672123
0.693969 0.693969 0.693969
0.711618 0.711618 0.711618
0.727570 0.727570 0.727570
0.743137 0.743137 0.743137
0.759473 0.759473 0.759473
0.776321 0.776321 0.776321
0.793619 0.793619 0.793619
0.807777 0.807777 0.807777
0.819245 0.819245 0.819245
0.831289 0.831289 0.831289
0.842851 0.842851 0.842851
0.842756 0.842756 0.842756
0.659758 0.659758 0.659758
0.653031 0.653031 0.653031
0.648067 0.648067 0.648067
0.644799 0.644799 0.644799
0.642782 0.642782 0.642782
0.641308 0.641308 0.641308
0.641084 0.641084 0.641084
0.643294 0.643294 0.643294
0.648771 0.648771 0.648771
0.660463 0.660463 0.660463
0.674301 0.674301 0.674301
0.689548 0.689548 0.689548
0.704859 0.704859 0.704859
0.723405 0.723405 0.723405
0.733079 0.733079 0.733079
0.728050 0.728050 0.728050
0.721964 0.721964 0.721964
0.714565 0.714565 0.714565
0.705948 0.705948 0.705948
0.698453 0.698453 0.698453
0.707774 0.707774 0.707774
0.725295 0.725295 0.725295
0.742048 0.742048 0.742048
0.757263 0.757263 0.757263
0.773119 0.773119 0.773119
0.789615 0.789615 0.789615
0.806624 0.806624 0.806624
0.820878 0.820878 0.820878
0.833147 0.833147 0.833147
0.844742 0.844742 0.844742
0.853775 0.853775 0.853775
0.853678 0.853678 0.853678
0.679042 0.679042 0.679042
0.672924 0.672924 0.672924
0.667894 0.667894 0.667894
0.664851 0.664851 0.664851
0.662642 0.662642 0.662642
0.661328 0.661328 0.661328
0.660976 0.660976 0.660976
0.662161 0.662161 0.662161
0.665557 0.665557 0.665557
0.675614 0.675614 0.675614
0.689227 0.689227 0.689227
0.703898 0.703898 0.703898
0.719274 0.719274 0.719274
0.737371 0.737371 0.737371
0.755854 0.755854 0.755854
0.756750 0.756750 0.756750
0.752875 0.752875 0.752875
0.747750 0.747750 0.747750
0.742433 0.742433 0.742433
0.734360 0.734360 0.734360
0.728435 0.728435 0.728435
0.739741 0.739741 0.739741
0.755885 0.755885 0.755885
0.770684 0.770684 0.770684
0.786219 0.786219 0.786219
0.802043 0.802043 0.802043
0.818796 0.818796 0.818796
0.833787 0.833787 0.833787
0.846375 0.846375 0.846375
0.857747 0.857747 0.857747
0.864666 0.864666 0.864666
0.864569 0.864569 0.864569
0.696979 0.696979 0.696979
0.691758 0.691758 0.691758
0.687210 0.687210 0.687210
0.684327 0.684327 0.684327
0.682244 0.682244 0.682244
0.680739 0.680739 0.680739
0.680419 0.680419 0.680419
0.681476 0.681476 0.681476
0.683493 0.683493 0.683493
0.690284 0.690284 0.690284
0.703194 0.703194 0.703194
0.717800 0.717800 0.717800
0.732535 0.732535 0.732535
0.750248 0.750248 0.750248
0.770044 0.770044 0.770044
0.780935 0.780935 0.780935
0.778980 0.778980 0.778980
0.776257 0.776257 0.776257
0.772606 0.772606 0.772606
0.767897 0.767897 0.767897
0.760722 0.760722 0.760722
0.755885 0.755885 0.755885
0.769339 0.769339 0.769339
0.783337 0.783337 0.783337
0.798328 0.798328 0.798328
0.814119 0.814119 0.814119
0.830327 0.830327 0.830327
0.845735 0.845735 0.845735
0.859220 0.859220 0.859220
0.870528 0.870528 0.870528
0.875588 0.875588 0.875588
0.875364 0.875364 0.875364
0.712099 0.712099 0.712099
0.708639 0.708639 0.708639
0.705275 0.705275 0.705275
0.703289 0.703289 0.703289
0.701175 0.701175 0.701175
0.699670 0.699670 0.699670
0.699317 0.699317 0.699317
0.700279 0.700279 0.700279
0.702265 0.702265 0.702265
0.706621 0.706621 0.706621
0.717127 0.717127 0.717127
0.731286 0.731286 0.731286
0.745667 0.745667 0.745667
0.762484 0.762484 0.762484
0.781287 0.781287 0.781287
0.800890 0.800890 0.800890
0.800346 0.800346 0.800346
0.798776 0.798776 0.798776
0.796086 0.796086 0.796086
0.792915 0.792915 0.792915
0.788783 0.788783 0.788783
0.783753 0.783753 0.783753
0.782376 0.782376 0.782376
0.794804 0.794804 0.794804
0.809443 0.809443 0.809443
0.824721 0.824721 0.824721
0.841058 0.841058 0.841058
0.856786 0.856786 0.856786
0.871552 0.871552 0.871552
0.882988 0.882988 0.882988
0.886383 0.886383 0.886383
0.886223 0.886223 0.886223
0.725135 0.725135 0.725135
0.721964 0.721964 0.721964
0.719433 0.719433 0.719433
0.717704 0.717704 0.717704
0.716967 0.716967 0.716967
0.716359 0.716359 0.716359
0.716743 0.716743 0.716743
0.718665 0.718665 0.718665
0.720331 0.720331 0.720331
0.722989 0.722989 0.722989
0.731765 0.731765 0.731765
0.744771 0.744771 0.744771
0.758641 0.758641 0.758641
0.774560 0.774560 0.774560
0.792466 0.792466 0.792466
0.812133 0.812133 0.812133
0.820558 0.820558 0.820558
0.819629 0.819629 0.819629
0.817963 0.817963 0.817963
0.815882 0.815882 0.815882
0.813287 0.813287 0.813287
0.809635 0.809635 0.809635
0.805567 0.805567 0.805567
0.805951 0.805951 0.805951
0.818796 0.818796 0.818796
0.833595 0.833595 0.833595
0.849483 0.849483 0.849483
0.865915 0.865915 0.865915
0.881161 0.881161 0.881161
0.892437 0.892437 0.892437
0.895256 0.895256 0.895256
0.895256 0.895256 0.895256
0.737404 0.737404 0.737404
0.734488 0.734488 0.734488
0.731990 0.731990 0.731990
0.730613 0.730613 0.730613
0.730132 0.730132 0.730132
0.730741 0.730741 0.730741
0.732215 0.732215 0.732215
0.734841 0.734841 0.734841
0.737563 0.737563 0.737563
0.739677 0.739677 0.739677
0.745091 0.745091 0.745091
0.758513 0.758513 0.758513
0.771485 0.771485 0.771485
0.786828 0.786828 0.786828
0.803934 0.803934 0.803934
0.822768 0.822768 0.822768
0.838399 0.838399 0.838399
0.839328 0.839328 0.839328
0.838752 0.838752 0.838752
0.837503 0.837503 0.837503
0.835741 0.835741 0.835741
0.833306 0.833306 0.833306
0.830327 0.830327 0.830327
0.826996 0.826996 0.826996
0.829719 0.829719 0.829719
0.842116 0.842116 0.842116
0.857138 0.857138 0.857138
0.873250 0.873250 0.873250
0.889459 0.889459 0.889459
0.900798 0.900798 0.900798
0.903071 0.903071 0.903071
0.903232 0.903232 0.903232
0.749575 0.749575 0.749575
0.746629 0.746629 0.746629
0.744322 0.744322 0.744322
0.742849 0.742849 0.742849
0.742561 0.742561 0.742561
0.742977 0.742977 0.742977
0.744579 0.744579 0.744579
0.747525 0.747525 0.747525
0.750473 0.750473 0.750473
0.754156 0.754156 0.754156
0.759506 0.759506 0.759506
0.770717 0.770717 0.770717
0.784554 0.784554 0.784554
0.799032 0.799032 0.799032
0.815240 0.815240 0.815240
0.833595 0.833595 0.833595
0.851948 0.851948 0.851948
0.858131 0.858131 0.858131
0.858227 0.858227 0.858227
0.858003 0.858003 0.858003
0.857170 0.857170 0.857170
0.856017 0.856017 0.856017
0.854031 0.854031 0.854031
0.851628 0.851628 0.851628
0.848906 0.848906 0.848906
0.853102 0.853102 0.853102
0.865274 0.865274 0.865274
0.880362 0.880362 0.880362
0.896345 0.896345 0.896345
0.908421 0.908421 0.908421
0.910503 0.910503 0.910503
0.910855 0.910855 0.910855
0.761235 0.761235 0.761235
0.758705 0.758705 0.758705
0.756302 0.756302 0.756302
0.755021 0.755021 0.755021
0.754572 0.754572 0.754572
0.755085 0.755085 0.755085
0.756686 0.756686 0.756686
0.759314 0.759314 0.759314
0.762644 0.762644 0.762644
0.766392 0.766392 0.766392
0.771453 0.771453 0.771453
0.780966 0.780966 0.780966
0.794164 0.794164 0.794164
0.809443 0.809443 0.809443
0.824851 0.824851 0.824851
