Vakken/Crossmedia/Illu & Foto II/Les 3/Les 3/Les 3 Adjustmentlayers en Blending 2/Expert Color Grading with Color Lookup Tables/BW Filmstock.cube
TITLE "Untitled"
# LUT size
# data domain
# LUT data points
# 
# Copyright: (C) Copyright 2017 ©Richard Harrington
# Created by: Adobe Photoshop Export Color Lookup Plugin
LUT_3D_SIZE 8
DOMAIN_MIN 0.000000 0.000000 0.000000
DOMAIN_MAX 0.903226 0.903226 0.903226
0.000000 0.000000 0.000000
0.141997 0.141997 0.141997
0.327365 0.327365 0.327365
0.464461 0.464461 0.464461
0.561388 0.561388 0.561388
0.627247 0.627247 0.627247
0.675870 0.675870 0.675870
0.707390 0.707390 0.707390
0.135431 0.135431 0.135431
0.097313 0.097313 0.097313
0.163651 0.163651 0.163651
0.310068 0.310068 0.310068
0.458214 0.458214 0.458214
0.564047 0.564047 0.564047
0.640187 0.640187 0.640187
0.701592 0.701592 0.701592
0.279638 0.279638 0.279638
0.269356 0.269356 0.269356
0.235754 0.235754 0.235754
0.299241 0.299241 0.299241
0.444024 0.444024 0.444024
0.563824 0.563824 0.563824
0.651078 0.651078 0.651078
0.714213 0.714213 0.714213
0.437010 0.437010 0.437010
0.411063 0.411063 0.411063
0.458311 0.458311 0.458311
0.409527 0.409527 0.409527
0.472277 0.472277 0.472277
0.584708 0.584708 0.584708
0.679522 0.679522 0.679522
0.745283 0.745283 0.745283
0.569781 0.569781 0.569781
0.542523 0.542523 0.542523
0.567956 0.567956 0.567956
0.613825 0.613825 0.613825
0.567186 0.567186 0.567186
0.645472 0.645472 0.645472
0.712258 0.712258 0.712258
0.779077 0.779077 0.779077
0.659758 0.659758 0.659758
0.642782 0.642782 0.642782
0.648771 0.648771 0.648771
0.704859 0.704859 0.704859
0.721964 0.721964 0.721964
0.707774 0.707774 0.707774
0.773119 0.773119 0.773119
0.833147 0.833147 0.833147
0.725135 0.725135 0.725135
0.716967 0.716967 0.716967
0.720331 0.720331 0.720331
0.758641 0.758641 0.758641
0.820558 0.820558 0.820558
0.813287 0.813287 0.813287
0.818796 0.818796 0.818796
0.881161 0.881161 0.881161
0.772734 0.772734 0.772734
0.766489 0.766489 0.766489
0.774240 0.774240 0.774240
0.802492 0.802492 0.802492
0.870687 0.870687 0.870687
0.896217 0.896217 0.896217
0.894935 0.894935 0.894903
0.910279 0.910279 0.910279
0.043499 0.043499 0.043499
0.136391 0.136391 0.136391
0.335436 0.335436 0.335436
0.468561 0.468561 0.468561
0.566834 0.566834 0.566834
0.642749 0.642749 0.642749
0.697139 0.697139 0.697139
0.733559 0.733559 0.733559
0.096480 0.096480 0.096480
0.099107 0.099107 0.099107
0.180179 0.180179 0.180179
0.314040 0.314040 0.314040
0.454531 0.454531 0.454531
0.562798 0.562798 0.562798
0.648003 0.648003 0.648003
0.713315 0.713315 0.713315
0.241264 0.241264 0.241264
0.240399 0.240399 0.240399
0.226177 0.226177 0.226177
0.301131 0.301131 0.301131
0.440949 0.440949 0.440949
0.561933 0.561933 0.561933
0.654024 0.654024 0.654024
0.719433 0.719433 0.719433
0.407220 0.407220 0.407220
0.388802 0.388802 0.388802
0.433390 0.433390 0.433390
0.400109 0.400109 0.400109
0.461034 0.461034 0.461034
0.582946 0.582946 0.582946
0.677280 0.677280 0.677280
0.749319 0.749319 0.749319
0.550658 0.550658 0.550658
0.528845 0.528845 0.528845
0.549954 0.549954 0.549954
0.607131 0.607131 0.607131
0.560589 0.560589 0.560589
0.638233 0.638233 0.638233
0.705147 0.705147 0.705147
0.782984 0.782984 0.782984
0.649700 0.649700 0.649700
0.636695 0.636695 0.636695
0.639418 0.639418 0.639418
0.690990 0.690990 0.690990
0.721035 0.721035 0.721035
0.702329 0.702329 0.702329
0.769243 0.769243 0.769243
0.833595 0.833595 0.833595
0.722092 0.722092 0.722092
0.714949 0.714949 0.714949
0.716775 0.716775 0.716775
0.751241 0.751241 0.751241
0.823313 0.823313 0.823313
0.818027 0.818027 0.818027
0.818988 0.818988 0.818988
0.881514 0.881514 0.881514
0.771453 0.771453 0.771453
0.767001 0.767001 0.767001
0.775489 0.775489 0.775489
0.799321 0.799321 0.799321
0.867548 0.867548 0.867548
0.900765 0.900765 0.900765
0.899933 0.899933 0.899933
0.910374 0.910374 0.910374
0.185111 0.185111 0.185111
0.174029 0.174029 0.174029
0.245940 0.245940 0.245940
0.418399 0.418399 0.418399
0.561710 0.561710 0.561710
0.662993 0.662993 0.662993
0.723854 0.723854 0.723854
0.769146 0.769146 0.769146
0.110863 0.110863 0.110863
0.123995 0.123995 0.123995
0.176367 0.176367 0.176367
0.329703 0.329703 0.329703
0.479708 0.479708 0.479708
0.588809 0.588809 0.588809
0.676126 0.676126 0.676126
0.738973 0.738973 0.738973
0.193087 0.193087 0.193087
0.193087 0.193087 0.193087
0.234217 0.234217 0.234217
0.330376 0.330376 0.330376
0.462635 0.462635 0.462635
0.582210 0.582210 0.582210
0.671995 0.671995 0.671995
0.740158 0.740158 0.740158
0.378840 0.378840 0.378840
0.358852 0.358852 0.358852
0.391364 0.391364 0.391364
0.398380 0.398380 0.398380
0.466607 0.466607 0.466607
0.599314 0.599314 0.599314
0.690125 0.690125 0.690125
0.765624 0.765624 0.765624
0.533554 0.533554 0.533554
0.511803 0.511803 0.511803
0.524071 0.524071 0.524071
0.585733 0.585733 0.585733
0.558153 0.558153 0.558153
0.635799 0.635799 0.635799
0.711971 0.711971 0.711971
0.797110 0.797110 0.797110
0.642013 0.642013 0.642013
0.630097 0.630097 0.630097
0.629520 0.629520 0.629520
0.671898 0.671898 0.671898
0.724591 0.724591 0.724591
0.703130 0.703130 0.703130
0.770556 0.770556 0.770556
0.837342 0.837342 0.837342
0.719850 0.719850 0.719850
0.712771 0.712771 0.712771
0.713507 0.713507 0.713507
0.739902 0.739902 0.739902
0.814280 0.814280 0.814280
0.826676 0.826676 0.826676
0.822607 0.822607 0.822607
0.883180 0.883180 0.883180
0.771741 0.771741 0.771741
0.768731 0.768731 0.768731
0.777186 0.777186 0.777186
0.796887 0.796887 0.796887
0.862263 0.862263 0.862263
0.909253 0.909253 0.909253
0.909381 0.909381 0.909381
0.913514 0.913514 0.913514
0.287358 0.287358 0.287358
0.286460 0.286460 0.286460
0.257472 0.257472 0.257472
0.349082 0.349082 0.349082
0.457126 0.457126 0.457126
0.589385 0.589385 0.589385
0.665652 0.665652 0.665652
0.729203 0.729203 0.729203
0.216407 0.216407 0.216407
0.223293 0.223293 0.223293
0.211217 0.211217 0.211217
0.274897 0.274897 0.274897
0.411928 0.411928 0.411928
0.553573 0.553573 0.553573
0.660143 0.660143 0.660143
0.729779 0.729779 0.729779
0.237164 0.237164 0.237164
0.276690 0.276690 0.276690
0.285051 0.285051 0.285051
0.308081 0.308081 0.308081
0.446908 0.446908 0.446908
0.586437 0.586437 0.586437
0.682021 0.682021 0.682021
0.755885 0.755885 0.755885
0.326244 0.326244 0.326244
0.314488 0.314488 0.314488
0.345239 0.345239 0.345239
0.393831 0.393831 0.393831
0.514334 0.514334 0.514334
0.634261 0.634261 0.634261
0.718409 0.718409 0.718409
0.791857 0.791857 0.791857
0.501457 0.501457 0.501457
0.475064 0.475064 0.475064
0.478363 0.478363 0.478363
0.530862 0.530862 0.530862
0.566418 0.566418 0.566418
0.645024 0.645024 0.645024
0.737275 0.737275 0.737275
0.819565 0.819565 0.819565
0.627311 0.627311 0.627311
0.613601 0.613601 0.613601
0.606009 0.606009 0.606009
0.640475 0.640475 0.640475
0.725167 0.725167 0.725167
0.708511 0.708511 0.708511
0.774015 0.774015 0.774015
0.839681 0.839681 0.839681
0.713540 0.713540 0.713540
0.704187 0.704187 0.704187
0.703706 0.703706 0.703706
0.724046 0.724046 0.724046
0.796181 0.796181 0.796181
0.838239 0.838239 0.838239
0.830360 0.830360 0.830360
0.885518 0.885518 0.885518
0.770556 0.770556 0.770556
0.768217 0.768217 0.768217
0.775617 0.775617 0.775617
0.791505 0.791505 0.791505
0.850251 0.850251 0.850251
0.920177 0.920177 0.920177
0.919793 0.919793 0.919793
0.918478 0.918478 0.918478
0.355457 0.355457 0.355457
0.358083 0.358083 0.358083
0.333611 0.333611 0.333611
0.353535 0.353535 0.353535
0.435728 0.435728 0.435728
0.526827 0.526827 0.526827
0.587399 0.587399 0.587399
0.663507 0.663507 0.663507
0.306545 0.306545 0.306545
0.313912 0.313912 0.313912
0.309972 0.309972 0.309972
0.297031 0.297031 0.297031
0.380025 0.380025 0.380025
0.478619 0.478619 0.478619
0.589385 0.589385 0.589385
0.672924 0.672924 0.672924
0.355360 0.355360 0.355360
0.369679 0.369679 0.369679
0.364971 0.364971 0.364971
0.340594 0.340594 0.340594
0.405683 0.405683 0.405683
0.504052 0.504052 0.504052
0.614177 0.614177 0.614177
0.704891 0.704891 0.704891
0.379672 0.379672 0.379672
0.404594 0.404594 0.404594
0.441302 0.441302 0.441302
0.459944 0.459944 0.459944
0.477401 0.477401 0.477401
0.588551 0.588551 0.588551
0.686152 0.686152 0.686152
0.770524 0.770524 0.770524
0.449887 0.449887 0.449887
0.444024 0.444024 0.444024
0.457510 0.457510 0.457510
0.508184 0.508184 0.508184
0.567956 0.567956 0.567956
0.680739 0.680739 0.680739
0.767065 0.767065 0.767065
0.845062 0.845062 0.845062
0.592172 0.592172 0.592172
0.573753 0.573753 0.573753
0.559499 0.559499 0.559499
0.594189 0.594189 0.594189
0.677824 0.677824 0.677824
0.712386 0.712386 0.712386
0.778660 0.778660 0.778660
0.858131 0.858131 0.858131
0.693680 0.693680 0.693680
0.682533 0.682533 0.682533
0.679650 0.679650 0.679650
0.695057 0.695057 0.695057
0.768250 0.768250 0.768250
0.846984 0.846984 0.846984
0.833531 0.833531 0.833531
0.887184 0.887184 0.887184
0.761075 0.761075 0.761075
0.759120 0.759120 0.759120
0.764951 0.764951 0.764951
0.776290 0.776290 0.776290
0.833339 0.833339 0.833339
0.906947 0.906947 0.906947
0.929082 0.929082 0.929082
0.925942 0.925942 0.925942
0.415452 0.415452 0.415452
0.417246 0.417246 0.417246
0.399276 0.399276 0.399276
0.374227 0.374227 0.374227
0.436305 0.436305 0.436305
0.512924 0.512924 0.512924
0.578366 0.578366 0.578366
0.633621 0.633621 0.633621
0.375509 0.375509 0.375509
0.380153 0.380153 0.380153
0.378039 0.378039 0.378039
0.352222 0.352222 0.352222
0.393670 0.393670 0.393670
0.471252 0.471252 0.471252
0.558923 0.558923 0.558923
0.621865 0.621865 0.621865
0.432750 0.432750 0.432750
0.433935 0.433935 0.433935
0.429034 0.429034 0.429034
0.408309 0.408309 0.408309
0.419328 0.419328 0.419328
0.497166 0.497166 0.497166
0.575323 0.575323 0.575323
0.647041 0.647041 0.647041
0.486947 0.486947 0.486947
0.508536 0.508536 0.508536
0.529741 0.529741 0.529741
0.521701 0.521701 0.521701
0.493481 0.493481 0.493481
0.561933 0.561933 0.561933
0.631410 0.631410 0.631410
0.715526 0.715526 0.715526
0.515616 0.515616 0.515616
0.533554 0.533554 0.533554
0.558634 0.558634 0.558634
0.601300 0.601300 0.601300
0.617508 0.617508 0.617508
0.642269 0.642269 0.642269
0.719625 0.719625 0.719625
0.807873 0.807873 0.807873
0.566578 0.566578 0.566578
0.567027 0.567027 0.567027
0.576860 0.576860 0.576860
0.614306 0.614306 0.614306
0.667093 0.667093 0.667093
0.722092 0.722092 0.722092
0.805951 0.805951 0.805951
0.880009 0.880009 0.880009
0.655562 0.655562 0.655562
0.650053 0.650053 0.650053
0.654474 0.654474 0.654474
0.671803 0.671803 0.671803
0.731862 0.731862 0.731862
0.816361 0.816361 0.816361
0.837182 0.837182 0.837182
0.888945 0.888945 0.888945
0.739902 0.739902 0.739902
0.738236 0.738236 0.738236
0.741376 0.741376 0.741376
0.748198 0.748198 0.748198
0.808578 0.808578 0.808578
0.882860 0.882860 0.882860
0.935359 0.935359 0.935359
0.926390 0.926390 0.926390
0.461898 0.461898 0.461898
0.463628 0.463628 0.463628
0.449150 0.449150 0.449150
0.410423 0.410423 0.410423
0.457477 0.457477 0.457477
0.509722 0.509722 0.509722
0.572408 0.572408 0.572408
0.628111 0.628111 0.628111
0.439733 0.439733 0.439733
0.443929 0.443929 0.443929
0.441878 0.441878 0.441878
0.417982 0.417982 0.417982
0.421154 0.421154 0.421154
0.476922 0.476922 0.476922
0.554855 0.554855 0.554855
0.617252 0.617252 0.617252
0.488709 0.488709 0.488709
0.492040 0.492040 0.492040
0.490407 0.490407 0.490407
0.473270 0.473270 0.473270
0.446972 0.446972 0.446972
0.503699 0.503699 0.503699
0.569973 0.569973 0.569973
0.640347 0.640347 0.640347
0.569973 0.569973 0.569973
0.580736 0.580736 0.580736
0.590442 0.590442 0.590442
0.577789 0.577789 0.577789
0.540440 0.540440 0.540440
0.570229 0.570229 0.570229
0.624972 0.624972 0.624972
0.693712 0.693712 0.693712
0.600371 0.600371 0.600371
0.615491 0.615491 0.615491
0.640732 0.640732 0.640732
0.676960 0.676960 0.676960
0.667222 0.667222 0.667222
0.652263 0.652263 0.652263
0.701464 0.701464 0.701464
0.764759 0.764759 0.764759
0.624844 0.624844 0.624844
0.639098 0.639098 0.639098
0.656299 0.656299 0.656299
0.692111 0.692111 0.692111
0.738205 0.738205 0.738205
0.745700 0.745700 0.745700
0.774496 0.774496 0.774496
0.837695 0.837695 0.837695
0.657484 0.657484 0.657484
0.664851 0.664851 0.664851
0.675422 0.675422 0.675422
0.702073 0.702073 0.702073
0.749511 0.749511 0.749511
0.798904 0.798904 0.798904
0.846632 0.846632 0.846632
0.907395 0.907395 0.907395
0.725231 0.725231 0.725231
0.731286 0.731286 0.731286
0.738364 0.738364 0.738364
0.750023 0.750023 0.750023
0.796534 0.796534 0.796534
0.856882 0.856882 0.856882
0.923027 0.923027 0.923027
0.931003 0.931003 0.931003
0.506422 0.506422 0.506422
0.504853 0.504853 0.504853
0.490278 0.490278 0.490278
0.453986 0.453986 0.453986
0.478555 0.478555 0.478555
0.527115 0.527115 0.527115
0.569141 0.569141 0.569141
0.624171 0.624171 0.624171
0.489638 0.489638 0.489638
0.493161 0.493161 0.493161
0.490631 0.490631 0.490631
0.470034 0.470034 0.470034
0.450591 0.450591 0.450591
0.503860 0.503860 0.503860
0.556552 0.556552 0.556552
0.614113 0.614113 0.614113
0.541337 0.541337 0.541337
0.542618 0.542618 0.542618
0.539864 0.539864 0.539864
0.522118 0.522118 0.522118
0.482527 0.482527 0.482527
0.528556 0.528556 0.528556
0.573721 0.573721 0.573721
0.637368 0.637368 0.637368
0.631538 0.631538 0.631538
0.637880 0.637880 0.637880
0.636183 0.636183 0.636183
0.622858 0.622858 0.622858
0.589480 0.589480 0.589480
0.592652 0.592652 0.592652
0.627887 0.627887 0.627887
0.689964 0.689964 0.689964
0.681476 0.681476 0.681476
0.693360 0.693360 0.693360
0.715526 0.715526 0.715526
0.729108 0.729108 0.729108
0.709664 0.709664 0.709664
0.672699 0.672699 0.672699
0.705244 0.705244 0.705244
0.760914 0.760914 0.760914
0.703738 0.703738 0.703738
0.717736 0.717736 0.717736
0.734072 0.734072 0.734072
0.764823 0.764823 0.764823
0.800954 0.800954 0.800954
0.785034 0.785034 0.785034
0.779525 0.779525 0.779525
0.824754 0.824754 0.824754
0.720459 0.720459 0.720459
0.734456 0.734456 0.734456
0.752426 0.752426 0.752426
0.778276 0.778276 0.778276
0.815849 0.815849 0.815849
0.853263 0.853263 0.853263
0.853967 0.853967 0.853967
0.883628 0.883628 0.883628
0.741568 0.741568 0.741568
0.751850 0.751850 0.751850
0.764823 0.764823 0.764823
0.787276 0.787276 0.787276
0.824242 0.824242 0.824242
0.864345 0.864345 0.864345
0.902687 0.902687 0.902687
0.938563 0.938563 0.938563
