Vakken/Crossmedia/Illu & Foto II/Les 3/Les 3/Les 3 Adjustmentlayers en Blending 2/Expert Color Grading with Color Lookup Tables/Cool Deep Blue.3DL
#Created by: Adobe Photoshop Export Color Lookup Plugin
#Copyright: (C) Copyright 2014 ©Richard Harrington
#Description: Cool Deep Blue
0 33 66 99 132 165 198 231 264 297 330 363 396 429 462 495 528 561 594 627 660 693 726 759 792 825 858 891 924 957 990 1023
0 0 0
0 0 3
0 0 18
0 1 36
0 3 58
0 0 117
0 3 152
0 2 217
0 10 247
0 13 306
0 18 361
0 27 403
0 35 452
0 45 499
0 58 530
0 69 575
0 81 622
0 90 686
0 98 755
0 106 825
0 115 897
0 123 971
0 132 1045
0 140 1123
0 148 1203
0 157 1280
0 166 1365
0 175 1449
0 183 1541
0 194 1617
0 208 1671
0 221 1719
1 6 0
0 8 11
0 3 20
0 5 38
0 2 84
0 3 121
0 7 151
0 5 225
0 13 248
0 17 307
0 22 363
0 29 413
0 38 462
0 48 502
0 60 544
0 72 581
0 83 630
0 92 695
0 100 766
0 108 837
0 117 908
0 125 983
0 134 1059
0 142 1136
0 150 1216
0 159 1296
0 167 1381
0 176 1467
0 185 1557
0 196 1634
0 210 1689
0 223 1735
3 28 4
2 32 17
3 34 49
0 24 61
0 14 92
0 17 124
0 16 179
0 20 219
0 20 288
0 24 340
0 32 382
0 38 440
0 48 483
0 58 524
0 70 561
0 80 614
0 91 667
0 99 736
0 107 806
0 115 881
0 124 953
0 132 1031
0 141 1106
0 149 1184
0 157 1265
0 166 1348
0 174 1432
0 183 1523
0 191 1616
0 202 1692
0 216 1746
0 230 1792
8 65 8
8 68 29
8 72 66
3 78 112
1 62 137
0 47 157
1 37 190
0 39 245
0 40 308
0 45 358
0 52 404
0 56 471
0 63 529
0 76 559
0 86 610
0 95 666
0 104 731
0 112 801
0 119 878
0 127 953
0 135 1030
0 144 1108
0 152 1190
0 161 1268
0 168 1355
0 177 1439
0 185 1528
0 194 1619
0 202 1715
0 213 1797
0 228 1849
0 241 1897
11 116 17
12 120 38
11 125 80
10 131 133
11 138 179
8 119 212
6 99 245
4 79 281
0 72 316
0 73 384
0 77 448
0 84 501
0 91 557
0 100 612
0 108 676
0 115 745
0 122 822
0 130 897
0 137 976
0 145 1055
0 153 1136
0 161 1221
0 169 1304
0 177 1390
0 185 1479
0 193 1570
0 201 1664
0 210 1760
0 218 1859
0 229 1944
0 244 1997
0 258 2044
8 184 17
8 190 46
6 197 89
7 203 144
8 212 191
6 220 264
4 196 304
3 172 347
1 148 393
0 126 440
0 115 478
0 118 549
0 125 611
0 129 690
0 135 768
0 141 849
0 147 933
0 153 1020
0 161 1102
0 168 1191
0 175 1275
0 183 1368
0 191 1456
0 198 1554
0 206 1645
0 214 1742
0 222 1843
0 230 1945
0 239 2052
0 250 2143
0 265 2197
0 279 2241
11 260 30
10 267 62
9 274 112
10 282 166
11 293 213
11 301 288
10 309 373
7 282 421
4 256 470
1 230 522
0 205 576
0 182 623
0 165 678
0 168 768
0 172 860
0 177 949
0 181 1048
0 187 1142
0 192 1241
0 199 1337
0 206 1431
0 212 1534
0 219 1632
0 227 1733
0 234 1839
0 242 1946
0 249 2057
0 257 2170
0 265 2289
0 276 2380
0 292 2435
0 307 2480
13 346 49
13 353 86
11 361 139
13 372 181
15 383 235
14 392 312
14 401 399
13 410 496
10 380 551
7 351 608
4 324 669
0 297 734
0 271 794
0 247 856
0 226 910
0 227 1017
0 230 1123
0 235 1229
0 238 1342
0 244 1451
0 249 1564
0 255 1675
0 261 1790
0 267 1903
0 274 2022
0 280 2142
0 287 2267
0 295 2391
0 302 2525
0 313 2625
0 329 2684
0 343 2733
15 440 75
14 448 118
14 458 168
18 471 201
19 482 260
19 493 338
18 502 426
17 512 525
16 521 633
13 490 694
10 459 759
7 429 828
3 401 902
0 373 980
0 347 1054
0 323 1126
0 301 1200
0 293 1302
0 296 1425
0 300 1547
0 304 1673
0 308 1800
0 313 1931
0 319 2059
0 324 2192
0 329 2332
0 336 2469
0 342 2614
0 348 2761
0 359 2877
0 375 2936
0 390 2988
16 541 114
16 550 155
18 563 190
22 578 221
23 590 286
23 601 364
23 612 455
22 622 555
21 632 665
19 642 783
17 609 851
14 576 924
10 545 1001
6 515 1082
3 487 1171
0 459 1263
0 434 1349
0 409 1440
0 387 1531
0 367 1625
0 370 1763
0 373 1902
0 376 2049
0 381 2192
0 385 2343
0 389 2499
0 394 2655
0 400 2818
0 405 2985
0 415 3113
0 431 3176
0 446 3230
17 650 154
18 661 185
21 676 215
26 692 247
27 705 312
27 717 392
27 728 483
27 740 585
26 751 696
25 761 817
23 772 945
20 736 1021
17 703 1100
14 670 1185
10 640 1275
7 610 1372
2 583 1477
0 556 1583
0 530 1688
0 506 1796
0 484 1907
0 464 2019
0 450 2144
0 453 2308
0 456 2474
0 460 2642
0 464 2815
0 468 2996
0 473 3184
0 482 3327
0 498 3392
0 513 3450
19 766 189
21 779 211
25 796 239
30 813 274
31 827 340
32 839 421
32 852 513
31 864 616
31 875 729
30 886 851
28 898 981
27 909 1119
24 872 1202
21 838 1289
18 804 1381
14 773 1479
10 743 1585
7 715 1698
2 688 1820
0 662 1945
0 637 2068
0 613 2196
0 592 2328
0 572 2464
0 553 2607
0 540 2762
0 543 2954
0 547 3150
0 550 3355
0 559 3512
0 575 3584
0 590 3645
21 889 216
24 904 238
29 922 266
33 939 302
35 954 368
36 968 449
36 981 543
36 994 647
36 1006 762
35 1018 885
33 1029 1017
32 1041 1157
31 1052 1305
28 1015 1394
25 980 1488
22 946 1588
18 914 1694
15 884 1808
11 855 1930
7 828 2061
3 802 2201
0 777 2347
0 753 2489
0 730 2640
0 708 2796
0 688 2961
0 669 3132
0 651 3310
0 638 3501
0 646 3668
0 663 3743
0 678 3806
24 1018 245
28 1034 266
33 1053 292
37 1071 330
39 1087 397
40 1102 478
41 1116 573
41 1129 679
40 1142 795
39 1154 920
39 1166 1054
37 1178 1195
36 1190 1344
34 1201 1500
32 1163 1596
28 1128 1697
25 1094 1804
22 1062 1918
19 1031 2040
15 1003 2171
12 975 2310
8 949 2459
4 924 2619
0 900 2789
0 876 2955
0 854 3128
0 832 3313
0 812 3508
0 793 3713
0 781 3845
0 779 3895
0 777 3940
27 1152 273
31 1169 293
36 1189 319
41 1208 359
43 1225 425
45 1240 507
45 1255 603
45 1268 710
45 1282 828
44 1295 954
43 1307 1090
42 1320 1233
41 1332 1383
39 1343 1540
38 1354 1704
35 1317 1806
32 1282 1914
29 1248 2029
26 1216 2150
23 1185 2280
20 1156 2418
16 1128 2565
13 1102 2723
9 1077 2892
5 1053 3074
1 1029 3270
0 1006 3463
0 984 3667
0 963 3883
0 952 3997
0 948 4049
0 945 4095
30 1290 300
34 1307 321
40 1329 346
44 1349 387
47 1366 454
49 1383 536
50 1397 633
50 1412 742
50 1426 860
49 1439 988
48 1452 1125
47 1464 1270
46 1477 1422
44 1488 1581
43 1500 1746
42 1511 1916
39 1474 2024
36 1439 2139
33 1405 2260
30 1373 2388
27 1343 2524
24 1314 2670
21 1287 2825
18 1260 2991
14 1235 3169
10 1210 3360
6 1187 3566
2 1164 3790
0 1142 4017
2 1132 4095
13 1125 4095
22 1120 4095
32 1432 328
37 1450 348
43 1472 373
48 1493 416
51 1512 482
53 1528 565
54 1544 663
54 1558 772
54 1572 892
53 1586 1022
53 1599 1160
52 1612 1306
51 1624 1460
49 1636 1621
48 1648 1787
46 1659 1958
45 1670 2134
42 1634 2248
40 1599 2368
37 1566 2496
34 1535 2630
31 1505 2773
29 1477 2925
26 1449 3088
22 1423 3262
19 1398 3448
15 1373 3648
12 1350 3865
8 1327 4094
22 1316 4095
32 1308 4095
42 1302 4095
35 1576 354
40 1596 375
46 1619 399
51 1640 443
55 1659 510
57 1676 594
58 1692 692
58 1707 802
58 1722 924
58 1735 1055
57 1749 1194
56 1762 1342
55 1774 1498
54 1786 1659
53 1798 1827
51 1809 2000
50 1820 2176
48 1831 2357
46 1796 2476
43 1762 2602
41 1730 2735
38 1699 2875
35 1670 3024
33 1642 3183
30 1615 3352
27 1589 3534
23 1564 3728
20 1539 3937
29 1513 4095
41 1503 4095
52 1494 4095
62 1488 4095
37 1723 381
43 1744 400
50 1768 425
55 1790 470
58 1809 537
60 1827 622
62 1843 721
62 1859 832
62 1873 955
62 1887 1087
61 1900 1228
61 1913 1378
59 1926 1534
58 1938 1698
57 1949 1867
56 1961 2040
54 1971 2218
53 1982 2399
51 1992 2583
49 1958 2707
47 1926 2838
44 1895 2976
42 1865 3121
39 1836 3276
37 1809 3441
34 1783 3617
31 1757 3806
28 1732 4007
48 1704 4095
60 1693 4095
71 1684 4095
82 1676 4095
40 1873 406
45 1894 426
53 1919 450
58 1941 496
61 1961 564
64 1979 650
65 1996 749
66 2011 861
66 2025 985
66 2039 1119
65 2052 1261
65 2065 1412
64 2077 1570
62 2089 1735
61 2101 1905
60 2112 2080
59 2123 2259
57 2133 2440
56 2143 2624
55 2153 2811
52 2120 2939
50 2089 3074
48 2059 3217
45 2031 3368
43 2003 3528
40 1977 3699
38 1951 3881
35 1926 4073
67 1894 4095
79 1884 4095
91 1873 4095
101 1866 4095
42 2023 431
48 2045 451
56 2071 475
61 2093 523
65 2114 590
67 2132 676
69 2148 776
70 2163 890
70 2178 1015
70 2191 1150
69 2205 1293
68 2217 1446
67 2229 1605
66 2241 1771
65 2252 1943
64 2263 2118
63 2273 2298
61 2283 2480
60 2293 2665
59 2302 2852
57 2312 3038
55 2281 3171
53 2251 3310
51 2223 3457
49 2196 3612
46 2170 3778
44 2144 3952
57 2111 4095
87 2083 4095
98 2072 4095
110 2062 4095
121 2053 4095
44 2176 456
51 2198 475
58 2224 499
64 2247 547
68 2267 616
71 2285 702
72 2302 803
73 2317 918
73 2331 1044
73 2344 1180
73 2357 1325
72 2369 1479
71 2381 1640
70 2392 1807
69 2403 1979
68 2413 2156
67 2423 2336
65 2433 2520
64 2442 2705
63 2451 2891
61 2460 3078
60 2469 3265
58 2440 3401
56 2412 3544
54 2386 3694
52 2360 3854
50 2335 4021
89 2286 4095
106 2269 4095
118 2258 4095
130 2247 4095
141 2239 4095
47 2328 479
53 2351 498
61 2378 522
67 2400 571
71 2421 640
74 2439 727
75 2455 829
76 2470 945
77 2483 1072
77 2496 1209
76 2508 1356
76 2520 1511
75 2531 1673
74 2542 1842
73 2552 2015
71 2562 2193
70 2571 2374
69 2581 2558
68 2589 2743
66 2598 2930
65 2607 3116
64 2614 3303
63 2622 3489
61 2596 3628
59 2570 3774
57 2545 3927
55 2521 4087
115 2461 4095
126 2449 4095
138 2438 4095
150 2428 4095
161 2420 4095
49 2482 502
55 2504 521
63 2532 545
69 2554 595
74 2575 664
77 2592 752
78 2608 855
79 2622 971
80 2635 1100
80 2648 1238
79 2659 1386
79 2670 1542
78 2681 1706
77 2691 1876
76 2700 2050
75 2710 2229
74 2719 2411
72 2727 2595
71 2736 2781
70 2743 2967
69 2751 3153
67 2759 3340
66 2766 3526
65 2773 3710
63 2749 3851
61 2725 3998
87 2683 4095
135 2634 4095
146 2623 4095
158 2613 4095
170 2603 4095
182 2595 4095
51 2636 523
58 2659 543
66 2686 568
72 2709 618
76 2729 688
79 2746 776
81 2761 880
83 2775 997
83 2787 1127
83 2799 1267
83 2809 1416
82 2820 1573
81 2829 1738
80 2839 1909
79 2847 2084
78 2856 2264
77 2864 2447
76 2872 2631
75 2880 2817
73 2887 3004
72 2894 3190
71 2901 3376
70 2907 3561
68 2912 3743
67 2916 3920
66 2898 4066
125 2831 4095
155 2800 4095
167 2790 4095
179 2780 4095
191 2772 4095
203 2765 4095
53 2791 545
60 2814 564
68 2840 589
74 2863 640
79 2882 710
82 2899 799
84 2914 904
85 2927 1022
86 2938 1153
86 2949 1294
86 2958 1445
85 2968 1603
84 2977 1770
83 2985 1941
82 2993 2118
81 3000 2298
80 3008 2482
79 3015 2667
78 3022 2853
77 3028 3040
75 3034 3226
74 3039 3410
73 3042 3589
72 3045 3767
70 3048 3943
81 3042 4095
163 2965 4095
176 2957 4095
187 2948 4095
199 2939 4095
212 2932 4095
223 2926 4095
55 2946 565
62 2969 584
70 2995 610
77 3017 661
81 3036 732
85 3052 822
87 3066 928
88 3078 1047
89 3088 1179
89 3098 1321
89 3107 1473
88 3115 1633
87 3122 1800
86 3130 1973
85 3137 2151
84 3143 2332
83 3149 2516
82 3155 2702
81 3161 2888
79 3166 3075
78 3169 3255
77 3172 3435
76 3174 3614
75 3177 3791
74 3179 3966
97 3160 4095
181 3095 4095
194 3095 4095
207 3094 4095
219 3089 4095
232 3083 4095
244 3078 4095
57 3102 585
64 3125 604
73 3151 631
79 3172 682
84 3190 754
87 3206 844
90 3218 951
91 3229 1071
91 3238 1204
92 3246 1348
91 3254 1501
91 3261 1662
90 3267 1831
89 3273 2005
88 3279 2183
87 3284 2365
86 3289 2550
85 3294 2736
83 3298 2920
82 3300 3101
81 3302 3281
80 3304 3460
79 3306 3638
77 3308 3814
76 3310 3988
115 3276 4095
196 3212 4095
211 3221 4095
225 3222 4095
238 3222 4095
252 3223 4095
264 3221 4095
58 3259 605
66 3281 624
75 3306 651
81 3327 703
