Vakken/Crossmedia/Illu & Foto II/Les 3/Les 3/Les 3 Adjustmentlayers en Blending 2/Expert Color Grading with Color Lookup Tables/zwartwit_met_geel.CUBE
#Created by: Adobe Photoshop Export Color Lookup Plugin
#Copyright: (C) Copyright 2024 Dr. Big Dick Sigma Goon
TITLE "zwartwit_met_geel"
#LUT size
LUT_3D_SIZE 32
#data domain
DOMAIN_MIN 0.0 0.0 0.0
DOMAIN_MAX 1.0 1.0 1.0
#LUT data points
0.000000 0.000000 0.000000
0.000000 0.000000 0.000000
0.000000 0.000000 0.000000
0.000000 0.000000 0.000000
0.000000 0.000000 0.000000
0.000000 0.000000 0.000000
0.000000 0.000000 0.000000
0.000000 0.000000 0.000000
0.000000 0.000000 0.000000
0.000000 0.000000 0.000000
0.000000 0.000000 0.000000
0.000000 0.000000 0.000000
0.000000 0.000000 0.000000
0.000000 0.000000 0.000000
0.000000 0.000000 0.000000
0.000000 0.000000 0.000000
0.000000 0.000000 0.000000
0.000000 0.000000 0.000000
0.000000 0.000000 0.000000
0.000000 0.000000 0.000000
0.000000 0.000000 0.000000
0.000000 0.000000 0.000000
0.000000 0.000000 0.000000
0.000000 0.000000 0.000000
0.000000 0.000000 0.000000
0.000000 0.000000 0.000000
0.000000 0.000000 0.000000
0.000000 0.000000 0.000000
0.000000 0.000000 0.000000
0.000000 0.000000 0.000000
0.000000 0.000000 0.000000
0.000000 0.000000 0.000000
0.000000 0.000000 0.000000
0.017944 0.017242 0.007324
0.026581 0.026581 0.026581
0.000000 0.000000 0.000000
0.000000 0.000000 0.000000
0.000000 0.000000 0.000000
0.000000 0.000000 0.000000
0.000000 0.000000 0.000000
0.000000 0.000000 0.000000
0.000000 0.000000 0.000000
0.000000 0.000000 0.000000
0.000000 0.000000 0.000000
0.000000 0.000000 0.000000
0.000000 0.000000 0.000000
0.000000 0.000000 0.000000
0.000000 0.000000 0.000000
0.000000 0.000000 0.000000
0.000000 0.000000 0.000000
0.000000 0.000000 0.000000
0.000000 0.000000 0.000000
0.000000 0.000000 0.000000
0.000000 0.000000 0.000000
0.000000 0.000000 0.000000
0.000000 0.000000 0.000000
0.000000 0.000000 0.000000
0.000000 0.000000 0.000000
0.000000 0.000000 0.000000
0.000000 0.000000 0.000000
0.000000 0.000000 0.000000
0.000000 0.000000 0.000000
0.000000 0.000000 0.000000
0.000000 0.000000 0.000000
0.000000 0.000000 0.000000
0.024292 0.024292 0.024292
0.036224 0.034821 0.015503
0.053345 0.039703 0.020966
0.054657 0.054657 0.054657
0.018890 0.018890 0.018890
0.000000 0.000000 0.000000
0.000000 0.000000 0.000000
0.000000 0.000000 0.000000
0.000000 0.000000 0.000000
0.000000 0.000000 0.000000
0.000000 0.000000 0.000000
0.000000 0.000000 0.000000
0.000000 0.000000 0.000000
0.000000 0.000000 0.000000
0.000000 0.000000 0.000000
0.000000 0.000000 0.000000
0.000000 0.000000 0.000000
0.000000 0.000000 0.000000
0.000000 0.000000 0.000000
0.000000 0.000000 0.000000
0.000000 0.000000 0.000000
0.000000 0.000000 0.000000
0.000000 0.000000 0.000000
0.000000 0.000000 0.000000
0.000000 0.000000 0.000000
0.000000 0.000000 0.000000
0.000000 0.000000 0.000000
0.000000 0.000000 0.000000
0.000000 0.000000 0.000000
0.000000 0.000000 0.000000
0.000000 0.000000 0.000000
0.000000 0.000000 0.000000
0.000000 0.000000 0.000000
0.044922 0.053894 0.022675
0.055756 0.053680 0.024536
0.074432 0.059235 0.030914
0.095428 0.065460 0.038055
0.085571 0.085571 0.085571
0.046387 0.046387 0.046387
0.011261 0.011261 0.011261
0.000000 0.000000 0.000000
0.000000 0.000000 0.000000
0.000000 0.000000 0.000000
0.000000 0.000000 0.000000
0.000000 0.000000 0.000000
0.000000 0.000000 0.000000
0.000000 0.000000 0.000000
0.000000 0.000000 0.000000
0.000000 0.000000 0.000000
0.000000 0.000000 0.000000
0.000000 0.000000 0.000000
0.000000 0.000000 0.000000
0.000000 0.000000 0.000000
0.000000 0.000000 0.000000
0.000000 0.000000 0.000000
0.000000 0.000000 0.000000
0.000000 0.000000 0.000000
0.000000 0.000000 0.000000
0.000000 0.000000 0.000000
0.000000 0.000000 0.000000
0.000000 0.000000 0.000000
0.000000 0.000000 0.000000
0.000000 0.000000 0.000000
0.000000 0.000000 0.000000
0.000000 0.000000 0.000000
0.049622 0.049622 0.049622
0.066254 0.075287 0.033356
0.077057 0.074280 0.035126
0.097748 0.080750 0.042480
0.120514 0.087860 0.050598
0.144867 0.095490 0.059265
0.120789 0.120789 0.120789
0.076324 0.076324 0.076324
0.038300 0.038300 0.038300
0.003662 0.003662 0.003662
0.000000 0.000000 0.000000
0.000000 0.000000 0.000000
0.000000 0.000000 0.000000
0.000000 0.000000 0.000000
0.000000 0.000000 0.000000
0.000000 0.000000 0.000000
0.000000 0.000000 0.000000
0.000000 0.000000 0.000000
0.000000 0.000000 0.000000
0.000000 0.000000 0.000000
0.000000 0.000000 0.000000
0.000000 0.000000 0.000000
0.000000 0.000000 0.000000
0.000000 0.000000 0.000000
0.000000 0.000000 0.000000
0.000000 0.000000 0.000000
0.000000 0.000000 0.000000
0.000000 0.000000 0.000000
0.000000 0.000000 0.000000
0.000000 0.000000 0.000000
0.000000 0.000000 0.000000
0.000000 0.000000 0.000000
0.011963 0.011963 0.011963
0.074707 0.094971 0.042877
0.089386 0.098480 0.046387
0.100464 0.096954 0.047852
0.122803 0.104401 0.056213
0.146698 0.112366 0.065155
0.172150 0.120636 0.074036
0.197845 0.129089 0.083557
0.160614 0.160614 0.160614
0.110199 0.110199 0.110199
0.067413 0.067413 0.067413
0.030396 0.030396 0.030396
0.000000 0.000000 0.000000
0.000000 0.000000 0.000000
0.000000 0.000000 0.000000
0.000000 0.000000 0.000000
0.000000 0.000000 0.000000
0.000000 0.000000 0.000000
0.000000 0.000000 0.000000
0.000000 0.000000 0.000000
0.000000 0.000000 0.000000
0.000000 0.000000 0.000000
0.000000 0.000000 0.000000
0.000000 0.000000 0.000000
0.000000 0.000000 0.000000
0.000000 0.000000 0.000000
0.000000 0.000000 0.000000
0.000000 0.000000 0.000000
0.000000 0.000000 0.000000
0.000000 0.000000 0.000000
0.000000 0.000000 0.000000
0.000000 0.000000 0.000000
0.000000 0.000000 0.000000
0.077179 0.077179 0.077179
0.098877 0.119751 0.057159
0.115051 0.124115 0.060852
0.125732 0.121521 0.062469
0.149536 0.130005 0.071289
0.174133 0.138611 0.080902
0.199310 0.147400 0.090698
0.224670 0.156250 0.100616
0.249664 0.165009 0.110382
0.203979 0.203979 0.203979
0.148743 0.148743 0.148743
0.100006 0.100006 0.100006
0.058746 0.058746 0.058746
0.022583 0.022583 0.022583
0.000000 0.000000 0.000000
0.000000 0.000000 0.000000
0.000000 0.000000 0.000000
0.000000 0.000000 0.000000
0.000000 0.000000 0.000000
0.000000 0.000000 0.000000
0.000000 0.000000 0.000000
0.000000 0.000000 0.000000
0.000000 0.000000 0.000000
0.000000 0.000000 0.000000
0.000000 0.000000 0.000000
0.000000 0.000000 0.000000
0.000000 0.000000 0.000000
0.000000 0.000000 0.000000
0.000000 0.000000 0.000000
0.000000 0.000000 0.000000
0.000000 0.000000 0.000000
0.000000 0.000000 0.000000
0.036621 0.036621 0.036621
0.109558 0.141724 0.069183
0.125183 0.146301 0.072937
0.142151 0.150604 0.078033
0.152252 0.147369 0.078888
0.176300 0.156403 0.088867
0.201416 0.165771 0.098480
0.225647 0.174957 0.109344
0.250763 0.184113 0.118713
0.273682 0.193024 0.129272
0.296967 0.201294 0.137695
0.249725 0.249725 0.249725
0.191223 0.191223 0.191223
0.137207 0.137207 0.137207
0.090149 0.090149 0.090149
0.050323 0.050323 0.050323
0.014923 0.014923 0.014923
0.000000 0.000000 0.000000
0.000000 0.000000 0.000000
0.000000 0.000000 0.000000
0.000000 0.000000 0.000000
0.000000 0.000000 0.000000
0.000000 0.000000 0.000000
0.000000 0.000000 0.000000
0.000000 0.000000 0.000000
0.000000 0.000000 0.000000
0.000000 0.000000 0.000000
0.000000 0.000000 0.000000
0.000000 0.000000 0.000000
0.000000 0.000000 0.000000
0.000000 0.000000 0.000000
0.000000 0.000000 0.000000
0.000000 0.000000 0.000000
0.108032 0.108032 0.108032
0.136261 0.168213 0.086639
0.152802 0.173004 0.091431
0.170410 0.178101 0.096527
0.179443 0.173920 0.096863
0.203552 0.183533 0.107391
0.227814 0.193207 0.117950
0.251709 0.202728 0.128387
0.274872 0.211945 0.138458
0.297668 0.220642 0.147156
0.318115 0.228760 0.156006
0.337067 0.236176 0.164185
0.296661 0.296661 0.296661
0.236389 0.236389 0.236389
0.178650 0.178650 0.178650
0.126007 0.126007 0.126007
0.080750 0.080750 0.080750
0.042145 0.042145 0.042145
0.007294 0.007294 0.007294
0.000000 0.000000 0.000000
0.000000 0.000000 0.000000
0.000000 0.000000 0.000000
0.000000 0.000000 0.000000
0.000000 0.000000 0.000000
0.000000 0.000000 0.000000
0.000000 0.000000 0.000000
0.000000 0.000000 0.000000
0.000000 0.000000 0.000000
0.000000 0.000000 0.000000
0.000000 0.000000 0.000000
0.000000 0.000000 0.000000
0.000000 0.000000 0.000000
0.062958 0.062958 0.062958
0.148346 0.190186 0.100800
0.164276 0.195099 0.105713
0.181335 0.200378 0.110992
0.199188 0.205872 0.116486
0.206177 0.200226 0.116791
0.229858 0.210327 0.127747
0.253845 0.220551 0.137756
0.276520 0.230133 0.148163
0.298004 0.239197 0.157990
0.317963 0.247589 0.167145
0.336426 0.255371 0.175598
0.354828 0.262634 0.182465
0.370178 0.269653 0.191071
0.343750 0.343750 0.343750
0.283081 0.283081 0.283081
0.223175 0.223175 0.223175
0.166412 0.166412 0.166412
0.115204 0.115204 0.115204
0.071655 0.071655 0.071655
0.034180 0.034180 0.034180
0.000000 0.000000 0.000000
0.000000 0.000000 0.000000
0.000000 0.000000 0.000000
0.000000 0.000000 0.000000
0.000000 0.000000 0.000000
0.000000 0.000000 0.000000
0.000000 0.000000 0.000000
0.000000 0.000000 0.000000
0.000000 0.000000 0.000000
0.000000 0.000000 0.000000
0.000000 0.000000 0.000000
0.024048 0.024048 0.024048
0.142853 0.142853 0.142853
0.176392 0.216400 0.120758
0.192871 0.221802 0.126190
0.210083 0.227478 0.131836
0.227722 0.233246 0.137604
0.232849 0.226471 0.137207
0.255707 0.236786 0.148315
0.278534 0.247101 0.158173
0.299591 0.256470 0.168304
0.319092 0.265198 0.177704
0.337189 0.273285 0.186401
0.354156 0.280853 0.194550
0.370239 0.288055 0.202332
0.385712 0.294922 0.209747
0.400879 0.301727 0.217041
0.389709 0.389709 0.389709
0.330261 0.330261 0.330261
0.269562 0.269562 0.269562
0.210144 0.210144 0.210144
0.154419 0.154419 0.154419
0.104828 0.104828 0.104828
0.062866 0.062866 0.062866
0.026337 0.026337 0.026337
0.000000 0.000000 0.000000
0.000000 0.000000 0.000000
0.000000 0.000000 0.000000
0.000000 0.000000 0.000000
0.000000 0.000000 0.000000
0.000000 0.000000 0.000000
0.000000 0.000000 0.000000
0.000000 0.000000 0.000000
0.000000 0.000000 0.000000
0.091980 0.091980 0.091980
0.242859 0.242859 0.242859
0.204620 0.241272 0.142609
0.221069 0.247131 0.148438
0.237976 0.253113 0.154449
0.255463 0.259735 0.159607
0.257843 0.251251 0.159149
0.280090 0.262115 0.169342
0.300598 0.271912 0.179810
0.319611 0.280975 0.189514
0.338165 0.289642 0.197449
0.353760 0.297272 0.206940
0.370544 0.304962 0.213806
0.384521 0.311951 0.222626
0.400482 0.319061 0.228943
0.415253 0.326050 0.236389
0.430206 0.333130 0.243958
0.433502 0.433502 0.433502
0.376678 0.376678 0.376678
0.316772 0.316772 0.316772
0.256134 0.256134 0.256134
0.197327 0.197327 0.197327
0.142731 0.142731 0.142731
0.094818 0.094818 0.094818
0.054352 0.054352 0.054352
0.018616 0.018616 0.018616
0.000000 0.000000 0.000000
0.000000 0.000000 0.000000
0.000000 0.000000 0.000000
0.000000 0.000000 0.000000
0.000000 0.000000 0.000000
0.000000 0.000000 0.000000
0.049408 0.049408 0.049408
0.181000 0.181000 0.181000
0.216705 0.259705 0.158600
0.232544 0.265717 0.164612
0.248779 0.271851 0.170746
0.265137 0.278046 0.176941
0.281769 0.284760 0.182068
0.281830 0.275085 0.180725
0.301788 0.285248 0.191528
0.321136 0.295166 0.200500
0.338379 0.303833 0.209717
0.354553 0.312012 0.218384
0.369904 0.319794 0.226624
0.384644 0.327209 0.234497
0.399078 0.334473 0.242218
0.414734 0.341888 0.248657
0.428009 0.349060 0.257721
0.444458 0.356720 0.264404
0.460266 0.364594 0.272797
0.473969 0.473969 0.473969
0.421265 0.421265 0.421265
0.363495 0.363495 0.363495
0.303223 0.303223 0.303223
0.242798 0.242798 0.242798
0.184662 0.184662 0.184662
0.131378 0.131378 0.131378
0.085266 0.085266 0.085266
0.000000 0.000000 0.000000
0.000000 0.000000 0.000000
0.000000 0.000000 0.000000
0.000000 0.000000 0.000000
0.000000 0.000000 0.000000
0.011749 0.011749 0.011749
0.124786 0.124786 0.124786
0.285675 0.285675 0.285675
0.243683 0.281433 0.181641
0.259460 0.288574 0.187042
0.275085 0.294891 0.193359
0.290588 0.301147 0.199646
0.305511 0.307190 0.205688
0.303741 0.296997 0.202240
0.321869 0.306763 0.212524
0.338684 0.315826 0.222076
0.355347 0.324677 0.229797
0.370361 0.332733 0.238251
0.384766 0.340393 0.246338
0.397705 0.347595 0.255554
0.412933 0.355408 0.262177
0.427185 0.362976 0.270203
0.441895 0.370819 0.278442
0.457275 0.379028 0.287109
0.474792 0.387604 0.294617
0.491455 0.396393 0.303894
0.511017 0.511017 0.511017
0.462738 0.462738 0.462738
0.408722 0.408722 0.408722
0.350189 0.350189 0.350189
0.289673 0.289673 0.289673
0.229553 0.229553 0.229553
0.000000 0.000000 0.000000
0.000000 0.000000 0.000000
0.000000 0.000000 0.000000
0.000000 0.000000 0.000000
0.000000 0.000000 0.000000
0.000000 0.000000 0.000000
0.076935 0.076935 0.076935
0.221680 0.221680 0.221680
0.254761 0.296539 0.196625
0.269440 0.302094 0.204071
0.284729 0.309479 0.209564
0.299042 0.315094 0.217041
0.313904 0.322113 0.222198
0.327484 0.327972 0.228058
0.323303 0.316650 0.223358
0.339691 0.325958 0.233124
0.355072 0.334686 0.242310
0.369659 0.342987 0.250977
0.383698 0.350983 0.259338
0.397400 0.358795 0.267517
0.411072 0.366516 0.275635
0.424927 0.374420 0.283905
0.439240 0.382568 0.292450
0.455597 0.391296 0.299866
0.471252 0.400116 0.309113
0.487488 0.409241 0.318695
0.504211 0.418640 0.328552
0.521362 0.428314 0.338684
0.545380 0.545380 0.545380
0.500702 0.500702 0.500702
0.451202 0.451202 0.451202
0.395966 0.395966 0.395966
0.000000 0.000000 0.000000
0.000000 0.000000 0.000000
0.000000 0.000000 0.000000
0.000000 0.000000 0.000000
0.000000 0.000000 0.000000
0.000000 0.000000 0.000000
0.036407 0.036407 0.036407
0.161346 0.161346 0.161346
0.328735 0.328735 0.328735
0.279327 0.314362 0.219849
0.293579 0.321045 0.226532
0.308105 0.328522 0.232025
0.321838 0.334900 0.238403
0.334869 0.340912 0.244415
0.344971 0.344543 0.250458
0.340576 0.334167 0.244080
0.355621 0.343170 0.253479
0.369873 0.351746 0.262390
0.383545 0.359924 0.270935
0.398071 0.368469 0.277954
0.410309 0.376007 0.287659
0.425079 0.384521 0.294708
0.437805 0.392487 0.304871
0.453766 0.401550 0.312439
0.469086 0.410645 0.321930
0.483429 0.419861 0.333374
0.501282 0.429749 0.341858
0.518005 0.439667 0.352203
0.535034 0.449799 0.362762
0.552338 0.460052 0.373474
0.577728 0.577728 0.577728
0.535767 0.535767 0.535767
0.000000 0.000000 0.000000
0.000000 0.000000 0.000000
0.000000 0.000000 0.000000
0.000000 0.000000 0.000000
0.000000 0.000000 0.000000
0.000000 0.000000 0.000000
0.000000 0.000000 0.000000
0.107666 0.107666 0.107666
0.263947 0.263947 0.263947
0.288940 0.324829 0.235474
0.302551 0.331696 0.242310
0.315979 0.338440 0.249084
0.328979 0.345001 0.255615
0.341949 0.352081 0.260590
0.352692 0.356934 0.267548
0.361053 0.359985 0.269531
0.356079 0.349976 0.264557
0.369019 0.358063 0.274963
0.383331 0.367249 0.282471
0.396423 0.375488 0.291046
0.409454 0.383759 0.299591
0.422668 0.392090 0.308228
0.437561 0.401184 0.315704
0.450562 0.409790 0.326538
0.466827 0.419525 0.334717
0.480835 0.428925 0.346405
0.496704 0.438965 0.356781
0.512939 0.449249 0.367462
0.531219 0.459839 0.376526
0.546265 0.470367 0.389313
0.565094 0.481018 0.398529
0.582184 0.491730 0.409637
0.000000 0.000000 0.000000
0.000000 0.000000 0.000000
0.000000 0.000000 0.000000
0.000000 0.000000 0.000000
0.000000 0.000000 0.000000
0.000000 0.000000 0.000000
0.000000 0.000000 0.000000
0.062653 0.062653 0.062653
0.200867 0.200867 0.200867
0.371155 0.371155 0.371155
0.311371 0.340881 0.258026
0.324188 0.347809 0.264954
0.337097 0.355499 0.270416
0.348907 0.361816 0.276733
0.359894 0.367676 0.282593
0.370087 0.373077 0.287994
0.374908 0.373474 0.289825
0.370056 0.364380 0.284973
0.383087 0.373077 0.293945
0.395844 0.381592 0.302734
0.408539 0.390045 0.311462
0.421478 0.398712 0.320374
0.434753 0.407562 0.329498
0.450012 0.417358 0.337524
0.463165 0.426544 0.349060
0.478180 0.436584 0.359406
0.493652 0.446869 0.370056
0.509521 0.457458 0.380951
0.527405 0.468475 0.390289
0.543823 0.479340 0.401459
0.560425 0.490295 0.412781
0.577118 0.501312 0.424164
0.000000 0.000000 0.000000
0.000000 0.000000 0.000000
0.000000 0.000000 0.000000
0.000000 0.000000 0.000000
0.000000 0.000000 0.000000
0.000000 0.000000 0.000000
0.000000 0.000000 0.000000
0.023773 0.023773 0.023773
0.142426 0.142426 0.142426
0.306976 0.306976 0.306976
0.320374 0.349976 0.272552
0.332642 0.357025 0.279602
0.344574 0.363892 0.286469
0.355835 0.370331 0.292908
0.366302 0.376343 0.298920
0.375946 0.381866 0.304443
0.385071 0.387115 0.309662
0.387665 0.386017 0.310242
0.382904 0.377747 0.305481
0.395325 0.386505 0.314453
0.407745 0.395203 0.323425
0.420288 0.404022 0.332458
0.433258 0.413177 0.341858
0.446808 0.422699 0.351624
0.462341 0.433197 0.360229
0.477051 0.443451 0.370758
0.492218 0.454010 0.381592
0.507721 0.464783 0.392670
0.523529 0.475800 0.403992
0.539612 0.487000 0.415497
0.555786 0.498291 0.427094
0.573944 0.509644 0.436676
0.000000 0.000000 0.000000
0.000000 0.000000 0.000000
0.000000 0.000000 0.000000
0.000000 0.000000 0.000000
0.000000 0.000000 0.000000
0.000000 0.000000 0.000000
0.000000 0.000000 0.000000
0.000000 0.000000 0.000000
0.091675 0.091675 0.091675
0.242462 0.242462 0.242462
0.412201 0.412201 0.412201
0.340942 0.364349 0.295746
0.352234 0.371338 0.302704
0.362885 0.377930 0.309326
0.373474 0.385132 0.314056
0.382751 0.390808 0.319702
0.391479 0.396088 0.325012
0.398773 0.400146 0.331512
0.399658 0.398041 0.331055
0.394928 0.390350 0.326294
0.406982 0.399323 0.335449
0.419250 0.408417 0.344757
0.431854 0.417755 0.354309
0.446381 0.428223 0.362732
0.460205 0.438385 0.373108
0.474548 0.448914 0.383881
0.489319 0.459747 0.394958
0.504456 0.470856 0.406311
0.519836 0.482147 0.417877
0.535461 0.493622 0.429596
0.551239 0.505219 0.441467
0.569000 0.517029 0.451355
0.000000 0.000000 0.000000
0.000000 0.000000 0.000000
0.000000 0.000000 0.000000
0.000000 0.000000 0.000000
0.000000 0.000000 0.000000
0.000000 0.000000 0.000000
0.000000 0.000000 0.000000
0.000000 0.000000 0.000000
0.049133 0.049133 0.049133
0.180603 0.180603 0.180603
0.349823 0.349823 0.349823
0.503571 0.503571 0.503571
0.360626 0.379364 0.318024
0.370819 0.386047 0.324738
0.380280 0.392273 0.330933
0.389099 0.398071 0.336761
0.397308 0.403473 0.342163
0.405090 0.408600 0.347290
0.412659 0.413574 0.352264
0.413330 0.411682 0.349457
0.407501 0.403412 0.346161
0.419464 0.412659 0.355591
0.433044 0.423035 0.363770
0.446045 0.433014 0.373932
0.458252 0.442688 0.386169
0.473633 0.454132 0.395447
0.486603 0.464630 0.408508
0.501282 0.476013 0.420105
0.517975 0.488098 0.430084
0.533264 0.499786 0.441986
0.548737 0.511658 0.454071
0.564240 0.523560 0.466187
0.000000 0.000000 0.000000
0.000000 0.000000 0.000000
0.000000 0.000000 0.000000
0.000000 0.000000 0.000000
0.000000 0.000000 0.000000
0.000000 0.000000 0.000000
0.000000 0.000000 0.000000
0.000000 0.000000 0.000000
0.011475 0.011475 0.011475
0.124420 0.124420 0.124420
0.285217 0.285217 0.285217
0.450897 0.450897 0.450897
0.369415 0.386993 0.333771
0.379150 0.393829 0.340607
0.388214 0.400177 0.346954
0.396606 0.406067 0.352844
0.404449 0.411560 0.358368
0.411926 0.416809 0.363586
0.419067 0.421814 0.368591
0.426117 0.426758 0.373535
0.424927 0.423492 0.371704
0.421051 0.417328 0.365173
0.433228 0.427063 0.375061
0.445923 0.437225 0.385376
0.459198 0.447784 0.396118
0.472931 0.458771 0.407257
0.485626 0.469452 0.420563
0.501556 0.481659 0.430511
0.516357 0.493469 0.442505
0.529602 0.504944 0.456604
0.546417 0.517487 0.466919
0.559723 0.529266 0.481293
0.000000 0.000000 0.000000
0.000000 0.000000 0.000000
0.000000 0.000000 0.000000
0.000000 0.000000 0.000000
0.000000 0.000000 0.000000
0.000000 0.000000 0.000000
0.000000 0.000000 0.000000
0.000000 0.000000 0.000000
0.000000 0.000000 0.000000
0.076630 0.076630 0.076630
0.221283 0.221283 0.221283
0.391724 0.391724 0.391724
0.535492 0.535492 0.535492
0.388153 0.401520 0.357178
0.396790 0.407959 0.363647
0.404755 0.413940 0.369629
0.412231 0.419556 0.375244
0.419342 0.424866 0.380554
0.426178 0.429993 0.385681
0.432861 0.434998 0.390686
0.440582 0.441101 0.394012
0.438934 0.437653 0.391846
0.432587 0.429657 0.388275
0.444977 0.440094 0.398834
0.459167 0.451782 0.408112
0.472595 0.462982 0.419434
0.486450 0.474548 0.431152
0.500641 0.486389 0.443115
0.515045 0.498383 0.455261
0.527985 0.509979 0.469574
0.544434 0.522888 0.480072
0.559296 0.535248 0.492615
0.000000 0.000000 0.000000
0.000000 0.000000 0.000000
0.000000 0.000000 0.000000
0.000000 0.000000 0.000000
0.000000 0.000000 0.000000
0.000000 0.000000 0.000000
0.000000 0.000000 0.000000
0.000000 0.000000 0.000000
0.000000 0.000000 0.000000
0.036133 0.036133 0.036133
0.160980 0.160980 0.160980
0.328247 0.328247 0.328247
0.486603 0.486603 0.486603
0.397949 0.409241 0.374634
0.406647 0.417114 0.379639
0.413696 0.421875 0.387268
0.420807 0.427582 0.392975
0.428345 0.434235 0.396729
0.434937 0.439423 0.401917
0.441376 0.444489 0.406982
0.446716 0.448364 0.413757
0.454224 0.454620 0.417145
0.451202 0.450256 0.416595
0.446838 0.444336 0.409332
0.459534 0.455383 0.420502
0.472656 0.466827 0.432007
0.486176 0.478546 0.443848
0.498535 0.489838 0.457947
0.514130 0.502869 0.468414
0.528442 0.515320 0.480988
0.542908 0.527893 0.493683
0.557373 0.540497 0.506378
0.000000 0.000000 0.000000
0.000000 0.000000 0.000000
0.000000 0.000000 0.000000
0.000000 0.000000 0.000000
0.000000 0.000000 0.000000
0.000000 0.000000 0.000000
0.000000 0.000000 0.000000
0.000000 0.000000 0.000000
0.000000 0.000000 0.000000
0.000000 0.000000 0.000000
0.107361 0.107361 0.107361
0.263550 0.263550 0.263550
0.431732 0.431732 0.431732
0.565582 0.565582 0.565582
0.416779 0.425049 0.398010
0.424011 0.431152 0.404114
0.430847 0.436920 0.409882
0.437347 0.442444 0.415405
0.443604 0.447693 0.420654
0.449677 0.452850 0.425812
0.455719 0.457947 0.430908
0.461884 0.463165 0.436127
0.468231 0.468506 0.441498
0.466156 0.465424 0.439117
0.461548 0.459534 0.431519
0.473145 0.470154 0.444977
0.487762 0.483093 0.455231
0.501373 0.495331 0.467560
0.515259 0.507782 0.480103
0.529297 0.520386 0.492798
0.543457 0.533112 0.505615
0.557739 0.545959 0.518524
0.000000 0.000000 0.000000
0.000000 0.000000 0.000000
0.000000 0.000000 0.000000
0.000000 0.000000 0.000000
0.000000 0.000000 0.000000
0.000000 0.000000 0.000000
0.000000 0.000000 0.000000
0.000000 0.000000 0.000000
0.000000 0.000000 0.000000
0.000000 0.000000 0.000000
0.062408 0.062408 0.062408
0.200500 0.200500 0.200500
0.370789 0.370789 0.370789
0.519653 0.519653 0.519653
0.428101 0.434296 0.415527
0.435059 0.440521 0.421753
0.441620 0.446350 0.427582
0.447845 0.451935 0.433167
0.453796 0.457214 0.438477
0.459625 0.462433 0.443695
0.466461 0.468994 0.447083
0.471344 0.472900 0.454132
0.477448 0.478333 0.459564
0.483826 0.484009 0.465271
0.481476 0.480988 0.462738
0.475311 0.474060 0.456573
0.488281 0.486237 0.468781
0.501587 0.498688 0.481293
0.515137 0.511383 0.494049
0.530457 0.525085 0.504913
0.544434 0.538055 0.517944
0.558441 0.551025 0.530975
0.000000 0.000000 0.000000
0.000000 0.000000 0.000000
0.000000 0.000000 0.000000
0.000000 0.000000 0.000000
0.000000 0.000000 0.000000
0.000000 0.000000 0.000000
0.000000 0.000000 0.000000
0.000000 0.000000 0.000000
0.000000 0.000000 0.000000
0.000000 0.000000 0.000000
0.023560 0.023560 0.023560
0.142120 0.142120 0.142120
0.306549 0.306549 0.306549
0.468964 0.468964 0.468964
0.594391 0.594391 0.594391
0.446716 0.449799 0.440033
0.453033 0.455750 0.445984
0.459625 0.462830 0.449799
0.465424 0.468201 0.455170
0.471100 0.473450 0.460449
0.476746 0.478668 0.465668
0.482452 0.483948 0.470947
0.488403 0.489471 0.476440
0.493378 0.493835 0.484070
0.501007 0.501129 0.488129
0.497009 0.496735 0.487244
0.491943 0.491089 0.478943
0.505096 0.503662 0.491547
0.518433 0.516449 0.504395
0.532013 0.529449 0.517426
0.545685 0.542542 0.530548
0.559479 0.555756 0.543793
0.000000 0.000000 0.000000
0.000000 0.000000 0.000000
0.000000 0.000000 0.000000
0.000000 0.000000 0.000000
0.000000 0.000000 0.000000
0.000000 0.000000 0.000000
0.000000 0.000000 0.000000
0.000000 0.000000 0.000000
0.000000 0.000000 0.000000
0.000000 0.000000 0.000000
0.000000 0.000000 0.000000
0.091370 0.091370 0.091370
0.242065 0.242065 0.242065
0.411835 0.411835 0.411835
0.550598 0.550598 0.550598
0.459442 0.460602 0.457214
