Vakken/Crossmedia/Illu & Foto II/Les 3/Les 3/Les 3 Adjustmentlayers en Blending 2/Expert Color Grading with Color Lookup Tables/zwartwit_met_geel.CUBE
#Created by: Adobe Photoshop Export Color Lookup Plugin
#Copyright: (C) Copyright 2024 Dr. Big Dick Sigma Goon
TITLE "zwartwit_met_geel"
#LUT size
LUT_3D_SIZE 8
#data domain
#LUT data points
DOMAIN_MIN 0.000000 0.000000 0.000000
DOMAIN_MAX 0.903226 0.903226 0.903226
0.000000 0.000000 0.000000
0.000000 0.000000 0.000000
0.000000 0.000000 0.000000
0.000000 0.000000 0.000000
0.000000 0.000000 0.000000
0.000000 0.000000 0.000000
0.000000 0.000000 0.000000
0.000000 0.000000 0.000000
0.000000 0.000000 0.000000
0.077057 0.074280 0.035126
0.120789 0.120789 0.120789
0.000000 0.000000 0.000000
0.000000 0.000000 0.000000
0.000000 0.000000 0.000000
0.000000 0.000000 0.000000
0.000000 0.000000 0.000000
0.000000 0.000000 0.000000
0.108032 0.108032 0.108032
0.179443 0.173920 0.096863
0.274872 0.211945 0.138458
0.296661 0.296661 0.296661
0.080750 0.080750 0.080750
0.000000 0.000000 0.000000
0.000000 0.000000 0.000000
0.000000 0.000000 0.000000
0.000000 0.000000 0.000000
0.232544 0.265717 0.164612
0.281830 0.275085 0.180725
0.354553 0.312012 0.218384
0.414734 0.341888 0.248657
0.473969 0.473969 0.473969
0.242798 0.242798 0.242798
0.000000 0.000000 0.000000
0.000000 0.000000 0.000000
0.263947 0.263947 0.263947
0.328979 0.345001 0.255615
0.356079 0.349976 0.264557
0.409454 0.383759 0.299591
0.466827 0.419525 0.334717
0.531219 0.459839 0.376526
0.000000 0.000000 0.000000
0.000000 0.000000 0.000000
0.049133 0.049133 0.049133
0.360626 0.379364 0.318024
0.397308 0.403473 0.342163
0.407501 0.403412 0.346161
0.458252 0.442688 0.386169
0.517975 0.488098 0.430084
0.000000 0.000000 0.000000
0.000000 0.000000 0.000000
0.000000 0.000000 0.000000
0.431732 0.431732 0.431732
0.430847 0.436920 0.409882
0.455719 0.457947 0.430908
0.461548 0.459534 0.431519
0.515259 0.507782 0.480103
0.000000 0.000000 0.000000
0.000000 0.000000 0.000000
0.000000 0.000000 0.000000
0.180267 0.180267 0.180267
0.478943 0.478943 0.478943
0.500732 0.500732 0.500732
0.523590 0.523590 0.523590
0.525818 0.525818 0.525818
0.000000 0.000000 0.000000
0.023102 0.023102 0.023102
0.000000 0.000000 0.000000
0.000000 0.000000 0.000000
0.000000 0.000000 0.000000
0.000000 0.000000 0.000000
0.000000 0.000000 0.000000
0.000000 0.000000 0.000000
0.000000 0.000000 0.000000
0.101837 0.101837 0.101837
0.000000 0.000000 0.000000
0.000000 0.000000 0.000000
0.000000 0.000000 0.000000
0.000000 0.000000 0.000000
0.000000 0.000000 0.000000
0.000000 0.000000 0.000000
0.000000 0.000000 0.000000
0.000000 0.000000 0.000000
0.214752 0.210815 0.155640
0.272156 0.272156 0.272156
0.064453 0.064453 0.064453
0.000000 0.000000 0.000000
0.000000 0.000000 0.000000
0.000000 0.000000 0.000000
0.000000 0.000000 0.000000
0.000000 0.000000 0.000000
0.255859 0.255859 0.255859
0.326263 0.320129 0.234314
0.399841 0.350372 0.265839
0.453339 0.453339 0.453339
0.218811 0.218811 0.218811
0.031525 0.031525 0.031525
0.000000 0.000000 0.000000
0.000000 0.000000 0.000000
0.044159 0.044159 0.044159
0.369659 0.390717 0.301392
0.406067 0.400116 0.316742
0.458862 0.429352 0.347473
0.515778 0.460297 0.378021
0.592834 0.592834 0.592834
0.000000 0.000000 0.000000
0.000000 0.000000 0.000000
0.000000 0.000000 0.000000
0.424286 0.424286 0.424286
0.445160 0.453552 0.389893
0.461487 0.457245 0.397858
0.510773 0.492432 0.433899
0.567200 0.532684 0.475159
0.000000 0.000000 0.000000
0.000000 0.000000 0.000000
0.000000 0.000000 0.000000
0.172729 0.172729 0.172729
0.476654 0.484436 0.455597
0.507233 0.510284 0.481445
0.517731 0.515594 0.485687
0.566986 0.558990 0.532471
0.000000 0.000000 0.000000
0.000000 0.000000 0.000000
0.000000 0.000000 0.000000
0.000000 0.000000 0.000000
0.559784 0.559784 0.559784
0.549530 0.549530 0.549530
0.577637 0.577637 0.577637
0.583740 0.583740 0.583740
0.000000 0.000000 0.000000
0.005524 0.005524 0.005524
0.047150 0.047150 0.047150
0.000000 0.000000 0.000000
0.000000 0.000000 0.000000
0.000000 0.000000 0.000000
0.000000 0.000000 0.000000
0.000000 0.000000 0.000000
0.000000 0.000000 0.000000
0.079681 0.079681 0.079681
0.134186 0.134186 0.134186
0.000000 0.000000 0.000000
0.000000 0.000000 0.000000
0.000000 0.000000 0.000000
0.000000 0.000000 0.000000
0.000000 0.000000 0.000000
0.000000 0.000000 0.000000
0.059296 0.059296 0.059296
0.247711 0.247711 0.247711
0.049133 0.049133 0.049133
0.000000 0.000000 0.000000
0.000000 0.000000 0.000000
0.000000 0.000000 0.000000
0.000000 0.000000 0.000000
0.000000 0.000000 0.000000
0.000000 0.000000 0.000000
0.039276 0.039276 0.039276
0.365631 0.362396 0.317291
0.431702 0.431702 0.431702
0.195404 0.195404 0.195404
0.017487 0.017487 0.017487
0.000000 0.000000 0.000000
0.000000 0.000000 0.000000
0.000000 0.000000 0.000000
0.000000 0.000000 0.000000
0.416748 0.416748 0.416748
0.450623 0.446747 0.392303
0.503143 0.476257 0.423248
0.576477 0.576477 0.576477
0.381226 0.381226 0.381226
0.000000 0.000000 0.000000
0.000000 0.000000 0.000000
0.000000 0.000000 0.000000
0.165344 0.165344 0.165344
0.489716 0.498810 0.454010
0.511963 0.508820 0.465179
0.560089 0.543579 0.502594
0.617645 0.584259 0.542511
0.000000 0.000000 0.000000
0.000000 0.000000 0.000000
0.000000 0.000000 0.000000
0.000000 0.000000 0.000000
0.554138 0.554138 0.554138
0.556335 0.559387 0.539398
0.571198 0.569702 0.548676
0.621826 0.614258 0.593628
0.000000 0.000000 0.000000
0.000000 0.000000 0.000000
0.000000 0.000000 0.000000
0.000000 0.000000 0.000000
0.332947 0.332947 0.332947
0.602173 0.602173 0.602173
0.630310 0.630310 0.630310
0.641174 0.641174 0.641174
0.000000 0.000000 0.000000
0.000000 0.000000 0.000000
0.028748 0.028748 0.028748
0.073059 0.073059 0.073059
0.000000 0.000000 0.000000
0.000000 0.000000 0.000000
0.000000 0.000000 0.000000
0.000000 0.000000 0.000000
0.000000 0.000000 0.000000
0.059296 0.059296 0.059296
0.109253 0.109253 0.109253
0.169800 0.169800 0.169800
0.001801 0.001801 0.001801
0.000000 0.000000 0.000000
0.000000 0.000000 0.000000
0.000000 0.000000 0.000000
0.000000 0.000000 0.000000
0.040253 0.040253 0.040253
0.217316 0.217316 0.217316
0.288513 0.288513 0.288513
0.075195 0.075195 0.075195
0.000000 0.000000 0.000000
0.000000 0.000000 0.000000
0.000000 0.000000 0.000000
0.000000 0.000000 0.000000
0.022186 0.022186 0.022186
0.187836 0.187836 0.187836
0.409210 0.409210 0.409210
0.172699 0.172699 0.172699
0.003632 0.003632 0.003632
0.000000 0.000000 0.000000
0.000000 0.000000 0.000000
0.000000 0.000000 0.000000
0.000000 0.000000 0.000000
0.003662 0.003662 0.003662
0.158051 0.158051 0.158051
0.500732 0.499023 0.474976
0.559784 0.559784 0.559784
0.357269 0.357269 0.357269
0.126160 0.126160 0.126160
0.000000 0.000000 0.000000
0.000000 0.000000 0.000000
0.000000 0.000000 0.000000
0.000000 0.000000 0.000000
0.548401 0.548401 0.548401
0.567261 0.565491 0.540375
0.616211 0.600891 0.576630
0.684021 0.684021 0.684021
0.000000 0.000000 0.000000
0.000000 0.000000 0.000000
0.000000 0.000000 0.000000
0.000000 0.000000 0.000000
0.324799 0.324799 0.324799
0.611725 0.615204 0.601440
0.631104 0.630188 0.617340
0.681335 0.675018 0.662537
0.000000 0.000000 0.000000
0.000000 0.000000 0.000000
0.000000 0.000000 0.000000
0.000000 0.000000 0.000000
0.088867 0.088867 0.088867
0.662323 0.662323 0.662323
0.688538 0.688538 0.688538
0.704742 0.704742 0.704742
0.000000 0.000000 0.000000
0.000000 0.000000 0.000000
0.011047 0.011047 0.011047
0.053162 0.053162 0.053162
0.101837 0.101837 0.101837
0.000000 0.000000 0.000000
0.000000 0.000000 0.000000
0.000000 0.000000 0.000000
0.000000 0.000000 0.000000
0.040253 0.040253 0.040253
0.086456 0.086456 0.086456
0.142456 0.142456 0.142456
0.207886 0.207886 0.207886
0.024994 0.024994 0.024994
0.000000 0.000000 0.000000
0.000000 0.000000 0.000000
0.000000 0.000000 0.000000
0.022186 0.022186 0.022186
0.187836 0.187836 0.187836
0.257477 0.257477 0.257477
0.329559 0.329559 0.329559
0.104279 0.104279 0.104279
0.000000 0.000000 0.000000
0.000000 0.000000 0.000000
0.000000 0.000000 0.000000
0.004608 0.004608 0.004608
0.159576 0.159576 0.159576
0.379578 0.379578 0.379578
0.446320 0.446320 0.446320
0.211029 0.211029 0.211029
0.026855 0.026855 0.026855
0.000000 0.000000 0.000000
0.000000 0.000000 0.000000
0.000000 0.000000 0.000000
0.132812 0.132812 0.132812
0.349060 0.349060 0.349060
0.542572 0.542572 0.542572
0.332855 0.332855 0.332855
0.106781 0.106781 0.106781
0.000000 0.000000 0.000000
0.000000 0.000000 0.000000
0.000000 0.000000 0.000000
0.000000 0.000000 0.000000
0.106781 0.106781 0.106781
0.316467 0.316467 0.316467
0.613647 0.612823 0.601562
0.667633 0.667633 0.667633
0.502686 0.502686 0.502686
0.000000 0.000000 0.000000
0.000000 0.000000 0.000000
0.000000 0.000000 0.000000
0.000000 0.000000 0.000000
0.083099 0.083099 0.083099
0.656891 0.656891 0.656891
0.681030 0.680542 0.673492
0.731689 0.725739 0.718018
0.000000 0.000000 0.000000
0.000000 0.000000 0.000000
0.000000 0.000000 0.000000
0.000000 0.000000 0.000000
0.000000 0.000000 0.000000
0.476807 0.476807 0.476807
0.736633 0.736633 0.736633
0.757202 0.757202 0.757202
0.000000 0.000000 0.000000
0.000000 0.000000 0.000000
0.000000 0.000000 0.000000
0.034485 0.034485 0.034485
0.079681 0.079681 0.079681
0.134186 0.134186 0.134186
0.000000 0.000000 0.000000
0.000000 0.000000 0.000000
0.000000 0.000000 0.000000
0.022186 0.022186 0.022186
0.065582 0.065582 0.065582
0.116913 0.116913 0.116913
0.178772 0.178772 0.178772
0.247711 0.247711 0.247711
0.049133 0.049133 0.049133
0.000000 0.000000 0.000000
0.000000 0.000000 0.000000
0.004608 0.004608 0.004608
0.159576 0.159576 0.159576
0.226868 0.226868 0.226868
0.298401 0.298401 0.298401
0.370026 0.370026 0.370026
0.136932 0.136932 0.136932
0.000000 0.000000 0.000000
0.000000 0.000000 0.000000
0.000000 0.000000 0.000000
0.132874 0.132874 0.132874
0.349121 0.349121 0.349121
0.418335 0.418335 0.418335
0.480743 0.480743 0.480743
0.250977 0.250977 0.250977
0.051147 0.051147 0.051147
0.000000 0.000000 0.000000
0.000000 0.000000 0.000000
0.108032 0.108032 0.108032
0.318085 0.318085 0.318085
0.520020 0.520020 0.520020
0.570953 0.570953 0.570953
0.373260 0.373260 0.373260
0.139709 0.139709 0.139709
0.000000 0.000000 0.000000
0.000000 0.000000 0.000000
0.085327 0.085327 0.085327
0.286896 0.286896 0.286896
0.496399 0.496399 0.496399
0.651520 0.651520 0.651520
0.483429 0.483429 0.483429
0.254242 0.254242 0.254242
0.000000 0.000000 0.000000
0.000000 0.000000 0.000000
0.000000 0.000000 0.000000
0.063477 0.063477 0.063477
0.254272 0.254272 0.254272
0.470062 0.470062 0.470062
0.722626 0.722321 0.718201
0.784485 0.784485 0.784485
0.000000 0.000000 0.000000
0.000000 0.000000 0.000000
0.000000 0.000000 0.000000
0.000000 0.000000 0.000000
0.043243 0.043243 0.043243
0.222168 0.222168 0.222168
0.771973 0.771973 0.771973
0.800079 0.800079 0.800079
0.000000 0.000000 0.000000
0.000000 0.000000 0.000000
0.000000 0.000000 0.000000
0.016602 0.016602 0.016602
0.059296 0.059296 0.059296
0.109253 0.109253 0.109253
0.169800 0.169800 0.169800
0.001862 0.001862 0.001862
0.000000 0.000000 0.000000
0.004608 0.004608 0.004608
0.046173 0.046173 0.046173
0.093445 0.093445 0.093445
0.150940 0.150940 0.150940
0.217316 0.217316 0.217316
0.288513 0.288513 0.288513
0.075256 0.075256 0.075256
0.000000 0.000000 0.000000
0.000000 0.000000 0.000000
0.132874 0.132874 0.132874
0.197052 0.197052 0.197052
0.267273 0.267273 0.267273
0.339355 0.339355 0.339355
0.409210 0.409210 0.409210
0.172760 0.172760 0.172760
0.000000 0.000000 0.000000
0.000000 0.000000 0.000000
0.108032 0.108032 0.108032
0.318115 0.318115 0.318115
0.389069 0.389069 0.389069
0.454834 0.454834 0.454834
0.512665 0.512665 0.512665
0.291840 0.291840 0.291840
0.000000 0.000000 0.000000
0.000000 0.000000 0.000000
0.085327 0.085327 0.085327
0.286896 0.286896 0.286896
0.496399 0.496399 0.496399
0.549530 0.549530 0.549530
0.598236 0.598236 0.598236
0.412292 0.412292 0.412292
0.000000 0.000000 0.000000
0.000000 0.000000 0.000000
0.064545 0.064545 0.064545
0.255859 0.255859 0.255859
0.471436 0.471436 0.471436
0.631317 0.631317 0.631317
0.678497 0.678497 0.678497
0.515167 0.515167 0.515167
0.000000 0.000000 0.000000
0.000000 0.000000 0.000000
0.045166 0.045166 0.045166
0.225281 0.225281 0.225281
0.444946 0.444946 0.444946
0.611115 0.611115 0.611115
0.765747 0.765747 0.765747
0.600403 0.600403 0.600403
0.000000 0.000000 0.000000
0.000000 0.000000 0.000000
0.000000 0.000000 0.000000
0.025970 0.025970 0.025970
0.194031 0.194031 0.194031
0.415344 0.415344 0.415344
0.589600 0.589600 0.589600
0.845032 0.845032 0.845032
0.000000 0.000000 0.000000
0.000000 0.000000 0.000000
0.000000 0.000000 0.000000
0.000000 0.000000 0.000000
0.040253 0.040253 0.040253
0.086456 0.086456 0.086456
0.142456 0.142456 0.142456
0.207886 0.207886 0.207886
0.000000 0.000000 0.000000
0.000000 0.000000 0.000000
0.027802 0.027802 0.027802
0.072021 0.072021 0.072021
0.124786 0.124786 0.124786
0.187836 0.187836 0.187836
0.257477 0.257477 0.257477
0.329559 0.329559 0.329559
0.000000 0.000000 0.000000
0.000000 0.000000 0.000000
0.108032 0.108032 0.108032
0.168365 0.168365 0.168365
0.236481 0.236481 0.236481
0.308258 0.308258 0.308258
0.379578 0.379578 0.379578
0.446320 0.446320 0.446320
0.000000 0.000000 0.000000
0.000000 0.000000 0.000000
0.085327 0.085327 0.085327
0.286926 0.286926 0.286926
0.358826 0.358826 0.358826
0.427338 0.427338 0.427338
0.488617 0.488617 0.488617
0.542542 0.542542 0.542542
0.000000 0.000000 0.000000
0.000000 0.000000 0.000000
0.064545 0.064545 0.064545
0.255859 0.255859 0.255859
0.471436 0.471436 0.471436
0.527283 0.527283 0.527283
0.577576 0.577576 0.577576
0.624939 0.624939 0.624939
0.000000 0.000000 0.000000
0.000000 0.000000 0.000000
0.045166 0.045166 0.045166
0.225281 0.225281 0.225281
0.444946 0.444946 0.444946
0.611115 0.611115 0.611115
0.657959 0.657959 0.657959
0.706329 0.706329 0.706329
0.000000 0.000000 0.000000
0.000000 0.000000 0.000000
0.026886 0.026886 0.026886
0.195526 0.195526 0.195526
0.416901 0.416901 0.416901
0.590698 0.590698 0.590698
0.742584 0.742584 0.742584
0.797180 0.797180 0.797180
0.000000 0.000000 0.000000
0.000000 0.000000 0.000000
0.009247 0.009247 0.009247
0.166901 0.166901 0.166901
0.387573 0.387573 0.387573
0.569855 0.569855 0.569855
0.720154 0.720154 0.720154
0.896484 0.896484 0.896484
