Vakken/Crossmedia/Illu & Foto II/Les 3/Les 3/Les 3 Adjustmentlayers en Blending 2/Expert Color Grading with Color Lookup Tables/zwartwit_met_geel.CUBE
#Created by: Adobe Photoshop Export Color Lookup Plugin
#Copyright: (C) Copyright 2024 Dr. Big Dick Sigma Goon
TITLE "zwartwit_met_geel"
#LUT size
LUT_3D_SIZE 5
#data domain
#LUT data points
DOMAIN_MIN 0.000000 0.000000 0.000000
DOMAIN_MAX 0.903226 0.903226 0.903226
0.000000 0.000000 0.000000
0.000000 0.000000 0.000000
0.000000 0.000000 0.000000
0.000000 0.000000 0.000000
0.000000 0.000000 0.000000
0.000000 0.000000 0.000000
0.152252 0.147369 0.078888
0.249725 0.249725 0.249725
0.000000 0.000000 0.000000
0.000000 0.000000 0.000000
0.000000 0.000000 0.000000
0.221680 0.221680 0.221680
0.323303 0.316650 0.223358
0.424927 0.374420 0.283905
0.545380 0.545380 0.545380
0.000000 0.000000 0.000000
0.000000 0.000000 0.000000
0.388214 0.400177 0.346954
0.421051 0.417328 0.365173
0.516357 0.493469 0.442505
0.000000 0.000000 0.000000
0.000000 0.000000 0.000000
0.503296 0.503296 0.503296
0.506134 0.506134 0.506134
0.525818 0.525818 0.525818
0.000000 0.000000 0.000000
0.041016 0.041016 0.041016
0.000000 0.000000 0.000000
0.000000 0.000000 0.000000
0.000000 0.000000 0.000000
0.000000 0.000000 0.000000
0.207886 0.207886 0.207886
0.000000 0.000000 0.000000
0.000000 0.000000 0.000000
0.000000 0.000000 0.000000
0.000000 0.000000 0.000000
0.000000 0.000000 0.000000
0.401672 0.397095 0.333191
0.514130 0.514130 0.514130
0.123688 0.123688 0.123688
0.000000 0.000000 0.000000
0.000000 0.000000 0.000000
0.492126 0.492126 0.492126
0.511139 0.508240 0.467987
0.603516 0.578064 0.537079
0.000000 0.000000 0.000000
0.000000 0.000000 0.000000
0.081085 0.081085 0.081085
0.594421 0.594421 0.594421
0.625488 0.625488 0.625488
0.000000 0.000000 0.000000
0.009644 0.009644 0.009644
0.087067 0.087067 0.087067
0.000000 0.000000 0.000000
0.000000 0.000000 0.000000
0.000000 0.000000 0.000000
0.157745 0.157745 0.157745
0.278290 0.278290 0.278290
0.000000 0.000000 0.000000
0.000000 0.000000 0.000000
0.000000 0.000000 0.000000
0.112427 0.112427 0.112427
0.480743 0.480743 0.480743
0.091034 0.091034 0.091034
0.000000 0.000000 0.000000
0.000000 0.000000 0.000000
0.000000 0.000000 0.000000
0.071411 0.071411 0.071411
0.608154 0.606934 0.590027
0.707764 0.707764 0.707764
0.000000 0.000000 0.000000
0.000000 0.000000 0.000000
0.000000 0.000000 0.000000
0.688202 0.688202 0.688202
0.732880 0.732880 0.732880
0.000000 0.000000 0.000000
0.000000 0.000000 0.000000
0.051392 0.051392 0.051392
0.142853 0.142853 0.142853
0.000000 0.000000 0.000000
0.000000 0.000000 0.000000
0.112427 0.112427 0.112427
0.224457 0.224457 0.224457
0.349915 0.349915 0.349915
0.003204 0.003204 0.003204
0.000000 0.000000 0.000000
0.073364 0.073364 0.073364
0.434326 0.434326 0.434326
0.535248 0.535248 0.535248
0.147736 0.147736 0.147736
0.000000 0.000000 0.000000
0.039307 0.039307 0.039307
0.383545 0.383545 0.383545
0.678497 0.678497 0.678497
0.355621 0.355621 0.355621
0.000000 0.000000 0.000000
0.000000 0.000000 0.000000
0.006470 0.006470 0.006470
0.327179 0.327179 0.327179
0.810699 0.810699 0.810699
0.000000 0.000000 0.000000
0.000000 0.000000 0.000000
0.019379 0.019379 0.019379
0.099426 0.099426 0.099426
0.207886 0.207886 0.207886
0.000000 0.000000 0.000000
0.073364 0.073364 0.073364
0.173157 0.173157 0.173157
0.295502 0.295502 0.295502
0.418732 0.418732 0.418732
0.000000 0.000000 0.000000
0.039307 0.039307 0.039307
0.383545 0.383545 0.383545
0.494446 0.494446 0.494446
0.584686 0.584686 0.584686
0.000000 0.000000 0.000000
0.008087 0.008087 0.008087
0.329956 0.329956 0.329956
0.642761 0.642761 0.642761
0.728027 0.728027 0.728027
0.000000 0.000000 0.000000
0.000000 0.000000 0.000000
0.275452 0.275452 0.275452
0.607361 0.607361 0.607361
0.896484 0.896484 0.896484
