Vakken/Crossmedia/Illu & Foto II/Les 3/Les 3/Les 3 Adjustmentlayers en Blending 2/Black and White/BW LUTS/BW Landscapes 02.cube
#Created by: Adobe Photoshop Export Color Lookup Plugin
#Copyright: (C) Copyright 2017 ©Richard Harrington
TITLE "Untitled"
#LUT size
LUT_3D_SIZE 5
#data domain
#LUT data points
DOMAIN_MIN 0.000000 0.000000 0.000000
DOMAIN_MAX 0.903226 0.903226 0.903226
0.060181 0.060181 0.060181
0.174133 0.174133 0.174133
0.306366 0.306366 0.306366
0.389893 0.389893 0.389893
0.438477 0.438477 0.438477
0.153473 0.153473 0.153473
0.159424 0.159424 0.159424
0.264648 0.264648 0.264648
0.377136 0.377136 0.377136
0.459686 0.459686 0.459686
0.326385 0.326385 0.326385
0.304810 0.304810 0.304810
0.355286 0.355286 0.355286
0.470123 0.470123 0.470123
0.564148 0.564148 0.564148
0.439850 0.439850 0.439850
0.433136 0.433136 0.433136
0.436859 0.436859 0.436859
0.568085 0.568085 0.568085
0.675568 0.675568 0.675568
0.520081 0.520081 0.520081
0.522522 0.522522 0.522522
0.550232 0.550232 0.550232
0.636749 0.636749 0.636749
0.745209 0.745209 0.745209
0.194855 0.194855 0.194855
0.290680 0.290680 0.290680
0.410583 0.410583 0.410583
0.483429 0.483429 0.483429
0.532745 0.532745 0.532745
0.166718 0.166718 0.166718
0.222137 0.222137 0.222137
0.320496 0.320496 0.320496
0.424530 0.424530 0.424530
0.509735 0.509735 0.509735
0.327606 0.327606 0.327606
0.350708 0.350708 0.350708
0.395111 0.395111 0.395111
0.504242 0.504242 0.504242
0.598175 0.598175 0.598175
0.457672 0.457672 0.457672
0.458344 0.458344 0.458344
0.490875 0.490875 0.490875
0.590973 0.590973 0.590973
0.700989 0.700989 0.700989
0.546448 0.546448 0.546448
0.557251 0.557251 0.557251
0.602020 0.602020 0.602020
0.665985 0.665985 0.665985
0.762085 0.762085 0.762085
0.358307 0.358307 0.358307
0.426056 0.426056 0.426056
0.497406 0.497406 0.497406
0.603668 0.603668 0.603668
0.651917 0.651917 0.651917
0.280762 0.280762 0.280762
0.351074 0.351074 0.351074
0.424988 0.424988 0.424988
0.540100 0.540100 0.540100
0.619080 0.619080 0.619080
0.375824 0.375824 0.375824
0.390808 0.390808 0.390808
0.514099 0.514099 0.514099
0.599884 0.599884 0.599884
0.668518 0.668518 0.668518
0.500153 0.500153 0.500153
0.510712 0.510712 0.510712
0.589355 0.589355 0.589355
0.664001 0.664001 0.664001
0.751526 0.751526 0.751526
0.593536 0.593536 0.593536
0.609467 0.609467 0.609467
0.658752 0.658752 0.658752
0.726593 0.726593 0.726593
0.811157 0.811157 0.811157
0.468384 0.468384 0.468384
0.523682 0.523682 0.523682
0.581177 0.581177 0.581177
0.634064 0.634064 0.634064
0.703003 0.703003 0.703003
0.430023 0.430023 0.430023
0.467102 0.467102 0.467102
0.537659 0.537659 0.537659
0.598145 0.598145 0.598145
0.692719 0.692719 0.692719
0.470978 0.470978 0.470978
0.509827 0.509827 0.509827
0.607910 0.607910 0.607910
0.664917 0.664917 0.664917
0.753235 0.753235 0.753235
0.547241 0.547241 0.547241
0.551880 0.551880 0.551880
0.632965 0.632965 0.632965
0.749329 0.749329 0.749329
0.814270 0.814270 0.814270
0.651215 0.651215 0.651215
0.665863 0.665863 0.665863
0.704102 0.704102 0.704102
0.820312 0.820312 0.820312
0.875793 0.875793 0.875793
0.555481 0.555481 0.555481
0.600067 0.600067 0.600067
0.650085 0.650085 0.650085
0.664703 0.664703 0.664703
0.712982 0.712982 0.712982
0.530914 0.530914 0.530914
0.565674 0.565674 0.565674
0.624756 0.624756 0.624756
0.661713 0.661713 0.661713
0.710419 0.710419 0.710419
0.580811 0.580811 0.580811
0.625610 0.625610 0.625610
0.684357 0.684357 0.684357
0.720886 0.720886 0.720886
0.773743 0.773743 0.773743
0.633240 0.633240 0.633240
0.651093 0.651093 0.651093
0.714783 0.714783 0.714783
0.807800 0.807800 0.807800
0.861908 0.861908 0.861908
0.671783 0.671783 0.671783
0.683075 0.683075 0.683075
0.733978 0.733978 0.733978
0.845947 0.845947 0.845947
0.935944 0.935944 0.935944
