Vakken/Crossmedia/Illu & Foto II/Les 3/Les 3/Les 3 Adjustmentlayers en Blending 2/Black and White/BW LUTS/BW Landscapes 05.cube
TITLE "Untitled"
# LUT size
# data domain
# LUT data points
# 
# Copyright: (C) Copyright 2017 ©Richard Harrington
# Created by: Adobe Photoshop Export Color Lookup Plugin
LUT_3D_SIZE 5
DOMAIN_MIN 0.000000 0.000000 0.000000
DOMAIN_MAX 0.903226 0.903226 0.903226
0.022399 0.022399 0.022399
0.242638 0.242638 0.242638
0.522156 0.522156 0.522156
0.688845 0.688845 0.688845
0.768787 0.768787 0.768787
0.074489 0.074489 0.074489
0.099319 0.099319 0.099319
0.444229 0.444229 0.444229
0.704022 0.704022 0.704022
0.827962 0.827962 0.827962
0.197700 0.197700 0.197700
0.194818 0.194818 0.194818
0.221350 0.221350 0.221350
0.883942 0.883942 0.883942
0.964648 0.964648 0.964648
0.250452 0.250452 0.250452
0.245728 0.245728 0.245728
0.305111 0.305111 0.305111
0.442735 0.442735 0.442735
0.970898 0.970898 0.970898
0.320148 0.320148 0.320148
0.335880 0.335880 0.335880
0.421517 0.421517 0.421517
0.625122 0.625122 0.625122
0.758057 0.758057 0.758057
0.000000 0.000000 0.000000
0.185651 0.185651 0.185651
0.296534 0.296534 0.296534
0.491596 0.491596 0.491596
0.657070 0.657070 0.657070
0.071676 0.071676 0.071676
0.164675 0.164675 0.164675
0.299000 0.299000 0.299000
0.593937 0.593937 0.593937
0.767398 0.767398 0.767398
0.189124 0.189124 0.189124
0.211175 0.211175 0.211175
0.242915 0.242915 0.242915
0.853070 0.853070 0.853070
0.943916 0.943916 0.943916
0.255348 0.255348 0.255348
0.252084 0.252084 0.252084
0.340777 0.340777 0.340777
0.495416 0.495416 0.495416
0.977531 0.977531 0.977531
0.347166 0.347166 0.347166
0.349527 0.349527 0.349527
0.476386 0.476386 0.476386
0.670892 0.670892 0.670892
0.773787 0.773787 0.773787
0.011738 0.011738 0.011738
0.199195 0.199195 0.199195
0.304973 0.304973 0.304973
0.508021 0.508021 0.508021
0.641200 0.641200 0.641200
0.017051 0.017051 0.017051
0.153181 0.153181 0.153181
0.252917 0.252917 0.252917
0.423184 0.423184 0.423184
0.616857 0.616857 0.616857
0.182178 0.182178 0.182178
0.189783 0.189783 0.189783
0.362619 0.362619 0.362619
0.629844 0.629844 0.629844
0.799834 0.799834 0.799834
0.258994 0.258994 0.258994
0.254792 0.254792 0.254792
0.419849 0.419849 0.419849
0.632831 0.632831 0.632831
0.996076 0.996076 0.996076
0.356334 0.356334 0.356334
0.366926 0.366926 0.366926
0.479337 0.479337 0.479337
0.759480 0.759480 0.759480
0.832615 0.832615 0.832615
0.026774 0.026774 0.026774
0.188464 0.188464 0.188464
0.379914 0.379914 0.379914
0.516981 0.516981 0.516981
0.665579 0.665579 0.665579
0.096264 0.096264 0.096264
0.153250 0.153250 0.153250
0.320843 0.320843 0.320843
0.450757 0.450757 0.450757
0.656236 0.656236 0.656236
0.129705 0.129705 0.129705
0.162696 0.162696 0.162696
0.310390 0.310390 0.310390
0.597860 0.597860 0.597860
0.762675 0.762675 0.762675
0.228886 0.228886 0.228886
0.221211 0.221211 0.221211
0.319767 0.319767 0.319767
0.767676 0.767676 0.767676
0.880504 0.880504 0.880504
0.349077 0.349077 0.349077
0.356369 0.356369 0.356369
0.447875 0.447875 0.447875
0.822197 0.822197 0.822197
0.903389 0.903389 0.903389
0.059070 0.059070 0.059070
0.210411 0.210411 0.210411
0.499826 0.499826 0.499826
0.572857 0.572857 0.572857
0.686241 0.686241 0.686241
0.104529 0.104529 0.104529
0.160439 0.160439 0.160439
0.352445 0.352445 0.352445
0.545284 0.545284 0.545284
0.681831 0.681831 0.681831
0.074489 0.074489 0.074489
0.159293 0.159293 0.159293
0.301327 0.301327 0.301327
0.694819 0.694819 0.694819
0.795492 0.795492 0.795492
0.179504 0.179504 0.179504
0.161099 0.161099 0.161099
0.210411 0.210411 0.210411
0.778893 0.778893 0.778893
0.904432 0.904432 0.904432
0.253229 0.253229 0.253229
0.241874 0.241874 0.241874
0.281636 0.281636 0.281636
0.795839 0.795839 0.795839
0.984686 0.984686 0.984686
