Vakken/Crossmedia/Illu & Foto II/Les 3/Les 3/Les 3 Adjustmentlayers en Blending 2/Black and White/BW LUTS/BW Landscapes 05.cube
TITLE "Untitled"
# LUT size
# data domain
# LUT data points
# 
# Copyright: (C) Copyright 2017 ©Richard Harrington
# Created by: Adobe Photoshop Export Color Lookup Plugin
LUT_3D_SIZE 8
DOMAIN_MIN 0.000000 0.000000 0.000000
DOMAIN_MAX 0.903226 0.903226 0.903226
0.022399 0.022399 0.022399
0.175128 0.175128 0.175128
0.267086 0.267086 0.267086
0.441485 0.441485 0.441485
0.588207 0.588207 0.588207
0.671169 0.671169 0.671169
0.730761 0.730761 0.730761
0.768787 0.768787 0.768787
0.026184 0.026184 0.026184
0.056917 0.056917 0.056917
0.217425 0.217425 0.217425
0.291325 0.291325 0.291325
0.484928 0.484928 0.484928
0.631234 0.631234 0.631234
0.724788 0.724788 0.724788
0.794242 0.794242 0.794242
0.094944 0.094944 0.094944
0.088901 0.088901 0.088901
0.111682 0.111682 0.111682
0.377448 0.377448 0.377448
0.576642 0.576642 0.576642
0.707077 0.707077 0.707077
0.788443 0.788443 0.788443
0.845360 0.845360 0.845360
0.165509 0.165509 0.165509
0.159570 0.159570 0.159570
0.178254 0.178254 0.178254
0.193047 0.193047 0.193047
0.621614 0.621614 0.621614
0.830775 0.830775 0.830775
0.888700 0.888700 0.888700
0.927386 0.927386 0.927386
0.215724 0.215724 0.215724
0.209022 0.209022 0.209022
0.214856 0.214856 0.214856
0.231873 0.231873 0.231873
0.251840 0.251840 0.251840
0.783025 0.783025 0.783025
0.941172 0.941172 0.941172
0.987325 0.987325 0.987325
0.242325 0.242325 0.242325
0.237220 0.237220 0.237220
0.239478 0.239478 0.239478
0.263474 0.263474 0.263474
0.305424 0.305424 0.305424
0.402174 0.402174 0.402174
0.852479 0.852479 0.852479
0.979720 0.979720 0.979720
0.277226 0.277226 0.277226
0.276045 0.276045 0.276045
0.279518 0.279518 0.279518
0.309001 0.309001 0.309001
0.398840 0.398840 0.398840
0.470760 0.470760 0.470760
0.571781 0.571781 0.571781
0.916620 0.916620 0.916620
0.320148 0.320148 0.320148
0.327719 0.327719 0.327719
0.339873 0.339873 0.339873
0.374496 0.374496 0.374496
0.490485 0.490485 0.490485
0.606751 0.606751 0.606751
0.667141 0.667141 0.667141
0.758057 0.758057 0.758057
0.011043 0.011043 0.011043
0.113626 0.113626 0.113626
0.203570 0.203570 0.203570
0.318273 0.318273 0.318273
0.489026 0.489026 0.489026
0.619599 0.619599 0.619599
0.700826 0.700826 0.700826
0.751215 0.751215 0.751215
0.033546 0.033546 0.033546
0.092825 0.092825 0.092825
0.193742 0.193742 0.193742
0.255521 0.255521 0.255521
0.414606 0.414606 0.414606
0.587755 0.587755 0.587755
0.704195 0.704195 0.704195
0.778997 0.778997 0.778997
0.092026 0.092026 0.092026
0.107480 0.107480 0.107480
0.146964 0.146964 0.146964
0.326678 0.326678 0.326678
0.511217 0.511217 0.511217
0.663252 0.663252 0.663252
0.762501 0.762501 0.762501
0.823899 0.823899 0.823899
0.156167 0.156167 0.156167
0.166725 0.166725 0.166725
0.188637 0.188637 0.188637
0.205271 0.205271 0.205271
0.620572 0.620572 0.620572
0.800181 0.800181 0.800181
0.863488 0.863488 0.863488
0.908807 0.908807 0.908807
0.215064 0.215064 0.215064
0.208084 0.208084 0.208084
0.221663 0.221663 0.221663
0.239790 0.239790 0.239790
0.258160 0.258160 0.258160
0.778789 0.778789 0.778789
0.938186 0.938186 0.938186
0.982220 0.982220 0.982220
0.248472 0.248472 0.248472
0.242568 0.242568 0.242568
0.245416 0.245416 0.245416
0.269620 0.269620 0.269620
0.315877 0.315877 0.315877
0.414085 0.414085 0.414085
0.850465 0.850465 0.850465
0.982533 0.982533 0.982533
0.287505 0.287505 0.287505
0.285595 0.285595 0.285595
0.288199 0.288199 0.288199
0.327198 0.327198 0.327198
0.428497 0.428497 0.428497
0.501945 0.501945 0.501945
0.584387 0.584387 0.584387
0.914328 0.914328 0.914328
0.341228 0.341228 0.341228
0.338624 0.338624 0.338624
0.350465 0.350465 0.350465
0.395749 0.395749 0.395749
0.519829 0.519829 0.519829
0.630609 0.630609 0.630609
0.694263 0.694263 0.694263
0.762988 0.762988 0.762988
0.001701 0.001701 0.001701
0.138735 0.138735 0.138735
0.204299 0.204299 0.204299
0.258508 0.258508 0.258508
0.336852 0.336852 0.336852
0.440512 0.440512 0.440512
0.521913 0.521913 0.521913
0.594735 0.594735 0.594735
0.020072 0.020072 0.020072
0.092547 0.092547 0.092547
0.150889 0.150889 0.150889
0.207598 0.207598 0.207598
0.276045 0.276045 0.276045
0.428463 0.428463 0.428463
0.594214 0.594214 0.594214
0.697389 0.697389 0.697389
0.078274 0.078274 0.078274
0.123281 0.123281 0.123281
0.181970 0.181970 0.181970
0.248854 0.248854 0.248854
0.377170 0.377170 0.377170
0.551430 0.551430 0.551430
0.679920 0.679920 0.679920
0.766634 0.766634 0.766634
0.149430 0.149430 0.149430
0.160405 0.160405 0.160405
0.209057 0.209057 0.209057
0.225830 0.225830 0.225830
0.611370 0.611370 0.611370
0.743680 0.743680 0.743680
0.824177 0.824177 0.824177
0.886200 0.886200 0.886200
0.212668 0.212668 0.212668
0.207251 0.207251 0.207251
0.229615 0.229615 0.229615
0.258473 0.258473 0.258473
0.282226 0.282226 0.282226
0.786359 0.786359 0.786359
0.931484 0.931484 0.931484
0.973677 0.973677 0.973677
0.246771 0.246771 0.246771
0.243402 0.243402 0.243402
0.244791 0.244791 0.244791
0.299624 0.299624 0.299624
0.367655 0.367655 0.367655
0.440409 0.440409 0.440409
0.858279 0.858279 0.858279
0.988922 0.988922 0.988922
0.294937 0.294937 0.294937
0.289103 0.289103 0.289103
0.290804 0.290804 0.290804
0.358626 0.358626 0.358626
0.469961 0.469961 0.469961
0.556953 0.556953 0.556953
0.627761 0.627761 0.627761
0.917385 0.917385 0.917385
0.347652 0.347652 0.347652
0.343277 0.343277 0.343277
0.355639 0.355639 0.355639
0.405959 0.405959 0.405959
0.559627 0.559627 0.559627
0.666099 0.666099 0.666099
0.723677 0.723677 0.723677
0.779205 0.779205 0.779205
0.006042 0.006042 0.006042
0.088693 0.088693 0.088693
0.228608 0.228608 0.228608
0.261877 0.261877 0.261877
0.355917 0.355917 0.355917
0.473051 0.473051 0.473051
0.555320 0.555320 0.555320
0.628212 0.628212 0.628212
0.026670 0.026670 0.026670
0.078587 0.078587 0.078587
0.175024 0.175024 0.175024
0.218329 0.218329 0.218329
0.276219 0.276219 0.276219
0.369252 0.369252 0.369252
0.497951 0.497951 0.497951
0.599771 0.599771 0.599771
0.030143 0.030143 0.030143
0.085949 0.085949 0.085949
0.181137 0.181137 0.181137
0.229129 0.229129 0.229129
0.288026 0.288026 0.288026
0.393457 0.393457 0.393457
0.504688 0.504688 0.504688
0.608105 0.608105 0.608105
0.145784 0.145784 0.145784
0.142520 0.142520 0.142520
0.202042 0.202042 0.202042
0.270177 0.270177 0.270177
0.393631 0.393631 0.393631
0.569662 0.569662 0.569662
0.686866 0.686866 0.686866
0.780039 0.780039 0.780039
0.211488 0.211488 0.211488
0.206313 0.206313 0.206313
0.224302 0.224302 0.224302
0.294624 0.294624 0.294624
0.374357 0.374357 0.374357
0.798965 0.798965 0.798965
0.882241 0.882241 0.882241
0.941485 0.941485 0.941485
0.247604 0.247604 0.247604
0.244235 0.244235 0.244235
0.246284 0.246284 0.246284
0.317544 0.317544 0.317544
0.458988 0.458988 0.458988
0.543165 0.543165 0.543165
0.891061 0.891061 0.891061
0.995381 0.995381 0.995381
0.295944 0.295944 0.295944
0.292124 0.292124 0.292124
0.295249 0.295249 0.295249
0.347305 0.347305 0.347305
0.538304 0.538304 0.538304
0.628282 0.628282 0.628282
0.685234 0.685234 0.685234
0.941033 0.941033 0.941033
0.349771 0.349771 0.349771
0.355847 0.355847 0.355847
0.365884 0.365884 0.365884
0.394500 0.394500 0.394500
0.617030 0.617030 0.617030
0.717356 0.717356 0.717356
0.769586 0.769586 0.769586
0.809453 0.809453 0.809453
0.015037 0.015037 0.015037
0.077094 0.077094 0.077094
0.221593 0.221593 0.221593
0.287818 0.287818 0.287818
0.357827 0.357827 0.357827
0.489061 0.489061 0.489061
0.580289 0.580289 0.580289
0.653181 0.653181 0.653181
0.037783 0.037783 0.037783
0.076087 0.076087 0.076087
0.149535 0.149535 0.149535
0.244131 0.244131 0.244131
0.284310 0.284310 0.284310
0.400715 0.400715 0.400715
0.527920 0.527920 0.527920
0.617620 0.617620 0.617620
0.031497 0.031497 0.031497
0.129392 0.129392 0.129392
0.176031 0.176031 0.176031
0.247639 0.247639 0.247639
0.298757 0.298757 0.298757
0.425406 0.425406 0.425406
0.534936 0.534936 0.534936
0.635852 0.635852 0.635852
0.098659 0.098659 0.098659
0.117655 0.117655 0.117655
0.183532 0.183532 0.183532
0.257014 0.257014 0.257014
0.371996 0.371996 0.371996
0.501701 0.501701 0.501701
0.604911 0.604911 0.604911
0.700757 0.700757 0.700757
0.201209 0.201209 0.201209
0.187769 0.187769 0.187769
0.203292 0.203292 0.203292
0.266634 0.266634 0.266634
0.491179 0.491179 0.491179
0.621579 0.621579 0.621579
0.728747 0.728747 0.728747
0.810182 0.810182 0.810182
0.246354 0.246354 0.246354
0.244027 0.244027 0.244027
0.240693 0.240693 0.240693
0.302056 0.302056 0.302056
0.529552 0.529552 0.529552
0.641304 0.641304 0.641304
0.924607 0.924607 0.924607
0.971628 0.971628 0.971628
0.297541 0.297541 0.297541
0.293270 0.293270 0.293270
0.290665 0.290665 0.290665
0.331886 0.331886 0.331886
0.561814 0.561814 0.561814
0.699125 0.699125 0.699125
0.756181 0.756181 0.756181
0.968989 0.968989 0.968989
0.359425 0.359425 0.359425
0.358383 0.358383 0.358383
0.364946 0.364946 0.364946
0.391269 0.391269 0.391269
0.600847 0.600847 0.600847
0.759515 0.759515 0.759515
0.816050 0.816050 0.816050
0.851021 0.851021 0.851021
0.024517 0.024517 0.024517
0.082615 0.082615 0.082615
0.217704 0.217704 0.217704
0.340880 0.340880 0.340880
0.384220 0.384220 0.384220
0.484720 0.484720 0.484720
0.582893 0.582893 0.582893
0.663912 0.663912 0.663912
0.047923 0.047923 0.047923
0.080428 0.080428 0.080428
0.142658 0.142658 0.142658
0.257084 0.257084 0.257084
0.322857 0.322857 0.322857
0.404292 0.404292 0.404292
0.538546 0.538546 0.538546
0.634463 0.634463 0.634463
0.111265 0.111265 0.111265
0.137693 0.137693 0.137693
0.175650 0.175650 0.175650
0.242221 0.242221 0.242221
0.340638 0.340638 0.340638
0.428671 0.428671 0.428671
0.545179 0.545179 0.545179
0.658390 0.658390 0.658390
0.091679 0.091679 0.091679
0.119357 0.119357 0.119357
0.187769 0.187769 0.187769
0.248785 0.248785 0.248785
0.432108 0.432108 0.432108
0.508925 0.508925 0.508925
0.617238 0.617238 0.617238
0.718745 0.718745 0.718745
0.171933 0.171933 0.171933
0.164120 0.164120 0.164120
0.185859 0.185859 0.185859
0.232741 0.232741 0.232741
0.459230 0.459230 0.459230
0.613939 0.613939 0.613939
0.710863 0.710863 0.710863
0.793201 0.793201 0.793201
0.224684 0.224684 0.224684
0.217114 0.217114 0.217114
0.213397 0.213397 0.213397
0.254966 0.254966 0.254966
0.460758 0.460758 0.460758
0.720587 0.720587 0.720587
0.805876 0.805876 0.805876
0.871302 0.871302 0.871302
0.285317 0.285317 0.285317
0.276323 0.276323 0.276323
0.268301 0.268301 0.268301
0.289484 0.289484 0.289484
0.540735 0.540735 0.540735
0.755382 0.755382 0.755382
0.826851 0.826851 0.826851
0.992047 0.992047 0.992047
0.350396 0.350396 0.350396
0.353417 0.353417 0.353417
0.359911 0.359911 0.359911
0.370606 0.370606 0.370606
0.577754 0.577754 0.577754
0.785144 0.785144 0.785144
0.862377 0.862377 0.862377
0.893631 0.893631 0.893631
0.038512 0.038512 0.038512
0.097166 0.097166 0.097166
0.221003 0.221003 0.221003
0.383004 0.383004 0.383004
0.457043 0.457043 0.457043
0.503820 0.503820 0.503820
0.591298 0.591298 0.591298
0.670648 0.670648 0.670648
0.052924 0.052924 0.052924
0.086297 0.086297 0.086297
0.147799 0.147799 0.147799
0.260731 0.260731 0.260731
0.389186 0.389186 0.389186
0.440582 0.440582 0.440582
0.548028 0.548028 0.548028
0.651410 0.651410 0.651410
0.117343 0.117343 0.117343
0.138977 0.138977 0.138977
0.174677 0.174677 0.174677
0.242395 0.242395 0.242395
0.418182 0.418182 0.418182
0.468398 0.468398 0.468398
0.562230 0.562230 0.562230
0.670440 0.670440 0.670440
0.084456 0.084456 0.084456
0.140506 0.140506 0.140506
0.201869 0.201869 0.201869
0.243228 0.243228 0.243228
0.453848 0.453848 0.453848
0.552577 0.552577 0.552577
0.628074 0.628074 0.628074
0.731004 0.731004 0.731004
0.146964 0.146964 0.146964
0.140158 0.140158 0.140158
0.168113 0.168113 0.168113
0.205828 0.205828 0.205828
0.427837 0.427837 0.427837
0.657174 0.657174 0.657174
0.722149 0.722149 0.722149
0.812648 0.812648 0.812648
0.201451 0.201451 0.201451
0.195513 0.195513 0.195513
0.190512 0.190512 0.190512
0.223677 0.223677 0.223677
0.323135 0.323135 0.323135
0.721211 0.721211 0.721211
0.807438 0.807438 0.807438
0.876094 0.876094 0.876094
0.240936 0.240936 0.240936
0.236630 0.236630 0.236630
0.232115 0.232115 0.232115
0.248194 0.248194 0.248194
0.450722 0.450722 0.450722
0.739616 0.739616 0.739616
0.889255 0.889255 0.889255
0.944784 0.944784 0.944784
0.313064 0.313064 0.313064
0.305355 0.305355 0.305355
0.296152 0.296152 0.296152
0.292436 0.292436 0.292436
0.534068 0.534068 0.534068
0.783269 0.783269 0.783269
0.909606 0.909606 0.909606
0.955619 0.955619 0.955619
0.059070 0.059070 0.059070
0.121058 0.121058 0.121058
0.231907 0.231907 0.231907
0.406028 0.406028 0.406028
0.523927 0.523927 0.523927
0.563759 0.563759 0.563759
0.608626 0.608626 0.608626
0.686241 0.686241 0.686241
0.064280 0.064280 0.064280
0.101611 0.101611 0.101611
0.166238 0.166238 0.166238
0.278892 0.278892 0.278892
0.474927 0.474927 0.474927
0.523267 0.523267 0.523267
0.583727 0.583727 0.583727
0.669191 0.669191 0.669191
0.118801 0.118801 0.118801
0.141547 0.141547 0.141547
0.178080 0.178080 0.178080
0.253924 0.253924 0.253924
0.482844 0.482844 0.482844
0.548409 0.548409 0.548409
0.597166 0.597166 0.597166
0.693152 0.693152 0.693152
0.122135 0.122135 0.122135
0.168531 0.168531 0.168531
0.197284 0.197284 0.197284
0.244826 0.244826 0.244826
0.471975 0.471975 0.471975
0.629531 0.629531 0.629531
0.668531 0.668531 0.668531
0.753577 0.753577 0.753577
0.102965 0.102965 0.102965
0.097513 0.097513 0.097513
0.127275 0.127275 0.127275
0.211071 0.211071 0.211071
0.433012 0.433012 0.433012
0.730170 0.730170 0.730170
0.758231 0.758231 0.758231
0.828448 0.828448 0.828448
0.165544 0.165544 0.165544
0.154813 0.154813 0.154813
0.149361 0.149361 0.149361
0.182247 0.182247 0.182247
0.235345 0.235345 0.235345
0.719093 0.719093 0.719093
0.841193 0.841193 0.841193
0.891548 0.891548 0.891548
0.210967 0.210967 0.210967
0.204264 0.204264 0.204264
0.197111 0.197111 0.197111
0.209786 0.209786 0.209786
0.294311 0.294311 0.294311
0.635817 0.635817 0.635817
0.898701 0.898701 0.898701
0.944159 0.944159 0.944159
0.253229 0.253229 0.253229
0.246874 0.246874 0.246874
0.240102 0.240102 0.240102
0.237499 0.237499 0.237499
0.414606 0.414606 0.414606
0.741805 0.741805 0.741805
0.912627 0.912627 0.912627
0.984686 0.984686 0.984686
