Vakken/Crossmedia/Illu & Foto II/Les 3/Les 3/Les 3 Adjustmentlayers en Blending 2/Black and White/BW LUTS/BW Landscapes 02.cube
#Created by: Adobe Photoshop Export Color Lookup Plugin
#Copyright: (C) Copyright 2017 ©Richard Harrington
TITLE "Untitled"
#LUT size
LUT_3D_SIZE 32
#data domain
DOMAIN_MIN 0.0 0.0 0.0
DOMAIN_MAX 1.0 1.0 1.0
#LUT data points
0.060181 0.060181 0.060181
0.066620 0.066620 0.066620
0.075714 0.075714 0.075714
0.089478 0.089478 0.089478
0.105927 0.105927 0.105927
0.126007 0.126007 0.126007
0.149628 0.149628 0.149628
0.174133 0.174133 0.174133
0.199219 0.199219 0.199219
0.222839 0.222839 0.222839
0.243774 0.243774 0.243774
0.263519 0.263519 0.263519
0.277802 0.277802 0.277802
0.291992 0.291992 0.291992
0.306366 0.306366 0.306366
0.320984 0.320984 0.320984
0.334595 0.334595 0.334595
0.346405 0.346405 0.346405
0.356903 0.356903 0.356903
0.367920 0.367920 0.367920
0.378723 0.378723 0.378723
0.389893 0.389893 0.389893
0.399811 0.399811 0.399811
0.407684 0.407684 0.407684
0.414185 0.414185 0.414185
0.420349 0.420349 0.420349
0.426483 0.426483 0.426483
0.432281 0.432281 0.432281
0.438477 0.438477 0.438477
0.444946 0.444946 0.444946
0.451447 0.451447 0.451447
0.457642 0.457642 0.457642
0.065277 0.065277 0.065277
0.065308 0.065308 0.065308
0.070801 0.070801 0.070801
0.078796 0.078796 0.078796
0.086884 0.086884 0.086884
0.099487 0.099487 0.099487
0.112915 0.112915 0.112915
0.128479 0.128479 0.128479
0.147797 0.147797 0.147797
0.167389 0.167389 0.167389
0.190857 0.190857 0.190857
0.213043 0.213043 0.213043
0.235199 0.235199 0.235199
0.254059 0.254059 0.254059
0.270660 0.270660 0.270660
0.289001 0.289001 0.289001
0.303101 0.303101 0.303101
0.316193 0.316193 0.316193
0.332092 0.332092 0.332092
0.344147 0.344147 0.344147
0.357208 0.357208 0.357208
0.368683 0.368683 0.368683
0.379913 0.379913 0.379913
0.390625 0.390625 0.390625
0.401764 0.401764 0.401764
0.410095 0.410095 0.410095
0.419098 0.419098 0.419098
0.426056 0.426056 0.426056
0.432587 0.432587 0.432587
0.439789 0.439789 0.439789
0.446625 0.446625 0.446625
0.453491 0.453491 0.453491
0.073486 0.073486 0.073486
0.072601 0.072601 0.072601
0.073792 0.073792 0.073792
0.078674 0.078674 0.078674
0.084991 0.084991 0.084991
0.092255 0.092255 0.092255
0.101288 0.101288 0.101288
0.111877 0.111877 0.111877
0.125000 0.125000 0.125000
0.141327 0.141327 0.141327
0.160889 0.160889 0.160889
0.184021 0.184021 0.184021
0.206757 0.206757 0.206757
0.229370 0.229370 0.229370
0.251038 0.251038 0.251038
0.270416 0.270416 0.270416
0.287231 0.287231 0.287231
0.301544 0.301544 0.301544
0.316437 0.316437 0.316437
0.331818 0.331818 0.331818
0.345795 0.345795 0.345795
0.357849 0.357849 0.357849
0.368744 0.368744 0.368744
0.380066 0.380066 0.380066
0.391815 0.391815 0.391815
0.403778 0.403778 0.403778
0.414032 0.414032 0.414032
0.422913 0.422913 0.422913
0.429962 0.429962 0.429962
0.436737 0.436737 0.436737
0.443481 0.443481 0.443481
0.450531 0.450531 0.450531
0.084381 0.084381 0.084381
0.082855 0.082855 0.082855
0.083435 0.083435 0.083435
0.086090 0.086090 0.086090
0.093292 0.093292 0.093292
0.099884 0.099884 0.099884
0.108093 0.108093 0.108093
0.117767 0.117767 0.117767
0.129059 0.129059 0.129059
0.142456 0.142456 0.142456
0.160614 0.160614 0.160614
0.181335 0.181335 0.181335
0.203461 0.203461 0.203461
0.225616 0.225616 0.225616
0.247101 0.247101 0.247101
0.268097 0.268097 0.268097
0.286133 0.286133 0.286133
0.301758 0.301758 0.301758
0.316498 0.316498 0.316498
0.331482 0.331482 0.331482
0.347168 0.347168 0.347168
0.359711 0.359711 0.359711
0.371521 0.371521 0.371521
0.382477 0.382477 0.382477
0.393890 0.393890 0.393890
0.405457 0.405457 0.405457
0.417175 0.417175 0.417175
0.426819 0.426819 0.426819
0.435150 0.435150 0.435150
0.441742 0.441742 0.441742
0.448364 0.448364 0.448364
0.455139 0.455139 0.455139
0.094147 0.094147 0.094147
0.092102 0.092102 0.092102
0.092224 0.092224 0.092224
0.094543 0.094543 0.094543
0.101074 0.101074 0.101074
0.109131 0.109131 0.109131
0.116364 0.116364 0.116364
0.124786 0.124786 0.124786
0.134857 0.134857 0.134857
0.147186 0.147186 0.147186
0.162506 0.162506 0.162506
0.182922 0.182922 0.182922
0.204468 0.204468 0.204468
0.226196 0.226196 0.226196
0.247711 0.247711 0.247711
0.268494 0.268494 0.268494
0.287903 0.287903 0.287903
0.304352 0.304352 0.304352
0.318481 0.318481 0.318481
0.332977 0.332977 0.332977
0.348114 0.348114 0.348114
0.362854 0.362854 0.362854
0.374725 0.374725 0.374725
0.385193 0.385193 0.385193
0.396393 0.396393 0.396393
0.407593 0.407593 0.407593
0.419189 0.419189 0.419189
0.430603 0.430603 0.430603
0.440125 0.440125 0.440125
0.447174 0.447174 0.447174
0.454041 0.454041 0.454041
0.461243 0.461243 0.461243
0.109344 0.109344 0.109344
0.104218 0.104218 0.104218
0.101257 0.101257 0.101257
0.102783 0.102783 0.102783
0.108002 0.108002 0.108002
0.116180 0.116180 0.116180
0.125732 0.125732 0.125732
0.133179 0.133179 0.133179
0.142456 0.142456 0.142456
0.154572 0.154572 0.154572
0.169220 0.169220 0.169220
0.188232 0.188232 0.188232
0.209381 0.209381 0.209381
0.230103 0.230103 0.230103
0.250824 0.250824 0.250824
0.270874 0.270874 0.270874
0.290771 0.290771 0.290771
0.308258 0.308258 0.308258
0.322235 0.322235 0.322235
0.336304 0.336304 0.336304
0.350983 0.350983 0.350983
0.365356 0.365356 0.365356
0.379364 0.379364 0.379364
0.389740 0.389740 0.389740
0.400360 0.400360 0.400360
0.411621 0.411621 0.411621
0.422974 0.422974 0.422974
0.434265 0.434265 0.434265
0.445526 0.445526 0.445526
0.453278 0.453278 0.453278
0.460449 0.460449 0.460449
0.467346 0.467346 0.467346
0.129608 0.129608 0.129608
0.123291 0.123291 0.123291
0.119080 0.119080 0.119080
0.118195 0.118195 0.118195
0.120544 0.120544 0.120544
0.126740 0.126740 0.126740
0.136993 0.136993 0.136993
0.146637 0.146637 0.146637
0.155151 0.155151 0.155151
0.166290 0.166290 0.166290
0.180145 0.180145 0.180145
0.196564 0.196564 0.196564
0.215698 0.215698 0.215698
0.235535 0.235535 0.235535
0.255707 0.255707 0.255707
0.275116 0.275116 0.275116
0.294403 0.294403 0.294403
0.313904 0.313904 0.313904
0.327576 0.327576 0.327576
0.341400 0.341400 0.341400
0.355804 0.355804 0.355804
0.370361 0.370361 0.370361
0.384552 0.384552 0.384552
0.396149 0.396149 0.396149
0.406647 0.406647 0.406647
0.417328 0.417328 0.417328
0.428711 0.428711 0.428711
0.440216 0.440216 0.440216
0.451691 0.451691 0.451691
0.460754 0.460754 0.460754
0.468658 0.468658 0.468658
0.475800 0.475800 0.475800
0.153473 0.153473 0.153473
0.144958 0.144958 0.144958
0.139679 0.139679 0.139679
0.136414 0.136414 0.136414
0.134521 0.134521 0.134521
0.139740 0.139740 0.139740
0.147461 0.147461 0.147461
0.159424 0.159424 0.159424
0.170227 0.170227 0.170227
0.180695 0.180695 0.180695
0.192627 0.192627 0.192627
0.207611 0.207611 0.207611
0.225983 0.225983 0.225983
0.245148 0.245148 0.245148
0.264648 0.264648 0.264648
0.282654 0.282654 0.282654
0.301636 0.301636 0.301636
0.320923 0.320923 0.320923
0.335510 0.335510 0.335510
0.348999 0.348999 0.348999
0.362946 0.362946 0.362946
0.377136 0.377136 0.377136
0.391846 0.391846 0.391846
0.404297 0.404297 0.404297
0.415039 0.415039 0.415039
0.425598 0.425598 0.425598
0.436615 0.436615 0.436615
0.448090 0.448090 0.448090
0.459686 0.459686 0.459686
0.470398 0.470398 0.470398
0.478790 0.478790 0.478790
0.486145 0.486145 0.486145
0.180786 0.180786 0.180786
0.171265 0.171265 0.171265
0.164185 0.164185 0.164185
0.160034 0.160034 0.160034
0.155426 0.155426 0.155426
0.154449 0.154449 0.154449
0.161102 0.161102 0.161102
0.169891 0.169891 0.169891
0.183380 0.183380 0.183380
0.196838 0.196838 0.196838
0.208130 0.208130 0.208130
0.220978 0.220978 0.220978
0.237976 0.237976 0.237976
0.256012 0.256012 0.256012
0.274231 0.274231 0.274231
0.291382 0.291382 0.291382
0.309052 0.309052 0.309052
0.328400 0.328400 0.328400
0.342896 0.342896 0.342896
0.356720 0.356720 0.356720
0.370331 0.370331 0.370331
0.384613 0.384613 0.384613
0.399384 0.399384 0.399384
0.413025 0.413025 0.413025
0.423889 0.423889 0.423889
0.434235 0.434235 0.434235
0.445038 0.445038 0.445038
0.456299 0.456299 0.456299
0.467865 0.467865 0.467865
0.479462 0.479462 0.479462
0.489288 0.489288 0.489288
0.496796 0.496796 0.496796
0.208801 0.208801 0.208801
0.199860 0.199860 0.199860
0.192566 0.192566 0.192566
0.188232 0.188232 0.188232
0.183868 0.183868 0.183868
0.179230 0.179230 0.179230
0.179291 0.179291 0.179291
0.186646 0.186646 0.186646
0.195801 0.195801 0.195801
0.210907 0.210907 0.210907
0.224548 0.224548 0.224548
0.237762 0.237762 0.237762
0.253021 0.253021 0.253021
0.269592 0.269592 0.269592
0.286530 0.286530 0.286530
0.302765 0.302765 0.302765
0.319611 0.319611 0.319611
0.337891 0.337891 0.337891
0.353760 0.353760 0.353760
0.368073 0.368073 0.368073
0.381287 0.381287 0.381287
0.395111 0.395111 0.395111
0.409790 0.409790 0.409790
0.424927 0.424927 0.424927
0.435913 0.435913 0.435913
0.446655 0.446655 0.446655
0.457031 0.457031 0.457031
0.468384 0.468384 0.468384
0.479980 0.479980 0.479980
0.491882 0.491882 0.491882
0.502441 0.502441 0.502441
0.511566 0.511566 0.511566
0.236633 0.236633 0.236633
0.228455 0.228455 0.228455
0.220612 0.220612 0.220612
0.216919 0.216919 0.216919
0.212494 0.212494 0.212494
0.208099 0.208099 0.208099
0.203949 0.203949 0.203949
0.205750 0.205750 0.205750
0.213928 0.213928 0.213928
0.224426 0.224426 0.224426
0.238831 0.238831 0.238831
0.254333 0.254333 0.254333
0.270691 0.270691 0.270691
0.285583 0.285583 0.285583
0.300781 0.300781 0.300781
0.314728 0.314728 0.314728
0.329742 0.329742 0.329742
0.346344 0.346344 0.346344
0.362915 0.362915 0.362915
0.376953 0.376953 0.376953
0.389435 0.389435 0.389435
0.402771 0.402771 0.402771
0.417023 0.417023 0.417023
0.432098 0.432098 0.432098
0.445190 0.445190 0.445190
0.455841 0.455841 0.455841
0.466766 0.466766 0.466766
0.477905 0.477905 0.477905
0.489807 0.489807 0.489807
0.501953 0.501953 0.501953
0.514435 0.514435 0.514435
0.524994 0.524994 0.524994
0.259308 0.259308 0.259308
0.251495 0.251495 0.251495
0.247589 0.247589 0.247589
0.243835 0.243835 0.243835
0.240143 0.240143 0.240143
0.236237 0.236237 0.236237
0.232269 0.232269 0.232269
0.229095 0.229095 0.229095
0.232086 0.232086 0.232086
0.241364 0.241364 0.241364
0.252197 0.252197 0.252197
0.265533 0.265533 0.265533
0.285614 0.285614 0.285614
0.301025 0.301025 0.301025
0.315399 0.315399 0.315399
0.330200 0.330200 0.330200
0.345734 0.345734 0.345734
0.362915 0.362915 0.362915
0.380310 0.380310 0.380310
0.396301 0.396301 0.396301
0.408417 0.408417 0.408417
0.421509 0.421509 0.421509
0.435364 0.435364 0.435364
0.450165 0.450165 0.450165
0.463287 0.463287 0.463287
0.475037 0.475037 0.475037
0.485443 0.485443 0.485443
0.496033 0.496033 0.496033
0.507385 0.507385 0.507385
0.519073 0.519073 0.519073
0.531189 0.531189 0.531189
0.543182 0.543182 0.543182
0.284515 0.284515 0.284515
0.276123 0.276123 0.276123
0.270599 0.270599 0.270599
0.267883 0.267883 0.267883
0.265656 0.265656 0.265656
0.261780 0.261780 0.261780
0.257935 0.257935 0.257935
0.254730 0.254730 0.254730
0.252350 0.252350 0.252350
0.258179 0.258179 0.258179
0.268677 0.268677 0.268677
0.280701 0.280701 0.280701
0.296539 0.296539 0.296539
0.321075 0.321075 0.321075
0.336029 0.336029 0.336029
0.350037 0.350037 0.350037
0.364594 0.364594 0.364594
0.380371 0.380371 0.380371
0.397919 0.397919 0.397919
0.413574 0.413574 0.413574
0.426422 0.426422 0.426422
0.439148 0.439148 0.439148
0.452759 0.452759 0.452759
0.467163 0.467163 0.467163
0.481354 0.481354 0.481354
0.494080 0.494080 0.494080
0.504547 0.504547 0.504547
0.515625 0.515625 0.515625
0.527069 0.527069 0.527069
0.539429 0.539429 0.539429
0.552246 0.552246 0.552246
0.565338 0.565338 0.565338
0.306976 0.306976 0.306976
0.301117 0.301117 0.301117
0.294922 0.294922 0.294922
0.292053 0.292053 0.292053
0.291016 0.291016 0.291016
0.287598 0.287598 0.287598
0.283997 0.283997 0.283997
0.280670 0.280670 0.280670
0.277557 0.277557 0.277557
0.275452 0.275452 0.275452
0.284546 0.284546 0.284546
0.295807 0.295807 0.295807
0.309845 0.309845 0.309845
0.325806 0.325806 0.325806
0.352539 0.352539 0.352539
0.365936 0.365936 0.365936
0.380005 0.380005 0.380005
0.395416 0.395416 0.395416
0.412628 0.412628 0.412628
0.429535 0.429535 0.429535
0.442932 0.442932 0.442932
0.455780 0.455780 0.455780
0.469299 0.469299 0.469299
0.483398 0.483398 0.483398
0.498505 0.498505 0.498505
0.512207 0.512207 0.512207
0.522644 0.522644 0.522644
0.533936 0.533936 0.533936
0.545166 0.545166 0.545166
0.557831 0.557831 0.557831
0.570526 0.570526 0.570526
0.584076 0.584076 0.584076
0.326385 0.326385 0.326385
0.320129 0.320129 0.320129
0.315674 0.315674 0.315674
0.313171 0.313171 0.313171
0.312195 0.312195 0.312195
0.310944 0.310944 0.310944
0.307739 0.307739 0.307739
0.304810 0.304810 0.304810
0.301605 0.301605 0.301605
0.298706 0.298706 0.298706
0.299347 0.299347 0.299347
0.309509 0.309509 0.309509
0.322510 0.322510 0.322510
0.337860 0.337860 0.337860
0.355286 0.355286 0.355286
0.381287 0.381287 0.381287
0.394684 0.394684 0.394684
0.409088 0.409088 0.409088
0.425659 0.425659 0.425659
0.442291 0.442291 0.442291
0.457123 0.457123 0.457123
0.470123 0.470123 0.470123
0.483551 0.483551 0.483551
0.498016 0.498016 0.498016
0.513428 0.513428 0.513428
0.529114 0.529114 0.529114
0.540527 0.540527 0.540527
0.552032 0.552032 0.552032
0.564148 0.564148 0.564148
0.576569 0.576569 0.576569
0.589935 0.589935 0.589935
0.603516 0.603516 0.603516
0.346497 0.346497 0.346497
0.340729 0.340729 0.340729
0.335815 0.335815 0.335815
0.332733 0.332733 0.332733
0.330383 0.330383 0.330383
0.328766 0.328766 0.328766
0.326294 0.326294 0.326294
0.324615 0.324615 0.324615
0.322449 0.322449 0.322449
0.320648 0.320648 0.320648
0.318695 0.318695 0.318695
0.322784 0.322784 0.322784
0.335388 0.335388 0.335388
0.349976 0.349976 0.349976
0.366333 0.366333 0.366333
0.386597 0.386597 0.386597
0.409332 0.409332 0.409332
0.424408 0.424408 0.424408
0.440521 0.440521 0.440521
0.456879 0.456879 0.456879
0.473541 0.473541 0.473541
0.486694 0.486694 0.486694
0.500031 0.500031 0.500031
0.514374 0.514374 0.514374
0.529602 0.529602 0.529602
0.545471 0.545471 0.545471
0.558655 0.558655 0.558655
0.570251 0.570251 0.570251
0.582336 0.582336 0.582336
0.594391 0.594391 0.594391
0.607697 0.607697 0.607697
0.620880 0.620880 0.620880
0.364624 0.364624 0.364624
0.359772 0.359772 0.359772
0.355347 0.355347 0.355347
0.352814 0.352814 0.352814
0.350250 0.350250 0.350250
0.348175 0.348175 0.348175
0.346466 0.346466 0.346466
0.345062 0.345062 0.345062
0.343323 0.343323 0.343323
0.341705 0.341705 0.341705
0.340057 0.340057 0.340057
0.338318 0.338318 0.338318
0.347656 0.347656 0.347656
0.361694 0.361694 0.361694
0.377228 0.377228 0.377228
0.393188 0.393188 0.393188
0.413940 0.413940 0.413940
0.435608 0.435608 0.435608
0.451202 0.451202 0.451202
0.468536 0.468536 0.468536
0.489288 0.489288 0.489288
0.503143 0.503143 0.503143
0.516510 0.516510 0.516510
0.530853 0.530853 0.530853
0.545898 0.545898 0.545898
0.561829 0.561829 0.561829
0.575867 0.575867 0.575867
0.588104 0.588104 0.588104
0.600006 0.600006 0.600006
0.611908 0.611908 0.611908
0.624817 0.624817 0.624817
0.635681 0.635681 0.635681
0.382355 0.382355 0.382355
0.377838 0.377838 0.377838
0.373962 0.373962 0.373962
0.371490 0.371490 0.371490
0.369202 0.369202 0.369202
0.366913 0.366913 0.366913
0.365051 0.365051 0.365051
0.363678 0.363678 0.363678
0.362000 0.362000 0.362000
0.360504 0.360504 0.360504
0.358734 0.358734 0.358734
0.356934 0.356934 0.356934
0.358185 0.358185 0.358185
0.371246 0.371246 0.371246
0.386780 0.386780 0.386780
0.403412 0.403412 0.403412
0.420990 0.420990 0.420990
0.444977 0.444977 0.444977
0.470215 0.470215 0.470215
0.488037 0.488037 0.488037
0.506897 0.506897 0.506897
0.520752 0.520752 0.520752
0.534210 0.534210 0.534210
0.548523 0.548523 0.548523
0.563538 0.563538 0.563538
0.579346 0.579346 0.579346
0.594238 0.594238 0.594238
0.606873 0.606873 0.606873
0.618683 0.618683 0.618683
0.630615 0.630615 0.630615
0.643311 0.643311 0.643311
0.649597 0.649597 0.649597
0.398010 0.398010 0.398010
0.393890 0.393890 0.393890
0.390228 0.390228 0.390228
0.388031 0.388031 0.388031
0.386871 0.386871 0.386871
0.385193 0.385193 0.385193
0.384003 0.384003 0.384003
0.383057 0.383057 0.383057
0.381683 0.381683 0.381683
0.380371 0.380371 0.380371
0.379181 0.379181 0.379181
0.377991 0.377991 0.377991
0.376923 0.376923 0.376923
0.385071 0.385071 0.385071
0.400818 0.400818 0.400818
0.417938 0.417938 0.417938
0.434967 0.434967 0.434967
0.451202 0.451202 0.451202
0.475494 0.475494 0.475494
0.501434 0.501434 0.501434
0.520325 0.520325 0.520325
0.534515 0.534515 0.534515
0.548187 0.548187 0.548187
0.562500 0.562500 0.562500
0.577637 0.577637 0.577637
0.593628 0.593628 0.593628
0.609802 0.609802 0.609802
0.622711 0.622711 0.622711
0.634369 0.634369 0.634369
0.646820 0.646820 0.646820
0.659332 0.659332 0.659332
0.662109 0.662109 0.662109
0.412628 0.412628 0.412628
0.409149 0.409149 0.409149
0.406494 0.406494 0.406494
0.404877 0.404877 0.404877
0.403687 0.403687 0.403687
0.403015 0.403015 0.403015
0.402130 0.402130 0.402130
0.402222 0.402222 0.402222
0.401733 0.401733 0.401733
0.400879 0.400879 0.400879
0.400909 0.400909 0.400909
0.400299 0.400299 0.400299
0.399719 0.399719 0.399719
0.398987 0.398987 0.398987
0.413818 0.413818 0.413818
0.429291 0.429291 0.429291
0.445099 0.445099 0.445099
0.460510 0.460510 0.460510
0.477173 0.477173 0.477173
0.503693 0.503693 0.503693
0.529572 0.529572 0.529572
0.544800 0.544800 0.544800
0.558807 0.558807 0.558807
0.573334 0.573334 0.573334
0.588898 0.588898 0.588898
0.605133 0.605133 0.605133
0.622070 0.622070 0.622070
0.636108 0.636108 0.636108
0.647797 0.647797 0.647797
0.660187 0.660187 0.660187
0.672180 0.672180 0.672180
0.672028 0.672028 0.672028
0.426239 0.426239 0.426239
0.423157 0.423157 0.423157
0.420776 0.420776 0.420776
0.419403 0.419403 0.419403
0.418640 0.418640 0.418640
0.418121 0.418121 0.418121
0.418060 0.418060 0.418060
0.418671 0.418671 0.418671
0.419189 0.419189 0.419189
0.419647 0.419647 0.419647
0.420044 0.420044 0.420044
0.419952 0.419952 0.419952
0.419037 0.419037 0.419037
0.417938 0.417938 0.417938
0.423950 0.423950 0.423950
0.440216 0.440216 0.440216
0.456482 0.456482 0.456482
0.472473 0.472473 0.472473
0.488464 0.488464 0.488464
0.507416 0.507416 0.507416
0.538361 0.538361 0.538361
0.558075 0.558075 0.558075
0.573334 0.573334 0.573334
0.587677 0.587677 0.587677
0.602844 0.602844 0.602844
0.618683 0.618683 0.618683
0.635315 0.635315 0.635315
0.649689 0.649689 0.649689
0.662292 0.662292 0.662292
0.674683 0.674683 0.674683
0.684235 0.684235 0.684235
0.684235 0.684235 0.684235
0.439850 0.439850 0.439850
0.437225 0.437225 0.437225
0.435089 0.435089 0.435089
0.433624 0.433624 0.433624
0.432587 0.432587 0.432587
0.432068 0.432068 0.432068
0.432037 0.432037 0.432037
0.433136 0.433136 0.433136
0.433807 0.433807 0.433807
0.434082 0.434082 0.434082
0.434875 0.434875 0.434875
0.435303 0.435303 0.435303
0.435364 0.435364 0.435364
0.435638 0.435638 0.435638
0.436859 0.436859 0.436859
0.451477 0.451477 0.451477
0.468109 0.468109 0.468109
0.484955 0.484955 0.484955
0.501709 0.501709 0.501709
0.518219 0.518219 0.518219
0.537659 0.537659 0.537659
0.568085 0.568085 0.568085
0.585571 0.585571 0.585571
0.599731 0.599731 0.599731
0.614502 0.614502 0.614502
0.630249 0.630249 0.630249
0.646851 0.646851 0.646851
0.662476 0.662476 0.662476
0.675568 0.675568 0.675568
0.687592 0.687592 0.687592
0.695068 0.695068 0.695068
0.695099 0.695099 0.695099
0.451752 0.451752 0.451752
0.450195 0.450195 0.450195
0.448578 0.448578 0.448578
0.447357 0.447357 0.447357
0.446594 0.446594 0.446594
0.445862 0.445862 0.445862
0.445801 0.445801 0.445801
0.446899 0.446899 0.446899
0.448151 0.448151 0.448151
0.448883 0.448883 0.448883
0.449890 0.449890 0.449890
0.450470 0.450470 0.450470
0.450867 0.450867 0.450867
0.452301 0.452301 0.452301
0.453888 0.453888 0.453888
0.462708 0.462708 0.462708
0.480225 0.480225 0.480225
0.497650 0.497650 0.497650
0.514191 0.514191 0.514191
0.531097 0.531097 0.531097
0.548065 0.548065 0.548065
0.565125 0.565125 0.565125
0.596313 0.596313 0.596313
0.612244 0.612244 0.612244
0.627716 0.627716 0.627716
0.643463 0.643463 0.643463
0.660217 0.660217 0.660217
0.676208 0.676208 0.676208
0.690704 0.690704 0.690704
0.702728 0.702728 0.702728
0.708160 0.708160 0.708160
0.708282 0.708282 0.708282
0.463745 0.463745 0.463745
0.463318 0.463318 0.463318
0.462158 0.462158 0.462158
0.461609 0.461609 0.461609
0.460510 0.460510 0.460510
0.459930 0.459930 0.459930
0.460022 0.460022 0.460022
0.461151 0.461151 0.461151
0.462494 0.462494 0.462494
0.464203 0.464203 0.464203
0.466125 0.466125 0.466125
0.467224 0.467224 0.467224
0.468445 0.468445 0.468445
0.469910 0.469910 0.469910
0.471466 0.471466 0.471466
0.473663 0.473663 0.473663
0.490265 0.490265 0.490265
0.507782 0.507782 0.507782
0.524475 0.524475 0.524475
0.541931 0.541931 0.541931
0.559784 0.559784 0.559784
0.576508 0.576508 0.576508
0.594391 0.594391 0.594391
0.620758 0.620758 0.620758
0.638550 0.638550 0.638550
0.655487 0.655487 0.655487
0.672394 0.672394 0.672394
0.688995 0.688995 0.688995
0.705109 0.705109 0.705109
0.717773 0.717773 0.717773
0.722015 0.722015 0.722015
0.722412 0.722412 0.722412
0.475372 0.475372 0.475372
0.474823 0.474823 0.474823
0.474640 0.474640 0.474640
0.474304 0.474304 0.474304
0.474518 0.474518 0.474518
0.474518 0.474518 0.474518
0.475189 0.475189 0.475189
0.476959 0.476959 0.476959
0.478485 0.478485 0.478485
0.480194 0.480194 0.480194
0.482239 0.482239 0.482239
0.483704 0.483704 0.483704
0.484680 0.484680 0.484680
0.485626 0.485626 0.485626
0.487793 0.487793 0.487793
0.489868 0.489868 0.489868
0.500488 0.500488 0.500488
0.518494 0.518494 0.518494
0.535919 0.535919 0.535919
0.553802 0.553802 0.553802
0.572174 0.572174 0.572174
0.589691 0.589691 0.589691
0.604614 0.604614 0.604614
0.619202 0.619202 0.619202
0.645142 0.645142 0.645142
0.664093 0.664093 0.664093
0.682434 0.682434 0.682434
0.699982 0.699982 0.699982
0.716644 0.716644 0.716644
0.729523 0.729523 0.729523
0.732544 0.732544 0.732544
0.732544 0.732544 0.732544
0.486603 0.486603 0.486603
0.486176 0.486176 0.486176
0.485352 0.485352 0.485352
0.485382 0.485382 0.485382
0.486053 0.486053 0.486053
0.486786 0.486786 0.486786
0.488342 0.488342 0.488342
0.490204 0.490204 0.490204
0.492432 0.492432 0.492432
0.493622 0.493622 0.493622
0.496063 0.496063 0.496063
0.498291 0.498291 0.498291
0.500214 0.500214 0.500214
0.502106 0.502106 0.502106
0.504211 0.504211 0.504211
0.506958 0.506958 0.506958
0.512573 0.512573 0.512573
0.530273 0.530273 0.530273
0.547729 0.547729 0.547729
0.565277 0.565277 0.565277
0.583191 0.583191 0.583191
0.600525 0.600525 0.600525
0.616882 0.616882 0.616882
0.628113 0.628113 0.628113
0.644470 0.644470 0.644470
0.669189 0.669189 0.669189
0.690247 0.690247 0.690247
0.708618 0.708618 0.708618
0.726929 0.726929 0.726929
0.739960 0.739960 0.739960
0.742767 0.742767 0.742767
0.742981 0.742981 0.742981
0.497559 0.497559 0.497559
0.497498 0.497498 0.497498
0.496368 0.496368 0.496368
0.495911 0.495911 0.495911
0.496002 0.496002 0.496002
0.496582 0.496582 0.496582
0.498108 0.498108 0.498108
0.500671 0.500671 0.500671
0.503296 0.503296 0.503296
0.506439 0.506439 0.506439
0.509491 0.509491 0.509491
0.512909 0.512909 0.512909
0.516266 0.516266 0.516266
0.518738 0.518738 0.518738
0.521027 0.521027 0.521027
0.524231 0.524231 0.524231
0.527649 0.527649 0.527649
0.541321 0.541321 0.541321
0.558411 0.558411 0.558411
0.576019 0.576019 0.576019
0.594208 0.594208 0.594208
0.612976 0.612976 0.612976
0.629364 0.629364 0.629364
0.641327 0.641327 0.641327
0.652252 0.652252 0.652252
0.669159 0.669159 0.669159
0.692932 0.692932 0.692932
0.715820 0.715820 0.715820
0.734924 0.734924 0.734924
0.749420 0.749420 0.749420
0.752075 0.752075 0.752075
0.752319 0.752319 0.752319
0.507874 0.507874 0.507874
0.508057 0.508057 0.508057
0.507233 0.507233 0.507233
0.506531 0.506531 0.506531
0.506622 0.506622 0.506622
0.507446 0.507446 0.507446
0.508972 0.508972 0.508972
0.511383 0.511383 0.511383
0.514435 0.514435 0.514435
0.517792 0.517792 0.517792
0.521301 0.521301 0.521301
0.525391 0.525391 0.525391
0.529297 0.529297 0.529297
0.533417 0.533417 0.533417
0.536316 0.536316 0.536316
0.540924 0.540924 0.540924
