Vakken/Crossmedia/Illu & Foto II/Les 3/Les 3/Les 3 Adjustmentlayers en Blending 2/Black and White/BW LUTS/BW Landscapes 03.cube
#Created by: Adobe Photoshop Export Color Lookup Plugin
#Copyright: (C) Copyright 2017 ©Richard Harrington
TITLE "Untitled"
#LUT size
LUT_3D_SIZE 32
#data domain
DOMAIN_MIN 0.0 0.0 0.0
DOMAIN_MAX 1.0 1.0 1.0
#LUT data points
0.000000 0.000000 0.000000
0.000000 0.000000 0.000000
0.000000 0.000000 0.000000
0.000000 0.000000 0.000000
0.041260 0.041260 0.041260
0.074738 0.074738 0.074738
0.094086 0.094086 0.094086
0.114197 0.114197 0.114197
0.135925 0.135925 0.135925
0.160767 0.160767 0.160767
0.188385 0.188385 0.188385
0.217712 0.217712 0.217712
0.247711 0.247711 0.247711
0.278320 0.278320 0.278320
0.309052 0.309052 0.309052
0.339874 0.339874 0.339874
0.371094 0.371094 0.371094
0.402740 0.402740 0.402740
0.434509 0.434509 0.434509
0.474640 0.474640 0.474640
0.515381 0.515381 0.515381
0.555786 0.555786 0.555786
0.595947 0.595947 0.595947
0.636261 0.636261 0.636261
0.678833 0.678833 0.678833
0.724426 0.724426 0.724426
0.771851 0.771851 0.771851
0.817566 0.817566 0.817566
0.859436 0.859436 0.859436
0.895813 0.895813 0.895813
0.925690 0.925690 0.925690
0.949036 0.949036 0.949036
0.000000 0.000000 0.000000
0.000000 0.000000 0.000000
0.000000 0.000000 0.000000
0.000000 0.000000 0.000000
0.042297 0.042297 0.042297
0.074432 0.074432 0.074432
0.093842 0.093842 0.093842
0.113586 0.113586 0.113586
0.135406 0.135406 0.135406
0.160950 0.160950 0.160950
0.188293 0.188293 0.188293
0.217133 0.217133 0.217133
0.246857 0.246857 0.246857
0.277100 0.277100 0.277100
0.307434 0.307434 0.307434
0.338043 0.338043 0.338043
0.368927 0.368927 0.368927
0.400360 0.400360 0.400360
0.432007 0.432007 0.432007
0.471222 0.471222 0.471222
0.510803 0.510803 0.510803
0.550323 0.550323 0.550323
0.589874 0.589874 0.589874
0.629639 0.629639 0.629639
0.671753 0.671753 0.671753
0.716980 0.716980 0.716980
0.764923 0.764923 0.764923
0.811584 0.811584 0.811584
0.854614 0.854614 0.854614
0.892090 0.892059 0.892059
0.922943 0.922943 0.922943
0.947083 0.947083 0.947083
0.000000 0.000000 0.000000
0.000000 0.000000 0.000000
0.000000 0.000000 0.000000
0.000000 0.000000 0.000000
0.043335 0.043335 0.043335
0.074738 0.074738 0.074738
0.093536 0.093536 0.093536
0.113586 0.113586 0.113586
0.136597 0.136597 0.136597
0.161743 0.161743 0.161743
0.188873 0.188873 0.188873
0.217590 0.217590 0.217590
0.247009 0.247009 0.247009
0.277191 0.277191 0.277191
0.307343 0.307343 0.307343
0.337677 0.337677 0.337677
0.368500 0.368500 0.368500
0.399658 0.399658 0.399658
0.431274 0.431274 0.431274
0.470123 0.470123 0.470123
0.509064 0.509064 0.509064
0.548157 0.548157 0.548157
0.587341 0.587341 0.587341
0.626740 0.626740 0.626740
0.668549 0.668549 0.668549
0.713562 0.713562 0.713562
0.761627 0.761627 0.761627
0.808716 0.808716 0.808716
0.852264 0.852264 0.852264
0.890259 0.890259 0.890259
0.921600 0.921600 0.921600
0.946075 0.946075 0.946075
0.000000 0.000000 0.000000
0.001038 0.001038 0.001038
0.001038 0.001038 0.001038
0.003082 0.003082 0.003082
0.052612 0.052612 0.052612
0.078125 0.078125 0.078125
0.097443 0.097443 0.097443
0.117889 0.117889 0.117889
0.140533 0.140533 0.140533
0.165375 0.165375 0.165375
0.192108 0.192108 0.192108
0.220306 0.220306 0.220306
0.249298 0.249298 0.249298
0.278870 0.278870 0.278870
0.308624 0.308624 0.308624
0.338745 0.338745 0.338745
0.369171 0.369171 0.369171
0.399933 0.399933 0.399933
0.432098 0.432098 0.432098
0.469208 0.469208 0.469208
0.506683 0.506683 0.506683
0.544678 0.544678 0.544678
0.583618 0.583618 0.583618
0.623383 0.623383 0.623383
0.666016 0.666016 0.666016
0.712280 0.712280 0.712280
0.761414 0.761414 0.761414
0.809174 0.809174 0.809174
0.852783 0.852783 0.852783
0.890472 0.890472 0.890472
0.921448 0.921448 0.921448
0.945709 0.945709 0.945709
0.020630 0.020630 0.020630
0.021667 0.021667 0.021667
0.022705 0.022705 0.022705
0.025787 0.025787 0.025787
0.019623 0.019623 0.019623
0.070343 0.070343 0.070343
0.105652 0.105652 0.105652
0.125092 0.125092 0.125092
0.146851 0.146851 0.146851
0.170837 0.170837 0.170837
0.196625 0.196625 0.196625
0.224243 0.224243 0.224243
0.252716 0.252716 0.252716
0.281769 0.281769 0.281769
0.311188 0.311188 0.311188
0.341187 0.341187 0.341187
0.371704 0.371704 0.371704
0.402527 0.402527 0.402527
0.435822 0.435822 0.435822
0.471680 0.471680 0.471680
0.508087 0.508087 0.508087
0.545258 0.545258 0.545258
0.583435 0.583435 0.583435
0.622925 0.622925 0.622925
0.665405 0.665405 0.665405
0.711609 0.711609 0.711609
0.760773 0.760773 0.760773
0.808411 0.808411 0.808411
0.851990 0.851990 0.851990
0.889709 0.889709 0.889709
0.920776 0.920776 0.920776
0.945160 0.945160 0.945160
0.048492 0.048492 0.048492
0.049530 0.049530 0.049530
0.050293 0.050293 0.050293
0.052612 0.052612 0.052612
0.068085 0.068085 0.068085
0.025787 0.025787 0.025787
0.054169 0.054169 0.054169
0.120667 0.120667 0.120667
0.156860 0.156860 0.156860
0.179962 0.179962 0.179962
0.205048 0.205048 0.205048
0.231659 0.231659 0.231659
0.259308 0.259308 0.259308
0.287720 0.287720 0.287720
0.316711 0.316711 0.316711
0.346497 0.346497 0.346497
0.376740 0.376740 0.376740
0.407166 0.407166 0.407166
0.441650 0.441650 0.441650
0.476837 0.476837 0.476837
0.512878 0.512878 0.512878
0.550049 0.550049 0.550049
0.629425 0.629425 0.629425
0.671936 0.671936 0.671936
0.716522 0.716522 0.716522
0.762299 0.762299 0.762299
0.806061 0.806061 0.806061
0.846222 0.846222 0.846222
0.881744 0.881744 0.881744
0.912018 0.912018 0.912018
0.936493 0.936493 0.936493
0.955627 0.955627 0.955627
0.068085 0.068085 0.068085
0.068512 0.068512 0.068512
0.068909 0.068909 0.068909
0.071075 0.071075 0.071075
0.080109 0.080109 0.080109
0.079468 0.079468 0.079468
0.034058 0.034058 0.034058
0.012390 0.012390 0.012390
0.115662 0.115662 0.115662
0.180908 0.180908 0.180908
0.222229 0.222229 0.222229
0.248352 0.248352 0.248352
0.275238 0.275238 0.275238
0.302979 0.302979 0.302979
0.331085 0.331085 0.331085
0.359741 0.359741 0.359741
0.389069 0.389069 0.389069
0.421631 0.421631 0.421631
0.456573 0.456573 0.456573
0.492889 0.492889 0.492889
0.531250 0.531250 0.531250
0.572113 0.572113 0.572113
0.615143 0.615143 0.615143
0.660767 0.660767 0.660767
0.709076 0.709076 0.709076
0.757629 0.757629 0.757629
0.802979 0.802979 0.802979
0.843811 0.843811 0.843811
0.879883 0.879883 0.879883
0.910278 0.910278 0.910278
0.935059 0.935059 0.935059
0.954529 0.954529 0.954529
0.078491 0.078491 0.078491
0.078796 0.078796 0.078796
0.078796 0.078796 0.078796
0.082642 0.082642 0.082642
0.089996 0.089996 0.089996
0.100189 0.100189 0.100189
0.083221 0.083221 0.083221
0.040253 0.040253 0.040253
0.000000 0.000000 0.000000
0.105194 0.105194 0.105194
0.175354 0.175354 0.175354
0.243378 0.243378 0.243378
0.285095 0.285095 0.285095
0.311890 0.311890 0.311890
0.339233 0.339233 0.339233
0.367096 0.367096 0.367096
0.397003 0.397003 0.397003
0.429749 0.429749 0.429749
0.462799 0.462799 0.462799
0.497498 0.497498 0.497498
0.534454 0.534454 0.534454
0.574066 0.574066 0.574066
0.615906 0.615906 0.615906
0.660461 0.660461 0.660461
0.707886 0.707886 0.707886
0.755920 0.755920 0.755920
0.801117 0.801117 0.801117
0.842163 0.842163 0.842163
0.878418 0.878418 0.878418
0.909058 0.909058 0.909058
0.934143 0.934143 0.934143
0.953827 0.953827 0.953827
0.089172 0.089172 0.089172
0.089722 0.089722 0.089722
0.091370 0.091370 0.091370
0.095367 0.095367 0.095367
0.102142 0.102142 0.102142
0.111023 0.111023 0.111023
0.110779 0.110779 0.110779
0.087128 0.087128 0.087128
0.047455 0.047455 0.047455
0.000000 0.000000 0.000000
0.096130 0.096130 0.096130
0.174866 0.174866 0.174866
0.250305 0.250305 0.250305
0.320557 0.320557 0.320557
0.350067 0.350067 0.350067
0.378113 0.378113 0.378113
0.409058 0.409058 0.409058
0.439911 0.439911 0.439911
0.471405 0.471405 0.471405
0.504822 0.504822 0.504822
0.540680 0.540680 0.540680
0.579254 0.579254 0.579254
0.619995 0.619995 0.619995
0.663757 0.663757 0.663757
0.710449 0.710449 0.710449
0.757721 0.757721 0.757721
0.802338 0.802338 0.802338
0.842865 0.842865 0.842865
0.878693 0.878693 0.878693
0.909058 0.909058 0.909058
0.933929 0.933929 0.933929
0.953552 0.953552 0.953552
0.102631 0.102631 0.102631
0.103760 0.103760 0.103760
0.105438 0.105438 0.105438
0.109283 0.109283 0.109283
0.115234 0.115234 0.115234
0.123932 0.123932 0.123932
0.134735 0.134735 0.134735
0.119324 0.119324 0.119324
0.095612 0.095612 0.095612
0.066864 0.066864 0.066864
0.004120 0.004120 0.004120
0.093842 0.093842 0.093842
0.177307 0.177307 0.177307
0.256775 0.256775 0.256775
0.331757 0.331757 0.331757
0.393372 0.393372 0.393372
0.423065 0.423065 0.423065
0.453003 0.453003 0.453003
0.483551 0.483551 0.483551
0.515625 0.515625 0.515625
0.549835 0.549835 0.549835
0.586365 0.586365 0.586365
0.624817 0.624817 0.624817
0.666473 0.666473 0.666473
0.711243 0.711243 0.711243
0.757568 0.757568 0.757568
0.802063 0.802063 0.802063
0.842896 0.842896 0.842896
0.879059 0.879059 0.879059
0.909729 0.909729 0.909729
0.934692 0.934692 0.934692
0.954315 0.954315 0.954315
0.119324 0.119324 0.119324
0.120483 0.120483 0.120483
0.122253 0.122253 0.122253
0.126007 0.126007 0.126007
0.131958 0.131958 0.131958
0.140076 0.140076 0.140076
0.150635 0.150635 0.150635
0.156464 0.156464 0.156464
0.134888 0.134888 0.134888
0.109924 0.109924 0.109924
0.081390 0.081390 0.081390
0.042297 0.042297 0.042297
0.091644 0.091644 0.091644
0.180786 0.180786 0.180786
0.265991 0.265991 0.265991
0.344604 0.344604 0.344604
0.418884 0.418884 0.418884
0.464691 0.464691 0.464691
0.493866 0.493866 0.493866
0.524811 0.524811 0.524811
0.558075 0.558075 0.558075
0.593781 0.593781 0.593781
0.631653 0.631683 0.631653
0.672943 0.672943 0.672943
0.717163 0.717163 0.717163
0.762421 0.762421 0.762421
0.805542 0.805542 0.805542
0.845245 0.845245 0.845245
0.880493 0.880493 0.880493
0.910553 0.910553 0.910553
0.935150 0.935150 0.935150
0.954529 0.954529 0.954529
0.138763 0.138763 0.138763
0.139893 0.139893 0.139893
0.141541 0.141541 0.141541
0.145172 0.145172 0.145172
0.150940 0.150940 0.150940
0.158600 0.158600 0.158600
0.168518 0.168518 0.168518
0.180298 0.180298 0.180298
0.175079 0.175079 0.175079
0.152130 0.152130 0.152130
0.125458 0.125458 0.125458
0.096436 0.096436 0.096436
0.075104 0.075104 0.075104
0.095612 0.095612 0.095612
0.197174 0.197174 0.197174
0.291473 0.291473 0.291473
0.377167 0.377167 0.377167
0.456390 0.456390 0.456390
0.529602 0.529602 0.529602
0.562805 0.562805 0.562805
0.594849 0.594849 0.594849
0.628937 0.628937 0.628937
0.666016 0.666016 0.666016
0.706299 0.706299 0.706299
0.748718 0.748718 0.748718
0.790222 0.790222 0.790222
0.828766 0.828766 0.828766
0.863586 0.863586 0.863586
0.894257 0.894257 0.894257
0.920441 0.920441 0.920441
0.941864 0.941864 0.941864
0.959015 0.959015 0.959015
0.163391 0.163391 0.163391
0.164429 0.164429 0.164429
0.165894 0.165894 0.165894
0.169037 0.169037 0.169037
0.174103 0.174103 0.174103
0.180908 0.180908 0.180908
0.189972 0.189972 0.189972
0.201050 0.201050 0.201050
0.214264 0.214264 0.214264
0.198730 0.198730 0.198730
0.175720 0.175720 0.175720
0.148529 0.148529 0.148529
0.117096 0.117096 0.117096
0.088562 0.088562 0.088562
0.095123 0.095123 0.095123
0.196198 0.196198 0.196198
0.294281 0.294281 0.294281
0.382446 0.382446 0.382446
0.464111 0.464111 0.464111
0.540344 0.540344 0.540344
0.602509 0.602509 0.602509
0.635590 0.635590 0.635590
0.671753 0.671753 0.671753
0.711029 0.711029 0.711029
0.752380 0.752380 0.752380
0.792694 0.792694 0.792694
0.830383 0.830383 0.830383
0.864624 0.864624 0.864624
0.894897 0.894897 0.894897
0.920807 0.920807 0.920807
0.942169 0.942169 0.942169
0.959290 0.959290 0.959290
0.184418 0.184418 0.184418
0.185455 0.185455 0.185455
0.186829 0.186829 0.186829
0.189758 0.189758 0.189758
0.194366 0.194366 0.194366
0.201263 0.201263 0.201263
0.210419 0.210419 0.210419
0.221680 0.221680 0.221680
0.234985 0.234985 0.234985
0.242798 0.242798 0.242798
0.221771 0.221771 0.221771
0.196869 0.196869 0.196869
0.167725 0.167725 0.167725
0.133514 0.133514 0.133514
0.102356 0.102356 0.102356
0.100433 0.100433 0.100433
0.193054 0.193054 0.193054
0.294342 0.294342 0.294342
0.385864 0.385864 0.385864
0.471008 0.471008 0.471008
0.550934 0.550934 0.550934
0.627472 0.627472 0.627472
0.679657 0.679657 0.679657
0.718475 0.718475 0.718475
0.758881 0.758881 0.758881
0.798096 0.798096 0.798096
0.834686 0.834686 0.834686
0.867920 0.867920 0.867920
0.897369 0.897369 0.897369
0.922699 0.922699 0.922699
0.943573 0.943573 0.943573
0.960297 0.960297 0.960297
0.209045 0.209045 0.209045
0.210236 0.210236 0.210236
0.211395 0.211395 0.211395
0.214264 0.214264 0.214264
0.218811 0.218811 0.218811
0.225067 0.225067 0.225067
0.233215 0.233215 0.233215
0.243225 0.243225 0.243225
0.255432 0.255432 0.255432
0.269958 0.269958 0.269958
0.266205 0.266205 0.266205
0.243866 0.243866 0.243866
0.217590 0.217590 0.217590
0.186371 0.186371 0.186371
0.150208 0.150208 0.150208
0.115479 0.115479 0.115479
0.106171 0.106171 0.106171
0.188507 0.188507 0.188507
0.293976 0.293976 0.293976
0.389252 0.389252 0.389252
0.478638 0.478638 0.478638
0.562042 0.562042 0.562042
0.641968 0.641968 0.641968
0.724792 0.724792 0.724792
0.766174 0.766174 0.766174
0.804657 0.804657 0.804657
0.840759 0.840759 0.840759
0.873657 0.873657 0.873657
0.902649 0.902649 0.902649
0.927246 0.927246 0.927246
0.947357 0.947357 0.947357
0.963379 0.963379 0.963379
0.234314 0.234314 0.234314
0.235565 0.235565 0.235565
0.236755 0.236755 0.236755
0.239594 0.239594 0.239594
0.243866 0.243866 0.243866
0.249847 0.249847 0.249847
0.257629 0.257629 0.257629
0.267242 0.267242 0.267242
0.278809 0.278809 0.278809
0.292236 0.292236 0.292236
0.307404 0.307404 0.307404
0.290527 0.290527 0.290527
0.265991 0.265991 0.265991
0.237122 0.237122 0.237122
0.203735 0.203735 0.203735
0.165527 0.165527 0.165527
0.128021 0.128021 0.128021
0.115295 0.115295 0.115295
0.182526 0.182526 0.182526
0.293396 0.293396 0.293396
0.394012 0.394012 0.394012
0.488434 0.488434 0.488434
0.576172 0.576172 0.576172
0.661499 0.661499 0.661499
0.749451 0.749451 0.749451
0.816040 0.816040 0.816040
0.850494 0.850494 0.850494
0.881653 0.881653 0.881653
0.908844 0.908844 0.908844
0.931763 0.931763 0.931763
0.950409 0.950409 0.950409
0.965302 0.965302 0.965302
0.258209 0.258209 0.258209
0.258942 0.258942 0.258942
0.260193 0.260193 0.260193
0.262756 0.262756 0.262756
0.266785 0.266785 0.266785
0.272247 0.272247 0.272247
0.279541 0.279541 0.279541
0.288330 0.288330 0.288330
0.299072 0.299072 0.299072
0.311554 0.311554 0.311554
0.325867 0.325867 0.325867
0.333649 0.333649 0.333649
0.311554 0.311554 0.311554
0.285522 0.285522 0.285522
0.255371 0.255371 0.255371
0.220734 0.220734 0.220734
0.181396 0.181396 0.181396
0.140686 0.140686 0.140686
0.127838 0.127838 0.127838
0.174957 0.174957 0.174957
0.291443 0.291443 0.291443
0.397308 0.397308 0.397308
0.495819 0.495819 0.495819
0.587982 0.587982 0.587982
0.678619 0.678619 0.678619
0.770844 0.770844 0.770844
0.846924 0.846924 0.846924
0.887329 0.887329 0.887329
0.913391 0.913391 0.913391
0.935272 0.935272 0.935272
0.953156 0.953156 0.953156
0.967377 0.967377 0.967377
0.282654 0.282654 0.282654
0.283844 0.283844 0.283844
0.298737 0.298737 0.298737
0.301147 0.301147 0.301147
0.304840 0.304840 0.304840
0.309814 0.309814 0.309814
0.316315 0.316315 0.316315
0.324341 0.324341 0.324341
0.334229 0.334229 0.334229
0.345886 0.345886 0.345886
0.359131 0.359131 0.359131
0.373840 0.373840 0.373840
0.368408 0.368408 0.368408
0.343292 0.343292 0.343292
0.314575 0.314575 0.314575
0.281860 0.281860 0.281860
0.244934 0.244934 0.244934
0.203003 0.203003 0.203003
0.158142 0.158142 0.158142
0.144562 0.144562 0.144562
0.169952 0.169952 0.169952
0.294617 0.294617 0.294617
0.407196 0.407196 0.407196
0.511169 0.511169 0.511169
0.607605 0.607605 0.607605
0.703857 0.703857 0.703857
0.797119 0.797119 0.797119
0.868988 0.868988 0.868988
0.918060 0.918060 0.918060
0.938812 0.938812 0.938812
0.955719 0.955719 0.955719
0.969177 0.969177 0.969177
0.311005 0.311005 0.311005
0.313660 0.313660 0.313660
0.316711 0.316711 0.316711
0.320770 0.320770 0.320770
0.325653 0.325653 0.325653
0.331085 0.331085 0.331085
0.337524 0.337524 0.337524
0.345123 0.345123 0.345123
0.354492 0.354492 0.354492
0.365356 0.365356 0.365356
0.377838 0.377838 0.377838
0.391785 0.391785 0.391785
0.406677 0.406677 0.406677
0.387909 0.387909 0.387909
0.361298 0.361298 0.361298
0.331238 0.331238 0.331238
0.297699 0.297699 0.297699
0.259918 0.259918 0.259918
0.217804 0.217804 0.217804
0.170349 0.170349 0.170349
0.156738 0.156738 0.156738
0.171356 0.171356 0.171356
0.290283 0.290283 0.290283
0.409149 0.409149 0.409149
0.518494 0.518494 0.518494
0.620361 0.620361 0.620361
0.724213 0.724213 0.724213
0.820099 0.820099 0.820099
0.889252 0.889252 0.889252
0.933868 0.933868 0.933868
0.958466 0.958466 0.958466
0.971130 0.971130 0.971130
0.334534 0.334534 0.334534
0.337189 0.337189 0.337189
0.340088 0.340088 0.340088
0.343933 0.343933 0.343933
0.348694 0.348694 0.348694
0.353912 0.353912 0.353912
0.359985 0.359985 0.359985
0.367249 0.367249 0.367249
0.376038 0.376038 0.376038
0.386383 0.386383 0.386383
0.398376 0.398376 0.398376
0.411652 0.411652 0.411652
0.425812 0.425812 0.425812
0.432922 0.432922 0.432922
0.408356 0.408356 0.408356
0.380615 0.380615 0.380615
0.349335 0.349335 0.349335
0.314758 0.314758 0.314758
0.276367 0.276367 0.276367
0.233459 0.233459 0.233459
0.185120 0.185120 0.185120
0.169434 0.169434 0.169434
0.176575 0.176575 0.176575
0.284973 0.284973 0.284973
0.410828 0.410828 0.410828
0.526581 0.526581 0.526581
0.635040 0.635040 0.635040
0.747009 0.747009 0.747009
0.843445 0.843445 0.843445
0.908386 0.908386 0.908386
0.947845 0.947845 0.947845
0.971039 0.971039 0.971039
0.359161 0.359161 0.359161
0.361755 0.361755 0.361755
0.364594 0.364594 0.364594
0.368408 0.368408 0.368408
0.372925 0.372925 0.372925
0.377899 0.377899 0.377899
0.383698 0.383698 0.383698
0.390594 0.390594 0.390594
0.398926 0.398926 0.398926
0.408661 0.408661 0.408661
0.419891 0.419891 0.419891
0.432404 0.432404 0.432404
0.445923 0.445923 0.445923
0.460480 0.460480 0.460480
0.455048 0.455048 0.455048
0.429840 0.429840 0.429840
0.401642 0.401642 0.401642
0.370544 0.370544 0.370544
0.335846 0.335846 0.335846
0.297455 0.297455 0.297455
0.254272 0.254272 0.254272
0.204712 0.204712 0.204712
0.186371 0.186371 0.186371
0.186249 0.186249 0.186249
0.284698 0.284698 0.284698
0.421570 0.421570 0.421570
0.547455 0.547455 0.547455
0.667023 0.667023 0.667023
0.788513 0.788513 0.788513
0.878937 0.878937 0.878937
0.933746 0.933746 0.933746
0.964600 0.964600 0.964600
0.392914 0.392914 0.392914
0.394562 0.394562 0.394562
0.396240 0.396240 0.396240
0.398865 0.398865 0.398865
0.402496 0.402496 0.402496
0.406860 0.406860 0.406860
0.412415 0.412415 0.412415
0.419189 0.419189 0.419189
0.427582 0.427582 0.427582
0.437378 0.437378 0.437378
0.448700 0.448700 0.448700
0.461060 0.461060 0.461060
0.474274 0.474274 0.474274
0.488373 0.488373 0.488373
0.503082 0.503082 0.503082
0.484406 0.484406 0.484406
0.458099 0.458099 0.458099
0.428619 0.428619 0.428619
0.396210 0.396210 0.396210
0.359894 0.359894 0.359894
0.319489 0.319489 0.319489
0.274017 0.274017 0.274017
0.222137 0.222137 0.222137
0.200317 0.200317 0.200317
0.191071 0.191071 0.191071
0.275024 0.275024 0.275024
0.422424 0.422424 0.422424
0.557587 0.557587 0.557587
0.688293 0.688293 0.688293
0.815735 0.815735 0.815735
0.901642 0.901642 0.901642
0.949341 0.949341 0.949341
0.420502 0.420502 0.420502
0.422180 0.422180 0.422180
0.423950 0.423950 0.423950
0.426575 0.426575 0.426575
0.429993 0.429993 0.429993
0.434204 0.434204 0.434204
0.439301 0.439301 0.439301
0.445526 0.445526 0.445526
0.453400 0.453400 0.453400
0.462708 0.462708 0.462708
0.473419 0.473419 0.473419
0.485229 0.485229 0.485229
0.497864 0.497864 0.497864
0.511536 0.511536 0.511536
0.526031 0.526031 0.526031
0.533813 0.533813 0.533813
0.509979 0.509979 0.509979
0.483185 0.483185 0.483185
0.453461 0.453461 0.453461
0.420380 0.420380 0.420380
0.383270 0.383270 0.383270
0.341675 0.341675 0.341675
0.294830 0.294830 0.294830
0.241089 0.241089 0.241089
0.212372 0.212372 0.212372
0.196716 0.196716 0.196716
0.261169 0.261169 0.261169
0.420258 0.420258 0.420258
0.566223 0.566223 0.566223
0.709625 0.709625 0.709625
0.842163 0.842163 0.842163
0.921204 0.921204 0.921204
0.456970 0.456970 0.456970
0.458771 0.458771 0.458771
0.460388 0.460388 0.460388
0.462585 0.462585 0.462585
0.465393 0.465393 0.465393
0.469055 0.469055 0.469055
0.473480 0.473480 0.473480
0.478882 0.478882 0.478882
0.485626 0.485626 0.485626
0.493652 0.493652 0.493652
0.502960 0.502960 0.502960
0.513580 0.513580 0.513580
0.525177 0.525177 0.525177
0.537659 0.537659 0.537659
0.550720 0.550720 0.550720
0.564728 0.564728 0.564728
0.559052 0.559052 0.559052
0.533722 0.533722 0.533722
0.506348 0.506348 0.506348
0.476318 0.476318 0.476318
0.442688 0.442688 0.442688
0.404694 0.404694 0.404694
0.361664 0.361664 0.361664
0.312469 0.312469 0.312469
0.256012 0.256012 0.256012
0.226227 0.226227 0.226227
0.209045 0.209045 0.209045
0.246857 0.246857 0.246857
0.419495 0.419495 0.419495
0.579590 0.579590 0.579590
0.738098 0.738098 0.738098
0.868958 0.868958 0.868958
0.486511 0.486511 0.486511
0.488403 0.488403 0.488403
0.489960 0.489960 0.489960
0.492065 0.492065 0.492065
0.494781 0.494781 0.494781
0.498352 0.498352 0.498352
0.502869 0.502869 0.502869
0.508301 0.508301 0.508301
0.515106 0.515106 0.515106
0.523193 0.523193 0.523193
0.532562 0.532562 0.532562
0.543304 0.543304 0.543304
0.555084 0.555084 0.555084
0.567688 0.567688 0.567688
0.581116 0.581116 0.581116
0.595337 0.595337 0.595337
0.610413 0.610413 0.610413
0.592285 0.592285 0.592285
0.566833 0.566833 0.566833
0.538879 0.538879 0.538879
0.508087 0.508087 0.508087
0.473236 0.473236 0.473236
0.433319 0.433319 0.433319
0.387756 0.387756 0.387756
0.335693 0.335693 0.335693
0.275757 0.275757 0.275757
0.241516 0.241516 0.241516
0.222778 0.222778 0.222778
0.253174 0.253174 0.253174
0.422119 0.422119 0.422119
0.599030 0.599030 0.599030
0.774475 0.774475 0.774475
0.520691 0.520691 0.520691
0.522186 0.522186 0.522186
0.523346 0.523346 0.523346
0.525116 0.525116 0.525116
0.527374 0.527374 0.527374
0.530487 0.530487 0.530487
0.534454 0.534454 0.534454
0.539612 0.539612 0.539612
0.546204 0.546204 0.546204
0.554077 0.554077 0.554077
0.563354 0.563354 0.563354
0.574158 0.574158 0.574158
0.586090 0.586090 0.586090
0.598724 0.598724 0.598724
0.611847 0.611847 0.611847
0.625977 0.625977 0.625977
0.641357 0.641357 0.641357
0.650391 0.650391 0.650391
0.625671 0.625671 0.625671
0.599792 0.599792 0.599792
0.571014 0.571014 0.571014
0.539032 0.539032 0.539032
0.502869 0.502869 0.502869
0.461182 0.461182 0.461182
0.413239 0.413239 0.413239
0.358185 0.358185 0.358185
0.294952 0.294952 0.294952
0.255157 0.255157 0.255157
0.234833 0.234833 0.234833
0.255432 0.255432 0.255432
0.415833 0.415833 0.415833
0.612549 0.612549 0.612549
0.554443 0.554443 0.554443
0.555695 0.555695 0.555695
0.556885 0.556885 0.556885
0.558655 0.558655 0.558655
0.561371 0.561371 0.561371
0.565277 0.565277 0.565277
0.570770 0.570770 0.570770
0.577789 0.577789 0.577789
0.586517 0.586517 0.586517
0.596649 0.596649 0.596649
0.608093 0.608093 0.608093
0.620819 0.620819 0.620819
0.634644 0.634644 0.634644
0.649323 0.649323 0.649323
0.664612 0.664612 0.664612
0.680328 0.680328 0.680328
0.697021 0.697021 0.697021
0.715149 0.715149 0.715149
0.711395 0.711395 0.711395
0.684784 0.684784 0.684784
0.656036 0.656036 0.656036
0.624817 0.624817 0.624817
0.590546 0.590546 0.590546
0.551575 0.551575 0.551575
0.507233 0.507233 0.507233
0.455841 0.455841 0.455841
0.396210 0.396210 0.396210
0.326965 0.326965 0.326965
0.278595 0.278595 0.278595
0.253662 0.253662 0.253662
0.262817 0.262817 0.262817
0.418152 0.418152 0.418152
0.605103 0.605103 0.605103
0.606110 0.606110 0.606110
0.606934 0.606934 0.606934
0.608307 0.608307 0.608307
0.610596 0.610596 0.610596
0.613831 0.613831 0.613831
0.618500 0.618500 0.618500
0.624512 0.624512 0.624512
0.631989 0.631989 0.631989
0.641083 0.641083 0.641083
0.651581 0.651581 0.651581
0.663422 0.663422 0.663422
0.676575 0.676575 0.676575
0.690674 0.690674 0.690674
0.705750 0.705750 0.705750
0.721832 0.721832 0.721832
