Vakken/Crossmedia/Illu & Foto II/Les 3/Les 3/Les 3 Adjustmentlayers en Blending 2/Black and White/BW LUTS/BW Landscapes 04.cube
#Created by: Adobe Photoshop Export Color Lookup Plugin
#Copyright: (C) Copyright 2017 ©Richard Harrington
TITLE "LUT_Build.psd"
#LUT size
LUT_3D_SIZE 32
#data domain
DOMAIN_MIN 0.0 0.0 0.0
DOMAIN_MAX 1.0 1.0 1.0
#LUT data points
0.187347 0.187347 0.187347
0.217957 0.217957 0.217957
0.258057 0.258057 0.258057
0.299927 0.299927 0.299927
0.348267 0.348267 0.348267
0.404327 0.404327 0.404327
0.470306 0.470306 0.470306
0.536041 0.536041 0.536041
0.596313 0.596313 0.596313
0.650360 0.650360 0.650360
0.701477 0.701477 0.701477
0.747223 0.747223 0.747223
0.777740 0.777740 0.777740
0.803101 0.803101 0.803101
0.824127 0.824127 0.824127
0.841431 0.841431 0.841431
0.854889 0.854889 0.854889
0.865112 0.865112 0.865112
0.873566 0.873566 0.873566
0.881958 0.881958 0.881958
0.889160 0.889160 0.889160
0.895966 0.895966 0.895966
0.903290 0.903290 0.903290
0.909119 0.909119 0.909119
0.913879 0.913879 0.913879
0.918213 0.918213 0.918213
0.922150 0.922150 0.922150
0.926117 0.926117 0.926117
0.930145 0.930145 0.930145
0.934418 0.934418 0.934418
0.938324 0.938324 0.938324
0.942474 0.942474 0.942474
0.195343 0.195343 0.195343
0.199493 0.199493 0.199493
0.229370 0.229370 0.229370
0.266205 0.266205 0.266205
0.291412 0.291412 0.291412
0.328705 0.328705 0.328705
0.367432 0.367432 0.367432
0.410675 0.410675 0.410675
0.465210 0.465210 0.465210
0.517303 0.517303 0.517303
0.577026 0.577026 0.577026
0.627838 0.627838 0.627838
0.678619 0.678619 0.678619
0.725159 0.725159 0.725159
0.763336 0.763336 0.763336
0.799591 0.799591 0.799591
0.821716 0.821716 0.821716
0.838928 0.838928 0.838928
0.857025 0.857025 0.857025
0.868561 0.868561 0.868561
0.879974 0.879974 0.879974
0.889221 0.889221 0.889221
0.896851 0.896851 0.896851
0.904999 0.904999 0.904999
0.912415 0.912415 0.912415
0.918396 0.918396 0.918396
0.924805 0.924805 0.924805
0.928101 0.928101 0.928101
0.932037 0.932037 0.932037
0.936493 0.936493 0.936493
0.940338 0.940338 0.940338
0.944092 0.944092 0.944092
0.201172 0.201172 0.201172
0.206573 0.206573 0.206573
0.218872 0.218872 0.218872
0.244965 0.244965 0.244965
0.271362 0.271362 0.271362
0.302979 0.302979 0.302979
0.332092 0.332092 0.332092
0.363373 0.363373 0.363373
0.400116 0.400116 0.400116
0.444855 0.444855 0.444855
0.500000 0.500000 0.500000
0.560883 0.560883 0.560883
0.617523 0.617523 0.617523
0.669128 0.669128 0.669128
0.721191 0.721191 0.721191
0.762848 0.762848 0.762848
0.794067 0.794067 0.794067
0.817871 0.817871 0.817871
0.838593 0.838593 0.838593
0.857269 0.857269 0.857269
0.872803 0.872803 0.872803
0.885315 0.885315 0.885315
0.895386 0.895386 0.895386
0.905060 0.905060 0.905060
0.913757 0.913757 0.913757
0.921539 0.921539 0.921539
0.928619 0.928619 0.928619
0.934387 0.934387 0.934387
0.938538 0.938538 0.938538
0.943085 0.943085 0.943085
0.947998 0.947998 0.947998
0.951935 0.951935 0.951935
0.215607 0.215607 0.215607
0.213013 0.213013 0.213013
0.218872 0.218872 0.218872
0.238800 0.238800 0.238800
0.270782 0.270782 0.270782
0.308258 0.308258 0.308258
0.344391 0.344391 0.344391
0.381744 0.381744 0.381744
0.414276 0.414276 0.414276
0.453278 0.453278 0.453278
0.506592 0.506592 0.506592
0.564545 0.564545 0.564545
0.618866 0.618866 0.618866
0.667114 0.667114 0.667114
0.718567 0.718567 0.718567
0.761047 0.761047 0.761047
0.792053 0.792053 0.792053
0.815216 0.815216 0.815216
0.834564 0.834564 0.834564
0.852570 0.852570 0.852570
0.869293 0.869293 0.869293
0.881866 0.881866 0.881866
0.892120 0.892120 0.892120
0.901978 0.901978 0.901978
0.910736 0.910736 0.910736
0.919739 0.919739 0.919739
0.928009 0.928009 0.928009
0.934601 0.934601 0.934601
0.940247 0.940247 0.940247
0.945190 0.945190 0.945190
0.950043 0.950043 0.950043
0.954437 0.954437 0.954437
0.238647 0.238647 0.238647
0.232574 0.232574 0.232574
0.233551 0.233551 0.233551
0.239960 0.239960 0.239960
0.270081 0.270081 0.270081
0.308563 0.308563 0.308563
0.358887 0.358887 0.358887
0.397919 0.397919 0.397919
0.442261 0.442261 0.442261
0.484558 0.484558 0.484558
0.533112 0.533112 0.533112
0.580536 0.580536 0.580536
0.630005 0.630005 0.630005
0.675385 0.675385 0.675385
0.722229 0.722229 0.722229
0.763824 0.763824 0.763824
0.795837 0.795837 0.795837
0.819550 0.819550 0.819550
0.837738 0.837738 0.837738
0.854828 0.854828 0.854828
0.870911 0.870911 0.870911
0.884888 0.884888 0.884888
0.895111 0.895111 0.895111
0.904144 0.904144 0.904144
0.912506 0.912506 0.912506
0.921021 0.921021 0.921021
0.928894 0.928894 0.928894
0.936462 0.936462 0.936462
0.942139 0.942139 0.942139
0.946564 0.946564 0.946564
0.950653 0.950653 0.950653
0.954437 0.954437 0.954437
0.248901 0.248901 0.248901
0.249847 0.249847 0.249847
0.255981 0.255981 0.255981
0.263306 0.263306 0.263306
0.277100 0.277100 0.277100
0.310760 0.310760 0.310760
0.355103 0.355103 0.355103
0.407471 0.407471 0.407471
0.463165 0.463165 0.463165
0.509796 0.509796 0.509796
0.555573 0.555573 0.555573
0.593140 0.593140 0.593140
0.638641 0.638641 0.638641
0.682159 0.682159 0.682159
0.725281 0.725281 0.725281
0.767181 0.767181 0.767181
0.800507 0.800507 0.800507
0.824677 0.824677 0.824677
0.842102 0.842102 0.842102
0.858276 0.858276 0.858276
0.873444 0.873444 0.873444
0.886810 0.886810 0.886810
0.898651 0.898651 0.898651
0.907318 0.907318 0.907318
0.915070 0.915070 0.915070
0.923340 0.923340 0.923340
0.930756 0.930756 0.930756
0.938324 0.938324 0.938324
0.944916 0.944916 0.944916
0.949707 0.949707 0.949707
0.953552 0.953552 0.953552
0.957214 0.957214 0.957214
0.253601 0.253601 0.253601
0.255432 0.255432 0.255432
0.263916 0.263916 0.263916
0.275482 0.275482 0.275482
0.295471 0.295471 0.295471
0.311157 0.311157 0.311157
0.347168 0.347168 0.347168
0.393646 0.393646 0.393646
0.451294 0.451294 0.451294
0.515472 0.515472 0.515472
0.573364 0.573364 0.573364
0.609497 0.609497 0.609497
0.652100 0.652100 0.652100
0.693268 0.693268 0.693268
0.734863 0.734863 0.734863
0.772949 0.772949 0.772949
0.805389 0.805389 0.805389
0.832214 0.832214 0.832214
0.848663 0.848663 0.848663
0.863892 0.863892 0.863892
0.878082 0.878082 0.878082
0.891235 0.891235 0.891235
0.902771 0.902771 0.902771
0.912079 0.912079 0.912079
0.919586 0.919586 0.919586
0.927246 0.927246 0.927246
0.934570 0.934570 0.934570
0.941742 0.941742 0.941742
0.948456 0.948456 0.948456
0.953766 0.953766 0.953766
0.957794 0.957794 0.957794
0.961487 0.961487 0.961487
0.259735 0.259735 0.259735
0.262360 0.262360 0.262360
0.269775 0.269775 0.269775
0.286682 0.286682 0.286682
0.315460 0.315460 0.315460
0.331146 0.331146 0.331146
0.349487 0.349487 0.349487
0.385223 0.385223 0.385223
0.435364 0.435364 0.435364
0.504364 0.504364 0.504364
0.574890 0.574890 0.574890
0.632111 0.632111 0.632111
0.678619 0.678619 0.678619
0.717804 0.717804 0.717804
0.754211 0.754211 0.754211
0.786469 0.786469 0.786469
0.816193 0.816193 0.816193
0.842529 0.842529 0.842529
0.859619 0.859619 0.859619
0.873138 0.873138 0.873138
0.886047 0.886047 0.886047
0.897949 0.897949 0.897949
0.909241 0.909241 0.909241
0.918365 0.918365 0.918365
0.925568 0.925568 0.925568
0.932434 0.932434 0.932434
0.939178 0.939178 0.939178
0.945923 0.945923 0.945923
0.952454 0.952454 0.952454
0.958252 0.958252 0.958252
0.962372 0.962372 0.962372
0.966003 0.966003 0.966003
0.265381 0.265381 0.265381
0.267487 0.267487 0.267487
0.274384 0.274384 0.274384
0.289337 0.289337 0.289337
0.324646 0.324646 0.324646
0.357330 0.357330 0.357330
0.374664 0.374664 0.374664
0.394379 0.394379 0.394379
0.430176 0.430176 0.430176
0.489532 0.489532 0.489532
0.561249 0.561249 0.561249
0.631409 0.631409 0.631409
0.704437 0.704437 0.704437
0.746033 0.746033 0.746033
0.779266 0.779266 0.779266
0.806335 0.806335 0.806335
0.832245 0.832245 0.832245
0.857544 0.857544 0.857544
0.874451 0.874451 0.874451
0.888123 0.888123 0.888123
0.899048 0.899048 0.899048
0.909210 0.909210 0.909210
0.919250 0.919250 0.919250
0.928070 0.928070 0.928070
0.934845 0.934845 0.934845
0.941071 0.941071 0.941071
0.947205 0.947205 0.947205
0.953247 0.953247 0.953247
0.959320 0.959320 0.959320
0.964874 0.964874 0.964874
0.969452 0.969452 0.969452
0.972900 0.972900 0.972900
0.271362 0.271362 0.271362
0.272675 0.272675 0.272675
0.279266 0.279266 0.279266
0.293182 0.293182 0.293182
0.325806 0.325806 0.325806
0.368042 0.368042 0.368042
0.406342 0.406342 0.406342
0.426910 0.426910 0.426910
0.448975 0.448975 0.448975
0.486053 0.486053 0.486053
0.545166 0.545166 0.545166
0.618103 0.618103 0.618103
0.696625 0.696625 0.696625
0.762054 0.762054 0.762054
0.802704 0.802704 0.802704
0.824799 0.824799 0.824799
0.846344 0.846344 0.846344
0.867981 0.867981 0.867981
0.884918 0.884918 0.884918
0.898438 0.898438 0.898438
0.908844 0.908844 0.908844
0.918243 0.918243 0.918243
0.927429 0.927429 0.927429
0.936493 0.936493 0.936493
0.943024 0.943024 0.943024
0.948456 0.948456 0.948456
0.954102 0.954102 0.954102
0.959320 0.959320 0.959320
0.964996 0.964996 0.964996
0.970032 0.970032 0.970032
0.974976 0.974976 0.974976
0.978546 0.978546 0.978546
0.276459 0.276459 0.276459
0.277740 0.277740 0.277740
0.282227 0.282227 0.282227
0.294861 0.294861 0.294861
0.327209 0.327209 0.327209
0.367859 0.367859 0.367859
0.420898 0.420898 0.420898
0.462067 0.462067 0.462067
0.483124 0.483124 0.483124
0.508484 0.508484 0.508484
0.544495 0.544495 0.544495
0.605286 0.605286 0.605286
0.689819 0.689819 0.689819
0.760345 0.760345 0.760345
0.816284 0.816284 0.816284
0.852417 0.852417 0.852417
0.874786 0.874786 0.874786
0.895050 0.895050 0.895050
0.911865 0.911865 0.911865
0.924408 0.924408 0.924408
0.933960 0.933960 0.933960
0.941986 0.941986 0.941986
0.949280 0.949280 0.949280
0.956604 0.956604 0.956604
0.962341 0.962341 0.962341
0.966370 0.966370 0.966370
0.970398 0.970398 0.970398
0.974182 0.974182 0.974182
0.978302 0.978302 0.978302
0.982208 0.982208 0.982208
0.985809 0.985809 0.985809
0.988525 0.988525 0.988525
0.286499 0.286499 0.286499
0.285187 0.285187 0.285187
0.289856 0.289856 0.289856
0.300568 0.300568 0.300568
0.329315 0.329315 0.329315
0.369385 0.369385 0.369385
0.421143 0.421143 0.421143
0.481934 0.481934 0.481934
0.523163 0.523163 0.523163
0.548187 0.548187 0.548187
0.579193 0.579193 0.579193
0.617798 0.617798 0.617798
0.688354 0.688354 0.688354
0.762604 0.762604 0.762604
0.818848 0.818848 0.818848
0.856934 0.856934 0.856934
0.887115 0.887115 0.887115
0.904510 0.904510 0.904510
0.917847 0.917847 0.917847
0.929260 0.929260 0.929260
0.937561 0.937561 0.937561
0.944977 0.944977 0.944977
0.951874 0.951874 0.951874
0.958618 0.958618 0.958618
0.964630 0.964630 0.964630
0.969910 0.969910 0.969910
0.974091 0.974091 0.974091
0.978577 0.978577 0.978577
0.982758 0.982758 0.982758
0.987183 0.987183 0.987183
0.990997 0.990997 0.990997
0.994568 0.994568 0.994568
0.306671 0.306671 0.306671
0.297577 0.297577 0.297577
0.295624 0.295624 0.295624
0.303986 0.303986 0.303986
0.332336 0.332336 0.332336
0.369507 0.369507 0.369507
0.423248 0.423248 0.423248
0.485229 0.485229 0.485229
0.549652 0.549652 0.549652
0.586060 0.586060 0.586060
0.612366 0.612366 0.612366
0.640503 0.640503 0.640503
0.675293 0.675293 0.675293
0.736816 0.736816 0.736816
0.797119 0.797119 0.797119
0.840942 0.840942 0.840942
0.875641 0.875641 0.875641
0.904572 0.904572 0.904572
0.926758 0.926758 0.926758
0.938782 0.938782 0.938782
0.946564 0.946564 0.946564
0.953308 0.953308 0.953308
0.959961 0.959961 0.959961
0.966583 0.966583 0.966583
0.972565 0.972565 0.972565
0.977661 0.977661 0.977661
0.981384 0.981384 0.981384
0.985077 0.985077 0.985077
0.988556 0.988556 0.988556
0.991974 0.991974 0.991974
0.995087 0.995087 0.995087
0.997375 0.997375 0.997375
0.342560 0.342560 0.342560
0.326630 0.326630 0.326630
0.318237 0.318237 0.318237
0.318756 0.318756 0.318756
0.336273 0.336273 0.336273
0.371765 0.371765 0.371765
0.423248 0.423248 0.423248
0.488617 0.488617 0.488617
0.554749 0.554749 0.554749
0.615784 0.615784 0.615784
0.642365 0.642365 0.642365
0.667542 0.667542 0.667542
0.697632 0.697632 0.697632
0.729095 0.729095 0.729095
0.787811 0.787811 0.787811
0.834900 0.834900 0.834900
0.871277 0.871277 0.871277
0.900970 0.900970 0.900970
0.926514 0.926514 0.926514
0.946014 0.946014 0.946014
0.955627 0.955627 0.955627
0.962341 0.962341 0.962341
0.968536 0.968536 0.968536
0.974731 0.974731 0.974731
0.980774 0.980774 0.980774
0.985687 0.985687 0.985687
0.989166 0.989166 0.989166
0.992432 0.992432 0.992432
0.995544 0.995544 0.995544
0.997620 0.997620 0.997620
0.999817 0.999817 0.999817
0.999786 0.999786 0.999786
0.382751 0.382751 0.382751
0.371765 0.371765 0.371765
0.359406 0.359406 0.359406
0.351990 0.351990 0.351990
0.357452 0.357452 0.357452
0.380310 0.380310 0.380310
0.427612 0.427612 0.427612
0.491302 0.491302 0.491302
0.560883 0.560883 0.560883
0.624023 0.624023 0.624023
0.674744 0.674744 0.674744
0.697845 0.697845 0.697845
0.723022 0.723022 0.723022
0.749451 0.749451 0.749451
0.776978 0.776978 0.776978
0.826782 0.826782 0.826782
0.867126 0.867126 0.867126
0.899231 0.899231 0.899231
0.925873 0.925873 0.925873
0.946381 0.946381 0.946381
0.961365 0.961365 0.961365
0.971405 0.971405 0.971405
0.979065 0.979065 0.979065
0.984283 0.984283 0.984283
0.989227 0.989227 0.989227
0.993561 0.993561 0.993561
0.995819 0.995819 0.995819
0.998383 0.998383 0.998383
0.999634 0.999634 0.999634
0.999939 0.999939 0.999939
1.000000 1.000000 1.000000
1.000000 1.000000 1.000000
0.411865 0.411865 0.411865
0.401123 0.401123 0.401123
0.393066 0.393066 0.393066
0.387878 0.387878 0.387878
0.384583 0.384583 0.384583
0.393463 0.393463 0.393463
0.438049 0.438049 0.438049
0.500366 0.500366 0.500366
0.566406 0.566406 0.566406
0.628418 0.628418 0.628418
0.688446 0.688446 0.688446
0.725494 0.725494 0.725494
0.746307 0.746307 0.746307
0.769012 0.769012 0.769012
0.791565 0.791565 0.791565
0.818848 0.818848 0.818848
0.857880 0.857880 0.857880
0.891602 0.891602 0.891602
0.920227 0.920227 0.920227
0.943848 0.943848 0.943848
0.959686 0.959686 0.959686
0.970673 0.970673 0.970673
0.980011 0.980011 0.980011
0.987946 0.987946 0.987946
0.993195 0.993195 0.993195
0.997253 0.997253 0.997253
0.998688 0.998688 0.998688
0.999878 0.999878 0.999878
1.000000 1.000000 1.000000
1.000000 1.000000 1.000000
1.000000 1.000000 1.000000
1.000000 1.000000 1.000000
0.443390 0.443390 0.443390
0.430267 0.430267 0.430267
0.422058 0.422058 0.422058
0.417236 0.417236 0.417236
0.413757 0.413757 0.413757
0.413330 0.413330 0.413330
0.435150 0.435150 0.435150
0.496826 0.496826 0.496826
0.563324 0.563324 0.563324
0.623566 0.623566 0.623566
0.684174 0.684174 0.684174
0.739258 0.739258 0.739258
0.764374 0.764374 0.764374
0.785919 0.785919 0.785919
0.807404 0.807404 0.807404
0.830963 0.830963 0.830963
0.859619 0.859619 0.859619
0.893982 0.893982 0.893982
0.925232 0.925232 0.925232
0.948456 0.948456 0.948456
0.958893 0.958893 0.958893
0.969849 0.969849 0.969849
0.979492 0.979492 0.979492
0.987823 0.987823 0.987823
0.994812 0.994812 0.994812
0.999451 0.999451 0.999451
1.000000 1.000000 1.000000
1.000000 1.000000 1.000000
1.000000 1.000000 1.000000
1.000000 1.000000 1.000000
1.000000 1.000000 1.000000
1.000000 1.000000 1.000000
0.474823 0.474823 0.474823
0.462769 0.462769 0.462769
0.453003 0.453003 0.453003
0.446960 0.446960 0.446960
0.442352 0.442352 0.442352
0.441742 0.441742 0.441742
0.449036 0.449036 0.449036
0.492310 0.492310 0.492310
0.563263 0.563263 0.563263
0.623535 0.623535 0.623535
0.684814 0.684814 0.684814
0.741760 0.741760 0.741760
0.785889 0.785889 0.785889
0.806854 0.806854 0.806854
0.827667 0.827667 0.827637
0.846283 0.846283 0.846283
0.859344 0.859344 0.859344
0.879089 0.879089 0.879089
0.907562 0.907562 0.907562
0.932770 0.932770 0.932770
0.954590 0.954590 0.954590
0.967255 0.967255 0.967255
0.977539 0.977539 0.977539
0.986420 0.986420 0.986420
0.993835 0.993835 0.993835
0.999237 0.999237 0.999237
1.000000 1.000000 1.000000
1.000000 1.000000 1.000000
1.000000 1.000000 1.000000
1.000000 1.000000 1.000000
1.000000 1.000000 1.000000
1.000000 1.000000 1.000000
0.492706 0.492706 0.492706
0.485321 0.485321 0.485321
0.478638 0.478638 0.478638
0.474579 0.474579 0.474579
0.471497 0.471497 0.471497
0.468231 0.468231 0.468231
0.469269 0.469269 0.469269
0.496094 0.496094 0.496094
0.557556 0.557556 0.557556
0.618744 0.618744 0.618744
0.678406 0.678406 0.678406
0.734100 0.734100 0.734100
0.782440 0.782440 0.782440
0.811554 0.811554 0.811554
0.828827 0.828827 0.828827
0.845276 0.845276 0.845276
0.860504 0.860504 0.860504
0.875275 0.875275 0.875275
0.897797 0.897797 0.897797
0.926758 0.926758 0.926758
0.951141 0.951141 0.951141
0.965759 0.965759 0.965759
0.976746 0.976746 0.976746
0.986023 0.986023 0.986023
0.993439 0.993439 0.993439
0.999268 0.999268 0.999268
1.000000 1.000000 1.000000
1.000000 1.000000 1.000000
1.000000 1.000000 1.000000
1.000000 1.000000 1.000000
1.000000 1.000000 1.000000
1.000000 1.000000 1.000000
0.512634 0.512634 0.512634
0.503113 0.503113 0.503113
0.497162 0.497162 0.497162
0.493622 0.493622 0.493622
0.491333 0.491333 0.491333
0.490112 0.490112 0.490112
0.489258 0.489258 0.489258
0.499329 0.499329 0.499329
0.549622 0.549622 0.549622
0.606201 0.606201 0.606201
0.665955 0.665955 0.665955
0.721130 0.721130 0.721130
0.770691 0.770691 0.770691
0.818756 0.818756 0.818756
0.838043 0.838043 0.838043
0.857422 0.857422 0.857422
0.875916 0.875916 0.875916
0.891632 0.891632 0.891632
0.905823 0.905823 0.905823
0.928223 0.928223 0.928223
0.953552 0.953552 0.953552
0.969147 0.969147 0.969147
0.980194 0.980194 0.980194
0.988892 0.988892 0.988892
0.995697 0.995697 0.995697
1.000000 1.000000 1.000000
1.000000 1.000000 1.000000
1.000000 1.000000 1.000000
1.000000 1.000000 1.000000
1.000000 1.000000 1.000000
1.000000 1.000000 1.000000
1.000000 1.000000 1.000000
0.539520 0.539520 0.539520
0.529388 0.529388 0.529388
0.520813 0.520813 0.520813
0.515381 0.515381 0.515381
0.511810 0.511810 0.511810
0.510010 0.510010 0.510010
0.509735 0.509735 0.509735
0.518433 0.518433 0.518433
0.544830 0.544830 0.544830
0.603546 0.603546 0.603546
0.664307 0.664307 0.664307
0.723907 0.723907 0.723907
0.776733 0.776733 0.776733
0.826965 0.826965 0.826965
0.860138 0.860138 0.860138
0.874969 0.874969 0.874969
0.889282 0.889282 0.889282
0.902954 0.902954 0.902954
0.915192 0.915192 0.915192
0.928741 0.928741 0.928741
0.948792 0.948792 0.948792
0.965515 0.965515 0.965515
0.978058 0.978058 0.978058
0.987396 0.987396 0.987396
0.994934 0.994934 0.994934
1.000000 1.000000 1.000000
1.000000 1.000000 1.000000
1.000000 1.000000 1.000000
1.000000 1.000000 1.000000
1.000000 1.000000 1.000000
1.000000 1.000000 1.000000
1.000000 1.000000 1.000000
0.565826 0.565826 0.565826
0.555115 0.555115 0.555115
0.546722 0.546722 0.546722
0.542175 0.542175 0.542175
0.539062 0.539062 0.539062
0.537292 0.537292 0.537292
0.536957 0.536957 0.536957
0.538757 0.538757 0.538757
0.553589 0.553589 0.553589
0.608307 0.608307 0.608307
0.671143 0.671143 0.671143
0.730347 0.730347 0.730347
0.781769 0.781769 0.781769
0.829956 0.829956 0.829956
0.869812 0.869812 0.869812
0.887177 0.887177 0.887177
0.900940 0.900940 0.900940
0.912689 0.912689 0.912689
0.923798 0.923798 0.923798
0.934631 0.934631 0.934631
0.947296 0.947296 0.947296
0.965118 0.965118 0.965118
0.978699 0.978699 0.978699
0.988220 0.988220 0.988220
0.995514 0.995514 0.995514
1.000000 1.000000 1.000000
1.000000 1.000000 1.000000
1.000000 1.000000 1.000000
1.000000 1.000000 1.000000
1.000000 1.000000 1.000000
1.000000 1.000000 1.000000
1.000000 1.000000 1.000000
0.597229 0.597229 0.597229
0.585419 0.585419 0.585419
0.577545 0.577545 0.577545
0.572327 0.572327 0.572327
0.569275 0.569275 0.569275
0.567230 0.567230 0.567230
0.566742 0.566742 0.566742
0.568726 0.568726 0.568726
0.574097 0.574097 0.574097
0.609406 0.609406 0.609406
0.672455 0.672455 0.672455
0.733826 0.733826 0.733826
0.785522 0.785522 0.785522
0.831238 0.831238 0.831238
0.870697 0.870697 0.870697
0.895264 0.895264 0.895264
0.907410 0.907410 0.907410
0.919495 0.919495 0.919495
0.930969 0.930969 0.930969
0.942291 0.942291 0.942291
0.952393 0.952393 0.952393
0.961731 0.961731 0.961731
0.976501 0.976501 0.976501
0.986389 0.986389 0.986389
0.994324 0.994324 0.994324
0.999786 0.999786 0.999786
1.000000 1.000000 1.000000
1.000000 1.000000 1.000000
1.000000 1.000000 1.000000
1.000000 1.000000 1.000000
1.000000 1.000000 1.000000
1.000000 1.000000 1.000000
0.615509 0.615509 0.615509
0.608734 0.608734 0.608734
0.602997 0.602997 0.602997
0.599945 0.599945 0.599945
0.597534 0.597534 0.597534
0.596375 0.596375 0.596375
0.596130 0.596130 0.596130
0.597137 0.597137 0.597137
0.600891 0.600891 0.600891
0.616760 0.616760 0.616760
0.666718 0.666718 0.666718
0.728363 0.728363 0.728363
0.779480 0.779480 0.779480
0.826599 0.826599 0.826599
0.867310 0.867310 0.867310
0.901093 0.901093 0.901093
0.914276 0.914276 0.914276
0.926422 0.926422 0.926422
0.937347 0.937347 0.937347
0.947296 0.947296 0.947296
0.957031 0.957031 0.957031
0.964813 0.964813 0.964813
0.972870 0.972870 0.972870
0.983856 0.983856 0.983856
0.992523 0.992523 0.992523
0.999115 0.999115 0.999115
1.000000 1.000000 1.000000
1.000000 1.000000 1.000000
1.000000 1.000000 1.000000
1.000000 1.000000 1.000000
1.000000 1.000000 1.000000
1.000000 1.000000 1.000000
0.628540 0.628540 0.628540
0.622589 0.622589 0.622589
0.617462 0.617462 0.617462
0.615173 0.615173 0.615173
0.614258 0.614258 0.614258
0.613312 0.613312 0.613312
0.613617 0.613617 0.613617
0.615631 0.615631 0.615631
0.617615 0.617615 0.617615
0.624390 0.624390 0.624390
0.664459 0.664459 0.664459
0.723785 0.723785 0.723785
0.777924 0.777924 0.777924
0.827850 0.827850 0.827850
0.868011 0.868011 0.868011
0.902191 0.902191 0.902191
0.921967 0.921967 0.921967
0.932556 0.932556 0.932556
0.941895 0.941895 0.941895
0.950897 0.950897 0.950897
0.959900 0.959900 0.959900
0.968231 0.968231 0.968231
0.974609 0.974609 0.974609
0.980743 0.980743 0.980743
0.990723 0.990723 0.990723
0.998047 0.998047 0.998047
0.999695 0.999695 0.999695
1.000000 1.000000 1.000000
1.000000 1.000000 1.000000
1.000000 1.000000 1.000000
1.000000 1.000000 1.000000
1.000000 1.000000 1.000000
0.641968 0.641968 0.641968
0.635681 0.635681 0.635681
0.633179 0.633179 0.633179
0.630951 0.630951 0.630951
0.630219 0.630219 0.630219
0.631042 0.631042 0.631042
0.634155 0.634155 0.634155
0.638885 0.638885 0.638885
0.644257 0.644257 0.644257
0.649689 0.649689 0.649689
0.669220 0.669220 0.669220
0.730286 0.730286 0.730286
0.779449 0.779449 0.779449
0.827240 0.827240 0.827240
0.868103 0.868103 0.868103
0.902283 0.902283 0.902283
0.927032 0.927032 0.927032
0.937561 0.937561 0.937561
0.946259 0.946259 0.946259
0.955872 0.955872 0.955872
0.965240 0.965240 0.965240
0.974274 0.974274 0.974274
0.979980 0.979980 0.979980
0.983826 0.983826 0.983826
0.989410 0.989410 0.989410
0.996948 0.996948 0.996948
0.999420 0.999420 0.999420
1.000000 1.000000 1.000000
1.000000 1.000000 1.000000
1.000000 1.000000 1.000000
1.000000 1.000000 1.000000
1.000000 1.000000 1.000000
0.655945 0.655945 0.655945
0.649597 0.649597 0.649597
0.650177 0.650177 0.650177
0.650970 0.650970 0.650970
0.652100 0.652100 0.652100
0.653809 0.653809 0.653809
0.656494 0.656494 0.656494
0.660278 0.660278 0.660278
0.664246 0.664246 0.664246
0.668854 0.668854 0.668854
0.683960 0.683960 0.683960
0.730347 0.730347 0.730347
0.780975 0.780975 0.780975
0.827148 0.827148 0.827148
0.868225 0.868225 0.868225
0.902832 0.902832 0.902832
0.929657 0.929657 0.929657
0.944580 0.944580 0.944580
0.954437 0.954437 0.954437
0.963745 0.963745 0.963745
0.972321 0.972321 0.972321
0.979584 0.979584 0.979584
0.985260 0.985260 0.985260
0.989014 0.989014 0.989014
0.992126 0.992126 0.992126
0.996918 0.996918 0.996918
0.999146 0.999146 0.999146
1.000000 1.000000 1.000000
1.000000 1.000000 1.000000
1.000000 1.000000 1.000000
1.000000 1.000000 1.000000
1.000000 1.000000 1.000000
0.672913 0.672913 0.672913
0.665771 0.665771 0.665771
0.666901 0.666901 0.666901
0.667725 0.667725 0.667725
0.668854 0.668854 0.668854
0.670532 0.670532 0.670532
0.673218 0.673218 0.673218
0.676544 0.676544 0.676544
0.680328 0.680328 0.680328
0.684479 0.684479 0.684479
0.695282 0.695282 0.695282
0.730621 0.730621 0.730621
0.779388 0.779388 0.779388
0.826691 0.826691 0.826691
0.867096 0.867096 0.867096
0.902222 0.902222 0.902222
