Vakken/Crossmedia/Illu & Foto II/Les 3/Les 3/Les 3 Adjustmentlayers en Blending 2/Black and White/BW LUTS/BW Landscapes 05.cube
TITLE "Untitled"
# LUT size
# data domain
# LUT data points
# 
# Copyright: (C) Copyright 2017 ©Richard Harrington
# Created by: Adobe Photoshop Export Color Lookup Plugin
LUT_3D_SIZE 32
DOMAIN_MIN 0.000000 0.000000 0.000000
DOMAIN_MAX 1.000000 1.000000 1.000000
0.022399 0.022399 0.022399
0.054382 0.054382 0.054382
0.108000 0.108000 0.108000
0.143804 0.143804 0.143804
0.175128 0.175128 0.175128
0.200618 0.200618 0.200618
0.222253 0.222253 0.222253
0.242638 0.242638 0.242638
0.267086 0.267086 0.267086
0.299868 0.299868 0.299868
0.344180 0.344180 0.344180
0.397799 0.397799 0.397799
0.441485 0.441485 0.441485
0.483227 0.483227 0.483227
0.522156 0.522156 0.522156
0.558098 0.558098 0.558098
0.588207 0.588207 0.588207
0.612064 0.612064 0.612064
0.632518 0.632518 0.632518
0.652660 0.652660 0.652660
0.671169 0.671169 0.671169
0.688845 0.688845 0.688845
0.706348 0.706348 0.706348
0.719753 0.719753 0.719753
0.730761 0.730761 0.730761
0.741006 0.741006 0.741006
0.750174 0.750174 0.750174
0.759341 0.759341 0.759341
0.768787 0.768787 0.768787
0.778789 0.778789 0.778789
0.787888 0.787888 0.787888
0.797368 0.797368 0.797368
0.022816 0.022816 0.022816
0.030282 0.030282 0.030282
0.064731 0.064731 0.064731
0.116578 0.116578 0.116578
0.138943 0.138943 0.138943
0.165231 0.165231 0.165231
0.185963 0.185963 0.185963
0.203812 0.203812 0.203812
0.221281 0.221281 0.221281
0.237081 0.237081 0.237081
0.258855 0.258855 0.258855
0.285386 0.285386 0.285386
0.324212 0.324212 0.324212
0.371788 0.371788 0.371788
0.421274 0.421274 0.421274
0.477983 0.477983 0.477983
0.517850 0.517850 0.517850
0.551743 0.551743 0.551743
0.589839 0.589839 0.589839
0.615780 0.615780 0.615780
0.642658 0.642658 0.642658
0.664502 0.664502 0.664502
0.683879 0.683879 0.683879
0.703326 0.703326 0.703326
0.721697 0.721697 0.721697
0.735693 0.735693 0.735693
0.751041 0.751041 0.751041
0.759897 0.759897 0.759897
0.769447 0.769447 0.769447
0.780143 0.780143 0.780143
0.789624 0.789624 0.789624
0.798791 0.798791 0.798791
0.011807 0.011807 0.011807
0.023962 0.023962 0.023962
0.041776 0.041776 0.041776
0.076260 0.076260 0.076260
0.110813 0.110813 0.110813
0.147520 0.147520 0.147520
0.169502 0.169502 0.169502
0.185963 0.185963 0.185963
0.201348 0.201348 0.201348
0.216454 0.216454 0.216454
0.232914 0.232914 0.232914
0.253507 0.253507 0.253507
0.280559 0.280559 0.280559
0.317232 0.317232 0.317232
0.369391 0.369391 0.369391
0.423739 0.423739 0.423739
0.472878 0.472878 0.472878
0.514620 0.514620 0.514620
0.554070 0.554070 0.554070
0.592270 0.592270 0.592270
0.625225 0.625225 0.625225
0.652348 0.652348 0.652348
0.675198 0.675198 0.675198
0.697527 0.697527 0.697527
0.718363 0.718363 0.718363
0.737915 0.737915 0.737915
0.754653 0.754653 0.754653
0.768857 0.768857 0.768857
0.778997 0.778997 0.778997
0.789658 0.789658 0.789658
0.800944 0.800944 0.800944
0.810564 0.810564 0.810564
0.011078 0.011078 0.011078
0.008542 0.008542 0.008542
0.015697 0.015697 0.015697
0.049937 0.049937 0.049937
0.085880 0.085880 0.085880
0.140818 0.140818 0.140818
0.174226 0.174226 0.174226
0.196763 0.196763 0.196763
0.208431 0.208431 0.208431
0.220551 0.220551 0.220551
0.236109 0.236109 0.236109
0.256007 0.256007 0.256007
0.282748 0.282748 0.282748
0.317856 0.317856 0.317856
0.368766 0.368766 0.368766
0.424712 0.424712 0.424712
0.474197 0.474197 0.474197
0.515731 0.515731 0.515731
0.552889 0.552889 0.552889
0.589248 0.589248 0.589248
0.624739 0.624739 0.624739
0.652139 0.652139 0.652139
0.675337 0.675337 0.675337
0.697597 0.697597 0.697597
0.717774 0.717774 0.717774
0.738645 0.738645 0.738645
0.758022 0.758022 0.758022
0.773510 0.773510 0.773510
0.786463 0.786463 0.786463
0.797542 0.797542 0.797542
0.808411 0.808411 0.808411
0.818308 0.818308 0.818308
0.026184 0.026184 0.026184
0.021773 0.021773 0.021773
0.020072 0.020072 0.020072
0.020385 0.020385 0.020385
0.056917 0.056917 0.056917
0.109703 0.109703 0.109703
0.172524 0.172524 0.172524
0.198049 0.198049 0.198049
0.217425 0.217425 0.217425
0.230414 0.230414 0.230414
0.244895 0.244895 0.244895
0.263856 0.263856 0.263856
0.291325 0.291325 0.291325
0.327788 0.327788 0.327788
0.377344 0.377344 0.377344
0.432838 0.432838 0.432838
0.484928 0.484928 0.484928
0.527677 0.527677 0.527677
0.562648 0.562648 0.562648
0.597132 0.597132 0.597132
0.631234 0.631234 0.631234
0.662036 0.662036 0.662036
0.685026 0.685026 0.685026
0.705376 0.705376 0.705376
0.724788 0.724788 0.724788
0.744305 0.744305 0.744305
0.762848 0.762848 0.762848
0.780664 0.780664 0.780664
0.794242 0.794242 0.794242
0.804522 0.804522 0.804522
0.814244 0.814244 0.814244
0.823343 0.823343 0.823343
0.040249 0.040249 0.040249
0.036255 0.036255 0.036255
0.034206 0.034206 0.034206
0.034588 0.034588 0.034588
0.036290 0.036290 0.036290
0.078171 0.078171 0.078171
0.131894 0.131894 0.131894
0.188984 0.188984 0.188984
0.220204 0.220204 0.220204
0.237810 0.237810 0.237810
0.255452 0.255452 0.255452
0.273614 0.273614 0.273614
0.302056 0.302056 0.302056
0.339908 0.339908 0.339908
0.387970 0.387970 0.387970
0.444992 0.444992 0.444992
0.498958 0.498958 0.498958
0.542992 0.542992 0.542992
0.576712 0.576712 0.576712
0.609390 0.609390 0.609390
0.641200 0.641200 0.641200
0.670267 0.670267 0.670267
0.696693 0.696693 0.696693
0.716210 0.716210 0.716210
0.733921 0.733921 0.733921
0.752917 0.752917 0.752917
0.770141 0.770141 0.770141
0.787888 0.787888 0.787888
0.803584 0.803584 0.803584
0.814801 0.814801 0.814801
0.823934 0.823934 0.823934
0.832685 0.832685 0.832685
0.055216 0.055216 0.055216
0.050631 0.050631 0.050631
0.049312 0.049312 0.049312
0.049903 0.049903 0.049903
0.052437 0.052437 0.052437
0.054556 0.054556 0.054556
0.088346 0.088346 0.088346
0.148076 0.148076 0.148076
0.201625 0.201625 0.201625
0.235449 0.235449 0.235449
0.268232 0.268232 0.268232
0.287957 0.287957 0.287957
0.318447 0.318447 0.318447
0.357931 0.357931 0.357931
0.407522 0.407522 0.407522
0.461627 0.461627 0.461627
0.514412 0.514412 0.514412
0.562856 0.562856 0.562856
0.594978 0.594978 0.594978
0.625955 0.625955 0.625955
0.655925 0.655925 0.655925
0.684574 0.684574 0.684574
0.710029 0.710029 0.710029
0.730935 0.730935 0.730935
0.747951 0.747951 0.747951
0.765350 0.765350 0.765350
0.782331 0.782331 0.782331
0.798861 0.798861 0.798861
0.814904 0.814904 0.814904
0.827302 0.827302 0.827302
0.837026 0.837026 0.837026
0.845846 0.845846 0.845846
0.074489 0.074489 0.074489
0.069037 0.069037 0.069037
0.066572 0.066572 0.066572
0.067301 0.067301 0.067301
0.070426 0.070426 0.070426
0.072162 0.072162 0.072162
0.074628 0.074628 0.074628
0.099319 0.099319 0.099319
0.157105 0.157105 0.157105
0.213432 0.213432 0.213432
0.253612 0.253612 0.253612
0.301327 0.301327 0.301327
0.351160 0.351160 0.351160
0.394673 0.394673 0.394673
0.444229 0.444229 0.444229
0.492881 0.492881 0.492881
0.542263 0.542263 0.542263
0.589734 0.589734 0.589734
0.622621 0.622621 0.622621
0.650403 0.650403 0.650403
0.677872 0.677872 0.677872
0.704022 0.704022 0.704022
0.729060 0.729060 0.729060
0.749479 0.749479 0.749479
0.765836 0.765836 0.765836
0.781497 0.781497 0.781497
0.797090 0.797090 0.797090
0.812751 0.812751 0.812751
0.827962 0.827962 0.827962
0.841679 0.841679 0.841679
0.851507 0.851507 0.851507
0.859946 0.859946 0.859946
0.094944 0.094944 0.094944
0.088693 0.088693 0.088693
0.085220 0.085220 0.085220
0.084942 0.084942 0.084942
0.088901 0.088901 0.088901
0.092547 0.092547 0.092547
0.094597 0.094597 0.094597
0.097305 0.097305 0.097305
0.111682 0.111682 0.111682
0.171447 0.171447 0.171447
0.224544 0.224544 0.224544
0.274447 0.274447 0.274447
0.377448 0.377448 0.377448
0.441797 0.441797 0.441797
0.489963 0.489963 0.489963
0.532783 0.532783 0.532783
0.576642 0.576642 0.576642
0.622864 0.622864 0.622864
0.655229 0.655229 0.655229
0.683081 0.683081 0.683081
0.707077 0.707077 0.707077
0.729962 0.729962 0.729962
0.752813 0.752813 0.752813
0.772885 0.772885 0.772885
0.788443 0.788443 0.788443
0.802716 0.802716 0.802716
0.816815 0.816815 0.816815
0.831018 0.831018 0.831018
0.845360 0.845360 0.845360
0.858660 0.858660 0.858660
0.869599 0.869599 0.869599
0.877899 0.877899 0.877899
0.114982 0.114982 0.114982
0.109667 0.109667 0.109667
0.105986 0.105986 0.105986
0.105431 0.105431 0.105431
0.108313 0.108313 0.108313
0.113106 0.113106 0.113106
0.117655 0.117655 0.117655
0.120017 0.120017 0.120017
0.122899 0.122899 0.122899
0.129428 0.129428 0.129428
0.183532 0.183532 0.183532
0.234337 0.234337 0.234337
0.316849 0.316849 0.316849
0.449542 0.449542 0.449542
0.537436 0.537436 0.537436
0.574559 0.574559 0.574559
0.612030 0.612030 0.612030
0.652069 0.652069 0.652069
0.684678 0.684678 0.684678
0.711696 0.711696 0.711696
0.733990 0.733990 0.733990
0.754827 0.754827 0.754827
0.775663 0.775663 0.775663
0.796499 0.796499 0.796499
0.811433 0.811433 0.811433
0.824073 0.824073 0.824073
0.837200 0.837200 0.837200
0.849632 0.849632 0.849632
0.863106 0.863106 0.863106
0.875225 0.875225 0.875225
0.886860 0.886860 0.886860
0.895576 0.895576 0.895576
0.133803 0.133803 0.133803
0.128490 0.128490 0.128490
0.124357 0.124357 0.124357
0.124323 0.124323 0.124323
0.126754 0.126754 0.126754
0.130782 0.130782 0.130782
0.136860 0.136860 0.136860
0.141408 0.141408 0.141408
0.143491 0.143491 0.143491
0.146653 0.146653 0.146653
0.152277 0.152277 0.152277
0.194471 0.194471 0.194471
0.255557 0.255557 0.255557
0.373385 0.373385 0.373385
0.527782 0.527782 0.527782
0.621302 0.621302 0.621302
0.666481 0.666481 0.666481
0.702945 0.702945 0.702945
0.735136 0.735136 0.735136
0.760279 0.760279 0.760279
0.780317 0.780317 0.780317
0.798618 0.798618 0.798618
0.816086 0.816086 0.816086
0.833969 0.833969 0.833969
0.848347 0.848347 0.848347
0.858939 0.858939 0.858939
0.869565 0.869565 0.869565
0.879741 0.879741 0.879741
0.890749 0.890749 0.890749
0.901375 0.901375 0.901375
0.911585 0.911585 0.911585
0.919572 0.919572 0.919572
0.149014 0.149014 0.149014
0.144673 0.144673 0.144673
0.143491 0.143491 0.143491
0.142589 0.142589 0.142589
0.144117 0.144117 0.144117
0.147277 0.147277 0.147277
0.152243 0.152243 0.152243
0.158772 0.158772 0.158772
0.163043 0.163043 0.163043
0.166029 0.166029 0.166029
0.170127 0.170127 0.170127
0.175788 0.175788 0.175788
0.212877 0.212877 0.212877
0.287644 0.287644 0.287644
0.440790 0.440790 0.440790
0.584873 0.584873 0.584873
0.691658 0.691658 0.691658
0.735519 0.735519 0.735519
0.762328 0.762328 0.762328
0.785630 0.785630 0.785630
0.802785 0.802785 0.802785
0.819107 0.819107 0.819107
0.834977 0.834977 0.834977
0.850917 0.850917 0.850917
0.864808 0.864808 0.864808
0.877170 0.877170 0.877170
0.887102 0.887102 0.887102
0.897660 0.897660 0.897660
0.907800 0.907800 0.907800
0.918739 0.918739 0.918739
0.928601 0.928601 0.928601
0.938429 0.938429 0.938429
0.165509 0.165509 0.165509
0.159606 0.159606 0.159606
0.156688 0.156688 0.156688
0.156688 0.156688 0.156688
0.159570 0.159570 0.159570
0.161967 0.161967 0.161967
0.166308 0.166308 0.166308
0.171864 0.171864 0.171864
0.178254 0.178254 0.178254
0.182144 0.182144 0.182144
0.185199 0.185199 0.185199
0.188498 0.188498 0.188498
0.193047 0.193047 0.193047
0.221802 0.221802 0.221802
0.315877 0.315877 0.315877
0.477636 0.477636 0.477636
0.621614 0.621614 0.621614
0.723398 0.723398 0.723398
0.788546 0.788546 0.788546
0.814801 0.814801 0.814801
0.830775 0.830775 0.830775
0.845360 0.845360 0.845360
0.860016 0.860016 0.860016
0.874878 0.874878 0.874878
0.888700 0.888700 0.888700
0.900507 0.900507 0.900507
0.909432 0.909432 0.909432
0.918495 0.918495 0.918495
0.927386 0.927386 0.927386
0.936623 0.936623 0.936623
0.945409 0.945409 0.945409
0.954125 0.954125 0.954125
0.183151 0.183151 0.183151
0.176968 0.176968 0.176968
0.172906 0.172906 0.172906
0.171655 0.171655 0.171655
0.173219 0.173219 0.173219
0.175302 0.175302 0.175302
0.178844 0.178844 0.178844
0.183845 0.183845 0.183845
0.189332 0.189332 0.189332
0.194853 0.194853 0.194853
0.197527 0.197527 0.197527
0.200271 0.200271 0.200271
0.203812 0.203812 0.203812
0.207771 0.207771 0.207771
0.236352 0.236352 0.236352
0.356716 0.356716 0.356716
0.532157 0.532157 0.532157
0.667176 0.667176 0.667176
0.763092 0.763092 0.763092
0.828448 0.828448 0.828448
0.854876 0.854876 0.854876
0.869982 0.869982 0.869982
0.883525 0.883525 0.883525
0.897242 0.897242 0.897242
0.911029 0.911029 0.911029
0.922593 0.922593 0.922593
0.930998 0.930998 0.930998
0.939401 0.939401 0.939401
0.947527 0.947527 0.947527
0.955792 0.955792 0.955792
0.964057 0.964057 0.964057
0.971385 0.971385 0.971385
0.197700 0.197700 0.197700
0.194367 0.194367 0.194367
0.190512 0.190512 0.190512
0.188151 0.188151 0.188151
0.187873 0.187873 0.187873
0.188811 0.188811 0.188811
0.190964 0.190964 0.190964
0.194818 0.194818 0.194818
0.199542 0.199542 0.199542
0.204403 0.204403 0.204403
0.208918 0.208918 0.208918
0.211210 0.211210 0.211210
0.213988 0.213988 0.213988
0.217217 0.217217 0.217217
0.221350 0.221350 0.221350
0.255834 0.255834 0.255834
0.410925 0.410925 0.410891
0.591124 0.591124 0.591124
0.714265 0.714265 0.714265
0.797090 0.797090 0.797090
0.850847 0.850847 0.850847
0.883942 0.883942 0.883942
0.906862 0.906862 0.906862
0.919641 0.919641 0.919641
0.931900 0.931900 0.931900
0.943186 0.943186 0.943186
0.950375 0.950375 0.950375
0.957806 0.957806 0.957806
0.964648 0.964648 0.964648
0.971628 0.971628 0.971628
0.978261 0.978261 0.978261
0.984686 0.984686 0.984686
0.207112 0.207112 0.207112
0.204438 0.204438 0.204438
0.202216 0.202216 0.202216
0.200826 0.200826 0.200826
0.199645 0.199645 0.199645
0.199611 0.199611 0.199611
0.201278 0.201278 0.201278
0.204438 0.204438 0.204438
0.208292 0.208292 0.208292
0.212634 0.212634 0.212634
0.217495 0.217495 0.217495
0.221107 0.221107 0.221107
0.223468 0.223468 0.223468
0.226247 0.226247 0.226247
0.229441 0.229441 0.229441
0.234581 0.234581 0.234581
0.286602 0.286602 0.286602
0.468711 0.468711 0.468711
0.637658 0.637658 0.637658
0.751181 0.751181 0.751181
0.821815 0.821815 0.821815
0.865224 0.865224 0.865224
0.899916 0.899916 0.899916
0.928219 0.928219 0.928219
0.944159 0.944159 0.944159
0.956591 0.956591 0.956591
0.964127 0.964127 0.964127
0.970656 0.970656 0.970656
0.976629 0.976629 0.976629
0.982706 0.982706 0.982706
0.988123 0.988123 0.988123
0.993680 0.993680 0.993680
0.215724 0.215724 0.215724
0.213050 0.213050 0.213050
0.211175 0.211175 0.211175
0.209995 0.209995 0.209995
0.209022 0.209022 0.209022
0.208258 0.208258 0.208258
0.208639 0.208639 0.208639
0.211349 0.211349 0.211349
0.214856 0.214856 0.214856
0.218815 0.218815 0.218815
0.223537 0.223537 0.223537
0.228782 0.228782 0.228782
0.231873 0.231873 0.231873
0.234963 0.234963 0.234963
0.238470 0.238470 0.238470
0.243298 0.243298 0.243298
0.251840 0.251840 0.251840
0.333032 0.333032 0.333032
0.542194 0.542194 0.542194
0.696798 0.696798 0.696798
0.783025 0.783025 0.783025
0.836782 0.836782 0.836782
0.878698 0.878698 0.878698
0.913182 0.913182 0.913182
0.941172 0.941172 0.941172
0.962981 0.962981 0.962981
0.974962 0.974962 0.974962
0.981595 0.981595 0.981595
0.987325 0.987325 0.987325
0.991769 0.991769 0.991769
0.995936 0.995936 0.995936
0.999584 0.999584 0.999584
0.223781 0.223781 0.223781
0.221454 0.221454 0.221454
0.219509 0.219509 0.219509
0.218260 0.218260 0.218260
0.217183 0.217183 0.217183
0.216488 0.216488 0.216488
0.216418 0.216418 0.216418
0.218260 0.218260 0.218260
0.221663 0.221663 0.221663
0.225240 0.225240 0.225240
0.229928 0.229928 0.229928
0.235519 0.235519 0.235519
0.241214 0.241214 0.241214
0.244999 0.244999 0.244999
0.249514 0.249514 0.249514
0.254306 0.254306 0.254306
0.258231 0.258231 0.258231
0.267433 0.267433 0.267433
0.369113 0.369113 0.369113
0.576712 0.576712 0.576712
0.723434 0.723434 0.723434
0.795597 0.795597 0.795597
0.848347 0.848347 0.848347
0.890749 0.890749 0.890749
0.924851 0.924851 0.924851
0.951417 0.951417 0.951417
0.970864 0.970864 0.970864
0.984234 0.984234 0.984234
0.991874 0.991874 0.991874
0.997118 0.997118 0.997118
0.999271 0.999271 0.999271
1.000000 1.000000 1.000000
0.229129 0.229129 0.229129
0.227706 0.227706 0.227706
0.226386 0.226386 0.226386
0.225517 0.225517 0.225517
0.224962 0.224962 0.224962
0.224197 0.224197 0.224197
0.223886 0.223886 0.223886
0.224857 0.224857 0.224857
0.227706 0.227706 0.227706
0.231177 0.231177 0.231177
0.235588 0.235588 0.235588
0.241006 0.241006 0.241006
0.247048 0.247048 0.247048
0.252327 0.252327 0.252327
0.256633 0.256633 0.256633
0.261564 0.261564 0.261564
0.266843 0.266843 0.266843
0.273232 0.273232 0.273232
0.294208 0.294208 0.294208
0.434366 0.434366 0.434366
0.644360 0.644360 0.644360
0.746215 0.746215 0.746215
0.813099 0.813099 0.813099
0.865120 0.865120 0.865120
0.906619 0.906619 0.906619
0.939019 0.939019 0.939019
0.963468 0.963468 0.963468
0.978643 0.978643 0.978643
0.989790 0.989790 0.989790
0.995694 0.995694 0.995694
0.999271 0.999271 0.999271
1.000000 1.000000 1.000000
0.234963 0.234963 0.234963
0.233157 0.233157 0.233157
0.231976 0.231976 0.231976
0.231386 0.231386 0.231386
0.231004 0.231004 0.231004
0.230796 0.230796 0.230796
0.230519 0.230519 0.230519
0.231004 0.231004 0.231004
0.233227 0.233227 0.233227
0.236352 0.236352 0.236352
0.240762 0.240762 0.240762
0.245972 0.245972 0.245972
0.252361 0.252361 0.252361
0.261530 0.261530 0.261530
0.267745 0.267745 0.267745
0.275559 0.275559 0.275559
0.284484 0.284484 0.284484
0.293930 0.293930 0.293930
0.304487 0.304487 0.304487
0.351125 0.351125 0.351125
0.532192 0.532192 0.532192
0.682768 0.682768 0.682768
0.772780 0.772780 0.772780
0.836782 0.836782 0.836782
0.886512 0.886512 0.886512
0.925441 0.925441 0.925441
0.954230 0.954230 0.954230
0.973051 0.973051 0.973051
0.986630 0.986630 0.986630
0.993749 0.993749 0.993749
0.999895 0.999895 0.999895
0.999895 0.999895 0.999895
0.242325 0.242325 0.242325
0.240380 0.240380 0.240380
0.238818 0.238818 0.238818
0.237846 0.237846 0.237846
0.237220 0.237220 0.237220
0.236942 0.236942 0.236942
0.236977 0.236977 0.236977
0.237810 0.237810 0.237810
0.239478 0.239478 0.239478
0.243228 0.243228 0.243228
0.248438 0.248438 0.248438
0.255348 0.255348 0.255348
0.263474 0.263474 0.263474
0.275559 0.275559 0.275559
0.287678 0.287678 0.287678
0.295875 0.295875 0.295875
0.305424 0.305424 0.305424
0.316086 0.316086 0.316086
0.327546 0.327546 0.327546
0.343728 0.343728 0.343728
0.402174 0.402174 0.402174
0.564384 0.564384 0.564384
0.702841 0.702841 0.702841
0.788617 0.788617 0.788617
0.852479 0.852479 0.852479
0.901930 0.901930 0.901930
0.939089 0.939089 0.939089
0.962251 0.962251 0.962251
0.979720 0.979720 0.979720
0.990520 0.990520 0.990520
0.998819 0.998819 0.998819
0.998819 0.998819 0.998819
0.250452 0.250452 0.250452
0.248402 0.248402 0.248402
0.246701 0.246701 0.246701
0.245833 0.245833 0.245833
0.245347 0.245347 0.245347
0.245068 0.245068 0.245068
0.245103 0.245103 0.245103
0.245728 0.245728 0.245728
0.247431 0.247431 0.247431
0.251528 0.251528 0.251528
0.257501 0.257501 0.257501
0.265314 0.265314 0.265314
0.274899 0.274899 0.274899
0.288061 0.288061 0.288061
0.305111 0.305111 0.305111
0.317370 0.317370 0.317370
0.329421 0.329421 0.329421
0.341367 0.341367 0.341367
0.354737 0.354737 0.354737
0.369149 0.369149 0.369149
0.390749 0.390749 0.390749
0.442735 0.442735 0.442735
0.603486 0.603486 0.603486
0.723329 0.723329 0.723329
0.809279 0.809279 0.809279
0.872274 0.872274 0.872274
0.919641 0.919641 0.919641
0.949646 0.949646 0.949646
0.970898 0.970898 0.970898
0.985380 0.985380 0.985380
0.993298 0.993298 0.993298
0.993367 0.993367 0.993367
0.260800 0.260800 0.260800
0.258334 0.258334 0.258334
0.256806 0.256806 0.256806
0.255765 0.255765 0.255765
0.255244 0.255244 0.255244
0.254966 0.254966 0.254966
0.254931 0.254931 0.254931
0.255730 0.255730 0.255730
0.257084 0.257084 0.257084
0.260522 0.260522 0.260522
0.267120 0.267120 0.267120
0.276150 0.276150 0.276150
0.286881 0.286881 0.286881
0.300771 0.300771 0.300771
0.319801 0.319801 0.319801
0.337755 0.337755 0.337755
0.350708 0.350708 0.350708
0.365919 0.365919 0.365919
0.382171 0.382171 0.382171
0.400542 0.400542 0.400542
0.418669 0.418669 0.418669
0.439366 0.439366 0.439366
0.487394 0.487394 0.487394
0.625122 0.625122 0.625122
0.738470 0.738470 0.738470
0.824767 0.824767 0.824767
0.886998 0.886998 0.886998
0.928046 0.928046 0.928046
0.956348 0.956348 0.956348
0.976316 0.976316 0.976316
0.983019 0.983019 0.983019
0.983088 0.983088 0.983088
0.269204 0.269204 0.269204
0.268336 0.268336 0.268336
0.267225 0.267225 0.267225
0.266738 0.266738 0.266738
0.266321 0.266321 0.266321
0.266252 0.266252 0.266252
0.266565 0.266565 0.266565
0.267259 0.267259 0.267259
0.268440 0.268440 0.268440
0.270454 0.270454 0.270454
0.275871 0.275871 0.275871
0.285178 0.285178 0.285178
0.296395 0.296395 0.296395
0.311606 0.311606 0.311606
0.331678 0.331678 0.331678
0.357237 0.357237 0.357237
0.373281 0.373281 0.373281
0.390644 0.390644 0.390644
0.408042 0.408042 0.408042
0.426518 0.426518 0.426518
0.446624 0.446624 0.446624
0.464543 0.464543 0.464543
0.487429 0.487429 0.487429
0.529240 0.529240 0.529240
0.651896 0.651896 0.651896
0.756841 0.756841 0.756841
0.841298 0.841298 0.841298
0.899986 0.899986 0.899986
0.936971 0.936971 0.936971
0.961939 0.961939 0.961939
0.967774 0.967774 0.967774
0.967461 0.967461 0.967461
0.277226 0.277226 0.277226
0.276323 0.276323 0.276323
0.275732 0.275732 0.275732
0.275698 0.275698 0.275698
0.276045 0.276045 0.276045
0.276219 0.276219 0.276219
0.276878 0.276878 0.276878
0.278267 0.278267 0.278267
0.279518 0.279518 0.279518
0.281185 0.281185 0.281185
0.286185 0.286185 0.286185
0.295839 0.295839 0.295839
0.309001 0.309001 0.309001
0.326781 0.326781 0.326781
0.348381 0.348381 0.348381
0.375782 0.375782 0.375782
0.398840 0.398840 0.398840
0.415995 0.415995 0.415995
0.432768 0.432768 0.432768
0.450618 0.450618 0.450618
0.470760 0.470760 0.470760
0.491214 0.491214 0.491214
0.508404 0.508404 0.508404
0.528753 0.528753 0.528753
0.571781 0.571781 0.571781
0.686241 0.686241 0.686241
0.782470 0.782470 0.782470
0.863002 0.863002 0.863002
0.916620 0.916620 0.916620
0.945097 0.945097 0.945097
0.951556 0.951556 0.951556
0.952042 0.952042 0.952042
0.286324 0.286324 0.286324
0.285213 0.285213 0.285213
0.285317 0.285317 0.285317
0.285630 0.285630 0.285630
0.286255 0.286255 0.286255
0.287401 0.287401 0.287401
0.289484 0.289484 0.289484
0.292228 0.292228 0.292228
0.295284 0.295284 0.295284
0.297889 0.297889 0.297889
0.302437 0.302437 0.302437
0.312821 0.312821 0.312821
0.325393 0.325393 0.325393
0.343277 0.343277 0.343277
0.366162 0.366162 0.366162
0.394360 0.394360 0.394360
0.422940 0.422940 0.422940
0.441172 0.441172 0.441172
0.458328 0.458328 0.458328
0.478851 0.478851 0.478851
0.500694 0.500694 0.500694
0.523787 0.523787 0.523787
0.540874 0.540874 0.540874
0.553028 0.553028 0.553028
0.575879 0.575879 0.575879
0.621788 0.621788 0.621788
0.718920 0.718920 0.718920
0.810807 0.810807 0.810807
0.885123 0.885123 0.885123
0.925025 0.925025 0.925025
0.932317 0.932317 0.932317
0.931970 0.931970 0.931970
0.296534 0.296534 0.296534
0.295631 0.295631 0.295631
0.297229 0.297229 0.297229
0.298583 0.298583 0.298583
0.299903 0.299903 0.299903
0.301535 0.301535 0.301535
0.303757 0.303757 0.303757
0.306709 0.306709 0.306709
0.309869 0.309869 0.309869
0.313516 0.313516 0.313516
0.318794 0.318794 0.318794
0.328414 0.328414 0.328414
0.342860 0.342860 0.342860
0.361196 0.361196 0.361196
0.385262 0.385262 0.385262
0.414675 0.414675 0.414675
0.445930 0.445930 0.445930
0.471003 0.471003 0.471003
0.491908 0.491908 0.491908
0.513474 0.513474 0.513474
0.535561 0.535561 0.535561
0.556709 0.556709 0.556709
0.575010 0.575010 0.575010
0.587998 0.587998 0.587998
0.599874 0.599874 0.599874
0.624635 0.624635 0.624635
0.671968 0.671968 0.671968
0.757085 0.757085 0.757085
0.842755 0.842755 0.842755
0.899117 0.899117 0.899117
0.905786 0.905786 0.905786
0.905369 0.905369 0.905369
0.309487 0.309487 0.309487
0.308168 0.308168 0.308168
0.310390 0.310390 0.310390
0.311953 0.311953 0.311953
0.313446 0.313446 0.313446
0.315252 0.315252 0.315252
0.317753 0.317753 0.317753
0.320913 0.320913 0.320913
0.324455 0.324455 0.324455
0.328414 0.328414 0.328414
0.334352 0.334352 0.334352
0.343867 0.343867 0.343867
0.358487 0.358487 0.358487
0.379045 0.379045 0.379045
0.403354 0.403354 0.403354
