Vakken/Crossmedia/Illu & Foto II/Les 3/Les 3/Les 3 Adjustmentlayers en Blending 2/Black and White/BW LUTS/BW Landscapes 01.cube
TITLE "Untitled"
# LUT size
# data domain
# LUT data points
# 
# Copyright: (C) Copyright 2017 ©Richard Harrington
# Created by: Adobe Photoshop Export Color Lookup Plugin
LUT_3D_SIZE 8
DOMAIN_MIN 0.000000 0.000000 0.000000
DOMAIN_MAX 0.903226 0.903226 0.903226
0.000000 0.000000 0.000000
0.070715 0.070715 0.070715
0.161125 0.161125 0.161125
0.220839 0.220839 0.220839
0.252053 0.252053 0.252053
0.268107 0.268107 0.268107
0.279106 0.279106 0.279106
0.286426 0.286426 0.286426
0.052247 0.052247 0.052247
0.062168 0.062168 0.062168
0.111924 0.111924 0.111924
0.185017 0.185017 0.185017
0.255212 0.255212 0.255212
0.294861 0.294861 0.294861
0.319906 0.319906 0.319906
0.339193 0.339193 0.339193
0.123555 0.123555 0.123555
0.126268 0.126268 0.126268
0.169299 0.169299 0.169299
0.233770 0.233770 0.233770
0.307236 0.307236 0.307236
0.355580 0.355580 0.355580
0.386533 0.386533 0.386533
0.406674 0.406674 0.406674
0.152949 0.152949 0.152949
0.188659 0.188659 0.188659
0.249378 0.249378 0.249378
0.312883 0.312883 0.312883
0.389618 0.389618 0.389618
0.447289 0.447289 0.447289
0.481216 0.481216 0.481216
0.502768 0.502768 0.502768
0.213965 0.213965 0.213965
0.201033 0.201033 0.201033
0.305414 0.305414 0.305414
0.380625 0.380625 0.380625
0.464903 0.464903 0.464903
0.533983 0.533983 0.533983
0.573297 0.573297 0.573297
0.600796 0.600796 0.600796
0.266508 0.266508 0.266508
0.259560 0.259560 0.259560
0.318867 0.318867 0.318867
0.428895 0.428895 0.428895
0.523132 0.523132 0.523132
0.601910 0.601910 0.601910
0.647876 0.647876 0.647876
0.681655 0.681655 0.681655
0.307756 0.307756 0.307756
0.307941 0.307941 0.307941
0.313106 0.313106 0.313106
0.458103 0.458103 0.458103
0.564453 0.564453 0.564453
0.651556 0.651556 0.651556
0.709263 0.709263 0.709263
0.751143 0.751143 0.751143
0.341496 0.341496 0.341496
0.343243 0.343243 0.343243
0.349449 0.349449 0.349449
0.464978 0.464978 0.464978
0.594590 0.594590 0.594590
0.692579 0.692579 0.692579
0.760358 0.760358 0.760358
0.805395 0.805395 0.805395
0.020400 0.020400 0.020400
0.095983 0.095983 0.095983
0.174502 0.174502 0.174502
0.240460 0.240460 0.240460
0.277247 0.277247 0.277247
0.299283 0.299283 0.299283
0.311472 0.311472 0.311472
0.318829 0.318829 0.318829
0.048159 0.048159 0.048159
0.070083 0.070083 0.070083
0.118687 0.118687 0.118687
0.189626 0.189626 0.189626
0.261343 0.261343 0.261343
0.306826 0.306826 0.306826
0.338338 0.338338 0.338338
0.360931 0.360931 0.360931
0.113857 0.113857 0.113857
0.127384 0.127384 0.127384
0.171269 0.171269 0.171269
0.233734 0.233734 0.233734
0.308721 0.308721 0.308721
0.362788 0.362788 0.362788
0.398833 0.398833 0.398833
0.422319 0.422319 0.422319
0.147858 0.147858 0.147858
0.192486 0.192486 0.192486
0.250418 0.250418 0.250418
0.312846 0.312846 0.312846
0.390250 0.390250 0.390250
0.453235 0.453235 0.453235
0.491027 0.491027 0.491027
0.517447 0.517447 0.517447
0.212962 0.212962 0.212962
0.206607 0.206607 0.206607
0.309353 0.309353 0.309353
0.384043 0.384043 0.384043
0.470699 0.470699 0.470699
0.544239 0.544239 0.544239
0.586489 0.586489 0.586489
0.618668 0.618668 0.618668
0.272082 0.272082 0.272082
0.269481 0.269481 0.269481
0.315002 0.315002 0.315002
0.435435 0.435435 0.435435
0.531382 0.531382 0.531382
0.613801 0.613801 0.613801
0.665192 0.665192 0.665192
0.703542 0.703542 0.703542
0.318309 0.318309 0.318309
0.319906 0.319906 0.319906
0.323697 0.323697 0.323697
0.464866 0.464866 0.464866
0.575676 0.575676 0.575676
0.667162 0.667162 0.667162
0.729664 0.729664 0.729664
0.773402 0.773402 0.773402
0.352459 0.352459 0.352459
0.356286 0.356286 0.356286
0.364684 0.364684 0.364684
0.466575 0.466575 0.466575
0.606481 0.606481 0.606481
0.706476 0.706476 0.706476
0.777897 0.777897 0.777897
0.824198 0.824198 0.824198
0.054328 0.054328 0.054328
0.120768 0.120768 0.120768
0.194679 0.194679 0.194679
0.261603 0.261603 0.261603
0.302925 0.302925 0.302925
0.327190 0.327190 0.327190
0.338338 0.338338 0.338338
0.344952 0.344952 0.344952
0.060348 0.060348 0.060348
0.089778 0.089778 0.089778
0.137974 0.137974 0.137974
0.208020 0.208020 0.208020
0.280258 0.280258 0.280258
0.329643 0.329643 0.329643
0.364313 0.364313 0.364313
0.386979 0.386979 0.386979
0.114898 0.114898 0.114898
0.141355 0.141355 0.141355
0.185538 0.185538 0.185538
0.248078 0.248078 0.248078
0.323585 0.323585 0.323585
0.381071 0.381071 0.381071
0.418974 0.418974 0.418974
0.445134 0.445134 0.445134
0.150979 0.150979 0.150979
0.200810 0.200810 0.200810
0.261938 0.261938 0.261938
0.324403 0.324403 0.324403
0.402364 0.402364 0.402364
0.468730 0.468730 0.468730
0.508231 0.508231 0.508231
0.538404 0.538404 0.538404
0.223440 0.223440 0.223440
0.219873 0.219873 0.219873
0.319312 0.319312 0.319312
0.395935 0.395935 0.395935
0.483594 0.483594 0.483594
0.558916 0.558916 0.558916
0.605217 0.605217 0.605217
0.641002 0.641002 0.641002
0.286091 0.286091 0.286091
0.286426 0.286426 0.286426
0.307978 0.307978 0.307978
0.447327 0.447327 0.447327
0.545836 0.545836 0.545836
0.630560 0.630560 0.630560
0.685668 0.685668 0.685668
0.727546 0.727546 0.727546
0.335105 0.335105 0.335105
0.337557 0.337557 0.337557
0.342500 0.342500 0.342500
0.474193 0.474193 0.474193
0.591357 0.591357 0.591357
0.686039 0.686039 0.686039
0.752295 0.752295 0.752295
0.796738 0.796738 0.796738
0.370109 0.370109 0.370109
0.374754 0.374754 0.374754
0.384527 0.384527 0.384527
0.469065 0.469065 0.469065
0.622200 0.622200 0.622200
0.725540 0.725540 0.725540
0.800268 0.800268 0.800268
0.847498 0.847498 0.847498
0.081677 0.081677 0.081677
0.137825 0.137825 0.137825
0.206013 0.206013 0.206013
0.270076 0.270076 0.270076
0.311992 0.311992 0.311992
0.335886 0.335886 0.335886
0.345510 0.345510 0.345510
0.350340 0.350340 0.350340
0.081714 0.081714 0.081714
0.117535 0.117535 0.117535
0.164877 0.164877 0.164877
0.233176 0.233176 0.233176
0.302293 0.302293 0.302293
0.351678 0.351678 0.351678
0.386348 0.386348 0.386348
0.407975 0.407975 0.407975
0.126529 0.126529 0.126529
0.164914 0.164914 0.164914
0.209840 0.209840 0.209840
0.272528 0.272528 0.272528
0.346327 0.346327 0.346327
0.403627 0.403627 0.403627
0.440972 0.440972 0.440972
0.468730 0.468730 0.468730
0.165361 0.165361 0.165361
0.218609 0.218609 0.218609
0.282004 0.282004 0.282004
0.346624 0.346624 0.346624
0.424548 0.424548 0.424548
0.489985 0.489985 0.489985
0.530192 0.530192 0.530192
0.561815 0.561815 0.561815
0.244064 0.244064 0.244064
0.242578 0.242578 0.242578
0.334696 0.334696 0.334696
0.417599 0.417599 0.417599
0.506224 0.506224 0.506224
0.580729 0.580729 0.580729
0.628665 0.628665 0.628665
0.666085 0.666085 0.666085
0.309391 0.309391 0.309391
0.311508 0.311508 0.311508
0.327895 0.327895 0.327895
0.466537 0.466537 0.466537
0.568504 0.568504 0.568504
0.653785 0.653785 0.653785
0.710007 0.710007 0.710007
0.751737 0.751737 0.751737
0.359704 0.359704 0.359704
0.362714 0.362714 0.362714
0.369329 0.369329 0.369329
0.487794 0.487794 0.487794
0.613653 0.613653 0.613653
0.709710 0.709710 0.709710
0.776486 0.776486 0.776486
0.820817 0.820817 0.820817
0.395824 0.395824 0.395824
0.402029 0.402029 0.402029
0.412769 0.412769 0.412769
0.470440 0.470440 0.470440
0.642080 0.642080 0.642080
0.747538 0.747538 0.747538
0.823604 0.823604 0.823604
0.870685 0.870685 0.870685
0.101112 0.101112 0.101112
0.148862 0.148862 0.148862
0.209097 0.209097 0.209097
0.267066 0.267066 0.267066
0.307087 0.307087 0.307087
0.328304 0.328304 0.328304
0.334399 0.334399 0.334399
0.335439 0.335439 0.335439
0.108023 0.108023 0.108023
0.142916 0.142916 0.142916
0.188399 0.188399 0.188399
0.253948 0.253948 0.253948
0.317491 0.317491 0.317491
0.364684 0.364684 0.364684
0.397607 0.397607 0.397607
0.417710 0.417710 0.417710
0.148378 0.148378 0.148378
0.190108 0.190108 0.190108
0.234328 0.234328 0.234328
0.295344 0.295344 0.295344
0.365204 0.365204 0.365204
0.420535 0.420535 0.420535
0.457174 0.457174 0.457174
0.484635 0.484635 0.484635
0.182825 0.182825 0.182825
0.243023 0.243023 0.243023
0.303594 0.303594 0.303594
0.369105 0.369105 0.369105
0.444911 0.444911 0.444911
0.507636 0.507636 0.507636
0.547508 0.547508 0.547508
0.579986 0.579986 0.579986
0.266917 0.266917 0.266917
0.265729 0.265729 0.265729
0.352979 0.352979 0.352979
0.440229 0.440229 0.440229
0.527740 0.527740 0.527740
0.600164 0.600164 0.600164
0.648247 0.648247 0.648247
0.685965 0.685965 0.685965
0.335105 0.335105 0.335105
0.336145 0.336145 0.336145
0.346624 0.346624 0.346624
0.486381 0.486381 0.486381
0.590465 0.590465 0.590465
0.674371 0.674371 0.674371
0.730928 0.730928 0.730928
0.772027 0.772027 0.772027
0.386088 0.386088 0.386088
0.388578 0.388578 0.388578
0.395192 0.395192 0.395192
0.500984 0.500984 0.500984
0.635948 0.635948 0.635948
0.731448 0.731448 0.731448
0.797778 0.797778 0.797778
0.841775 0.841775 0.841775
0.423433 0.423433 0.423433
0.429713 0.429713 0.429713
0.439932 0.439932 0.439932
0.473079 0.473079 0.473079
0.662703 0.662703 0.662703
0.768719 0.768719 0.768719
0.844821 0.844821 0.844821
0.891754 0.891754 0.891754
0.117759 0.117759 0.117759
0.157593 0.157593 0.157593
0.210508 0.210508 0.210508
0.260414 0.260414 0.260414
0.296125 0.296125 0.296125
0.310988 0.310988 0.310988
0.313218 0.313218 0.313218
0.314035 0.314035 0.314035
0.134183 0.134183 0.134183
0.164952 0.164952 0.164952
0.207424 0.207424 0.207424
0.269630 0.269630 0.269630
0.327004 0.327004 0.327004
0.370741 0.370741 0.370741
0.401694 0.401694 0.401694
0.420051 0.420051 0.420051
0.180000 0.180000 0.180000
0.213890 0.213890 0.213890
0.255769 0.255769 0.255769
0.314295 0.314295 0.314295
0.378358 0.378358 0.378358
0.430902 0.430902 0.430902
0.465795 0.465795 0.465795
0.492773 0.492773 0.492773
0.203820 0.203820 0.203820
0.272714 0.272714 0.272714
0.327487 0.327487 0.327487
0.389989 0.389989 0.389989
0.461224 0.461224 0.461224
0.519862 0.519862 0.519862
0.558284 0.558284 0.558284
0.590093 0.590093 0.590093
0.286055 0.286055 0.286055
0.285311 0.285311 0.285311
0.377318 0.377318 0.377318
0.463268 0.463268 0.463268
0.547175 0.547175 0.547175
0.614916 0.614916 0.614916
0.661254 0.661254 0.661254
0.697781 0.697781 0.697781
0.357177 0.357177 0.357177
0.357809 0.357809 0.357809
0.368772 0.368772 0.368772
0.509792 0.509792 0.509792
0.611534 0.611534 0.611534
0.691167 0.691167 0.691167
0.745792 0.745792 0.745792
0.785552 0.785552 0.785552
0.409015 0.409015 0.409015
0.412843 0.412843 0.412843
0.418974 0.418974 0.418974
0.520159 0.520159 0.520159
0.658467 0.658467 0.658467
0.750065 0.750065 0.750065
0.813682 0.813682 0.813682
0.855932 0.855932 0.855932
0.449333 0.449333 0.449333
0.456319 0.456319 0.456319
0.465795 0.465795 0.465795
0.481848 0.481848 0.481848
0.684404 0.684404 0.684404
0.787968 0.787968 0.787968
0.861284 0.861284 0.861284
0.906878 0.906878 0.906878
0.131322 0.131322 0.131322
0.165100 0.165100 0.165100
0.210621 0.210621 0.210621
0.252276 0.252276 0.252276
0.280258 0.280258 0.280258
0.290327 0.290327 0.290327
0.300174 0.300174 0.300174
0.318048 0.318048 0.318048
0.157334 0.157334 0.157334
0.186020 0.186020 0.186020
0.225224 0.225224 0.225224
0.283675 0.283675 0.283675
0.334250 0.334250 0.334250
0.373751 0.373751 0.373751
0.402178 0.402178 0.402178
0.417487 0.417487 0.417487
0.206198 0.206198 0.206198
0.236632 0.236632 0.236632
0.276132 0.276132 0.276132
0.332541 0.332541 0.332541
0.390138 0.390138 0.390138
0.439077 0.439077 0.439077
0.471777 0.471777 0.471777
0.497344 0.497344 0.497344
0.234143 0.234143 0.234143
0.300397 0.300397 0.300397
0.350192 0.350192 0.350192
0.410762 0.410762 0.410762
0.476237 0.476237 0.476237
0.531233 0.531233 0.531233
0.567129 0.567129 0.567129
0.597786 0.597786 0.597786
0.297463 0.297463 0.297463
0.305711 0.305711 0.305711
0.408011 0.408011 0.408011
0.486046 0.486046 0.486046
0.565233 0.565233 0.565233
0.628442 0.628442 0.628442
0.672253 0.672253 0.672253
0.707740 0.707740 0.707740
0.370889 0.370889 0.370889
0.371892 0.371892 0.371892
0.392516 0.392516 0.392516
0.535729 0.535729 0.535729
0.631340 0.631340 0.631340
0.706068 0.706068 0.706068
0.758277 0.758277 0.758277
0.796961 0.796961 0.796961
0.426666 0.426666 0.426666
0.430085 0.430085 0.430085
0.435547 0.435547 0.435547
0.552748 0.552748 0.552748
0.679797 0.679797 0.679797
0.766118 0.766118 0.766118
0.826837 0.826837 0.826837
0.867786 0.867786 0.867786
0.470440 0.470440 0.470440
0.476348 0.476348 0.476348
0.483111 0.483111 0.483111
0.524543 0.524543 0.524543
0.706663 0.706663 0.706663
0.805692 0.805692 0.805692
0.875070 0.875070 0.875070
0.919958 0.919958 0.919958
0.143956 0.143956 0.143956
0.173573 0.173573 0.173573
0.210695 0.210695 0.210695
0.244287 0.244287 0.244287
0.266620 0.266620 0.266620
0.279774 0.279774 0.279774
0.304077 0.304077 0.304077
0.323474 0.323474 0.323474
0.179667 0.179667 0.179667
0.206756 0.206756 0.206756
0.244398 0.244398 0.244398
0.295530 0.295530 0.295530
0.340678 0.340678 0.340678
0.375274 0.375274 0.375274
0.399242 0.399242 0.399242
0.411021 0.411021 0.411021
0.232470 0.232470 0.232470
0.259894 0.259894 0.259894
0.295084 0.295084 0.295084
0.349375 0.349375 0.349375
0.400394 0.400394 0.400394
0.445134 0.445134 0.445134
0.476051 0.476051 0.476051
0.499981 0.499981 0.499981
0.289585 0.289585 0.289585
0.329011 0.329011 0.329011
0.372412 0.372412 0.372412
0.430270 0.430270 0.430270
0.488759 0.488759 0.488759
0.540003 0.540003 0.540003
0.573037 0.573037 0.573037
0.602393 0.602393 0.602393
0.308387 0.308387 0.308387
0.348036 0.348036 0.348036
0.438186 0.438186 0.438186
0.510163 0.510163 0.510163
0.581435 0.581435 0.581435
0.639441 0.639441 0.639441
0.679907 0.679907 0.679907
0.713983 0.713983 0.713983
0.383152 0.383152 0.383152
0.384639 0.384639 0.384639
0.447252 0.447252 0.447252
0.564156 0.564156 0.564156
0.651556 0.651556 0.651556
0.719148 0.719148 0.719148
0.767456 0.767456 0.767456
0.804578 0.804578 0.804578
0.441790 0.441790 0.441790
0.445246 0.445246 0.445246
0.451414 0.451414 0.451414
0.590353 0.590353 0.590353
0.702129 0.702129 0.702129
0.781019 0.781019 0.781019
0.836832 0.836832 0.836832
0.875925 0.875925 0.875925
0.488424 0.488424 0.488424
0.493070 0.493070 0.493070
0.499201 0.499201 0.499201
0.577310 0.577310 0.577310
0.731337 0.731337 0.731337
0.822600 0.822600 0.822600
0.886812 0.886812 0.886812
0.929843 0.929843 0.929843
