Vakken/Crossmedia/Illu & Foto II/Les 3/Les 3/Les 3 Adjustmentlayers en Blending 2/Black and White/BW LUTS/BW Landscapes 03.cube
#Created by: Adobe Photoshop Export Color Lookup Plugin
#Copyright: (C) Copyright 2017 ©Richard Harrington
TITLE "Untitled"
#LUT size
LUT_3D_SIZE 5
#data domain
#LUT data points
DOMAIN_MIN 0.000000 0.000000 0.000000
DOMAIN_MAX 0.903226 0.903226 0.903226
0.000000 0.000000 0.000000
0.114197 0.114197 0.114197
0.309052 0.309052 0.309052
0.555786 0.555786 0.555786
0.859436 0.859436 0.859436
0.078491 0.078491 0.078491
0.040253 0.040253 0.040253
0.339233 0.339233 0.339233
0.574066 0.574066 0.574066
0.878418 0.878418 0.878418
0.209045 0.209045 0.209045
0.243225 0.243225 0.243225
0.150208 0.150208 0.150208
0.562042 0.562042 0.562042
0.902649 0.902649 0.902649
0.392914 0.392914 0.392914
0.419189 0.419189 0.419189
0.503082 0.503082 0.503082
0.274017 0.274017 0.274017
0.688293 0.688293 0.688293
0.647308 0.647308 0.647308
0.668732 0.668732 0.668732
0.732697 0.732697 0.732697
0.773041 0.773041 0.773041
0.447266 0.447266 0.447266
0.013428 0.013428 0.013428
0.097717 0.097717 0.097717
0.309479 0.309479 0.309479
0.549164 0.549164 0.549164
0.847260 0.847260 0.847260
0.069244 0.069244 0.069244
0.187378 0.187378 0.187378
0.355225 0.355225 0.355225
0.568573 0.568573 0.568573
0.860413 0.860413 0.860413
0.212555 0.212555 0.212555
0.293610 0.293610 0.293610
0.252045 0.252045 0.252045
0.621033 0.621033 0.621033
0.899750 0.899750 0.899750
0.410736 0.410736 0.410736
0.455658 0.455658 0.455658
0.531342 0.531342 0.531342
0.355713 0.355713 0.355713
0.764954 0.764954 0.764954
0.667755 0.667755 0.667755
0.688507 0.688507 0.688507
0.768585 0.768585 0.768585
0.819824 0.819824 0.819824
0.512756 0.512756 0.512756
0.091370 0.091370 0.091370
0.156860 0.156860 0.156860
0.285248 0.285248 0.285248
0.511505 0.511505 0.511505
0.841431 0.841431 0.841431
0.159424 0.159424 0.159424
0.230774 0.230774 0.230774
0.343506 0.343506 0.343506
0.552551 0.552551 0.552551
0.865082 0.865082 0.865082
0.207825 0.207825 0.207825
0.286591 0.286591 0.286591
0.492615 0.492615 0.492615
0.669556 0.669556 0.669556
0.906891 0.906891 0.906891
0.361542 0.361542 0.361542
0.425690 0.425690 0.425690
0.604248 0.604248 0.604248
0.558929 0.558929 0.558929
0.916229 0.916229 0.916229
0.611145 0.611145 0.611145
0.664337 0.664337 0.664337
0.807037 0.807037 0.807037
0.893799 0.893799 0.893799
0.665558 0.665558 0.665558
0.184296 0.184296 0.184296
0.236420 0.236420 0.236420
0.386200 0.386200 0.386200
0.503784 0.503784 0.503784
0.781616 0.781616 0.781616
0.255432 0.255432 0.255432
0.295624 0.295624 0.295624
0.423767 0.423767 0.423767
0.535278 0.535278 0.535278
0.799255 0.799255 0.799255
0.286804 0.286804 0.286804
0.346283 0.346283 0.346283
0.520508 0.520508 0.520508
0.623810 0.623810 0.623810
0.876038 0.876038 0.876038
0.363251 0.363251 0.363251
0.415527 0.415527 0.415527
0.570587 0.570587 0.570587
0.819427 0.819427 0.819427
0.951599 0.951599 0.951599
0.512695 0.512695 0.512695
0.563507 0.563507 0.563507
0.733002 0.733002 0.733002
0.924530 0.924530 0.924530
0.884674 0.884674 0.884674
0.302734 0.302734 0.302734
0.343201 0.343201 0.343201
0.474335 0.474335 0.474335
0.662781 0.662781 0.662781
0.762421 0.762421 0.762421
0.336060 0.336060 0.336060
0.372253 0.372253 0.372253
0.492950 0.492950 0.492950
0.668030 0.668030 0.668030
0.773193 0.773193 0.773193
0.362854 0.362854 0.362854
0.428314 0.428314 0.428314
0.541992 0.541992 0.541992
0.704926 0.704926 0.704926
0.834198 0.834198 0.834198
0.376465 0.376465 0.376465
0.410553 0.410553 0.410553
0.524506 0.524506 0.524506
0.801208 0.801208 0.801208
0.932434 0.932434 0.932434
0.478027 0.478027 0.478027
0.512360 0.512360 0.512360
0.642944 0.642944 0.642944
0.868500 0.868500 0.868500
0.982300 0.982300 0.982300
