Vakken/Crossmedia/Illu & Foto II/Les 3/Les 3/Les 3 Adjustmentlayers en Blending 2/Black and White/BW LUTS/BW Landscapes 03.cube
#Created by: Adobe Photoshop Export Color Lookup Plugin
#Copyright: (C) Copyright 2017 ©Richard Harrington
TITLE "Untitled"
#LUT size
LUT_3D_SIZE 8
#data domain
#LUT data points
DOMAIN_MIN 0.000000 0.000000 0.000000
DOMAIN_MAX 0.903226 0.903226 0.903226
0.000000 0.000000 0.000000
0.041260 0.041260 0.041260
0.135925 0.135925 0.135925
0.247711 0.247711 0.247711
0.371094 0.371094 0.371094
0.515381 0.515381 0.515381
0.678833 0.678833 0.678833
0.859436 0.859436 0.859436
0.020630 0.020630 0.020630
0.019623 0.019623 0.019623
0.146851 0.146851 0.146851
0.252716 0.252716 0.252716
0.371704 0.371704 0.371704
0.508087 0.508087 0.508087
0.665405 0.665405 0.665405
0.851990 0.851990 0.851990
0.089172 0.089172 0.089172
0.102142 0.102142 0.102142
0.047455 0.047455 0.047455
0.250305 0.250305 0.250305
0.409058 0.409058 0.409058
0.540680 0.540680 0.540680
0.710449 0.710449 0.710449
0.878693 0.878693 0.878693
0.163391 0.163391 0.163391
0.174103 0.174103 0.174103
0.214264 0.214264 0.214264
0.117096 0.117096 0.117096
0.294281 0.294281 0.294281
0.602509 0.602509 0.602509
0.752380 0.752380 0.752380
0.894897 0.894897 0.894897
0.258209 0.258209 0.258209
0.266785 0.266785 0.266785
0.299072 0.299072 0.299072
0.311554 0.311554 0.311554
0.181396 0.181396 0.181396
0.291443 0.291443 0.291443
0.678619 0.678619 0.678619
0.913391 0.913391 0.913391
0.359161 0.359161 0.359161
0.372925 0.372925 0.372925
0.398926 0.398926 0.398926
0.445923 0.445923 0.445923
0.401642 0.401642 0.401642
0.254272 0.254272 0.254272
0.284698 0.284698 0.284698
0.788513 0.788513 0.788513
0.486511 0.486511 0.486511
0.494781 0.494781 0.494781
0.515106 0.515106 0.515106
0.555084 0.555084 0.555084
0.610413 0.610413 0.610413
0.508087 0.508087 0.508087
0.335693 0.335693 0.335693
0.253174 0.253174 0.253174
0.647308 0.647308 0.647308
0.653198 0.653198 0.653198
0.677032 0.677032 0.677032
0.725800 0.725800 0.725800
0.767090 0.767090 0.767090
0.796417 0.796417 0.796417
0.668488 0.668488 0.668488
0.447266 0.447266 0.447266
0.003082 0.003082 0.003082
0.034058 0.034058 0.034058
0.131256 0.131256 0.131256
0.250610 0.250610 0.250610
0.369995 0.369995 0.369995
0.501434 0.501434 0.501434
0.655151 0.655151 0.655151
0.841461 0.841461 0.841461
0.000000 0.000000 0.000000
0.077118 0.077118 0.077118
0.155029 0.155029 0.155029
0.259796 0.259796 0.259796
0.375244 0.375244 0.375244
0.501770 0.501770 0.501770
0.647675 0.647675 0.647675
0.833008 0.833008 0.833008
0.086823 0.086823 0.086823
0.126007 0.126007 0.126007
0.107239 0.107239 0.107239
0.289886 0.289886 0.289886
0.405579 0.405579 0.405579
0.527191 0.527191 0.527191
0.677612 0.677612 0.677612
0.857605 0.857605 0.857605
0.171844 0.171844 0.171844
0.193604 0.193604 0.193604
0.231476 0.231476 0.231476
0.151978 0.151978 0.151978
0.315216 0.315216 0.315216
0.570709 0.570709 0.570709
0.714172 0.714172 0.714172
0.876007 0.876007 0.876007
0.273193 0.273193 0.273193
0.280243 0.280243 0.280243
0.308594 0.308594 0.308594
0.326233 0.326233 0.326233
0.205627 0.205627 0.205627
0.318878 0.318878 0.318878
0.681458 0.681458 0.681458
0.904053 0.904053 0.904053
0.364960 0.364960 0.364960
0.372162 0.372162 0.372162
0.397186 0.397186 0.397186
0.443939 0.443939 0.443939
0.414185 0.414185 0.414185
0.278046 0.278046 0.278046
0.319214 0.319214 0.319214
0.794891 0.794891 0.794891
0.481964 0.481964 0.481964
0.485992 0.485992 0.485992
0.507477 0.507477 0.507477
0.550018 0.550018 0.550018
0.607727 0.607727 0.607727
0.515778 0.515778 0.515778
0.348541 0.348541 0.348541
0.273743 0.273743 0.273743
0.641785 0.641785 0.641785
0.649353 0.649353 0.649353
0.673798 0.673798 0.673798
0.722839 0.722839 0.722839
0.784821 0.784821 0.784821
0.812073 0.812073 0.812073
0.679443 0.679443 0.679443
0.459412 0.459412 0.459412
0.017548 0.017548 0.017548
0.067291 0.067291 0.067291
0.121826 0.121826 0.121826
0.233795 0.233795 0.233795
0.374756 0.374756 0.374756
0.526825 0.526825 0.526825
0.681610 0.681610 0.681610
0.858276 0.858276 0.858276
0.063965 0.063965 0.063965
0.097961 0.097961 0.097961
0.150635 0.150635 0.150635
0.255493 0.255493 0.255493
0.389191 0.389191 0.389191
0.526825 0.526825 0.526825
0.677094 0.677094 0.677094
0.855713 0.855713 0.855713
0.087982 0.087982 0.087982
0.125275 0.125275 0.125275
0.228790 0.228790 0.228790
0.320557 0.320557 0.320557
0.432007 0.432007 0.432007
0.550964 0.550964 0.550964
0.697571 0.697571 0.697571
0.866547 0.866547 0.866547
0.157440 0.157440 0.157440
0.191742 0.191742 0.191742
0.287445 0.287445 0.287445
0.266296 0.266296 0.266296
0.443481 0.443481 0.443481
0.593292 0.593292 0.593292
0.738403 0.738403 0.738403
0.887543 0.887543 0.887543
0.260620 0.260620 0.260620
0.287354 0.287354 0.287354
0.357727 0.357727 0.357727
0.406555 0.406555 0.406555
0.308411 0.308411 0.308411
0.441162 0.441162 0.441162
0.761993 0.761993 0.761993
0.909912 0.909912 0.909912
0.366119 0.366119 0.366119
0.387817 0.387817 0.387817
0.436218 0.436218 0.436218
0.476776 0.476776 0.476776
0.478394 0.478394 0.478394
0.359192 0.359192 0.359192
0.436554 0.436554 0.436554
0.854858 0.854858 0.854858
0.495544 0.495544 0.495544
0.511505 0.511505 0.511505
0.540070 0.540070 0.540070
0.576538 0.576538 0.576538
0.629730 0.629730 0.629730
0.572174 0.572174 0.572174
0.425415 0.425415 0.425415
0.396606 0.396606 0.396606
0.656525 0.656525 0.656525
0.668457 0.668457 0.668457
0.690094 0.690094 0.690094
0.742401 0.742401 0.742401
0.799438 0.799438 0.799438
0.846619 0.846619 0.846619
0.733734 0.733734 0.733734
0.524292 0.524292 0.524292
0.073303 0.073303 0.073303
0.092468 0.092468 0.092468
0.163940 0.163940 0.163940
0.228485 0.228485 0.228485
0.337708 0.337708 0.337708
0.490784 0.490784 0.490784
0.658020 0.658020 0.658020
0.851654 0.851654 0.851654
0.109283 0.109283 0.109283
0.127655 0.127655 0.127655
0.189636 0.189636 0.189636
0.250305 0.250305 0.250305
0.354736 0.354736 0.354736
0.501923 0.501923 0.501923
0.664673 0.664673 0.664673
0.855469 0.855469 0.855469
0.127838 0.127838 0.127838
0.158295 0.158295 0.158295
0.250092 0.250092 0.250092
0.311829 0.311829 0.311829
0.418152 0.418152 0.418152
0.556641 0.556641 0.556641
0.724945 0.724945 0.724945
0.879517 0.879517 0.879517
0.166046 0.166046 0.166046
0.194061 0.194061 0.194061
0.281433 0.281433 0.281433
0.407776 0.407776 0.407776
0.500977 0.500977 0.500977
0.607697 0.607697 0.607666
0.751892 0.751892 0.751892
0.895081 0.895081 0.895081
0.236694 0.236694 0.236694
0.262756 0.262756 0.262756
0.346649 0.346649 0.346649
0.469055 0.469055 0.469055
0.445648 0.445648 0.445648
0.608093 0.608093 0.608093
0.803589 0.803589 0.803589
0.917450 0.917450 0.917450
0.349030 0.349030 0.349030
0.375397 0.375397 0.375397
0.443726 0.443726 0.443726
0.538452 0.538452 0.538452
0.588196 0.588196 0.588196
0.485809 0.485809 0.485809
0.608704 0.608704 0.608704
0.919434 0.919434 0.919434
0.473907 0.473907 0.473907
0.492462 0.492462 0.492462
0.551971 0.551971 0.551971
0.628815 0.628815 0.628815
0.681824 0.681824 0.681824
0.670898 0.670898 0.670898
0.535767 0.535767 0.535767
0.584259 0.584259 0.584259
0.638794 0.638794 0.638794
0.655029 0.655029 0.655029
0.707703 0.707703 0.707703
0.773224 0.773224 0.773224
0.823853 0.823853 0.823853
0.877960 0.877960 0.877960
0.811584 0.811584 0.811584
0.619415 0.619415 0.619415
0.113586 0.113586 0.113586
0.132996 0.132996 0.132996
0.194824 0.194824 0.194824
0.289581 0.289581 0.289581
0.346161 0.346161 0.346161
0.461151 0.461151 0.461151
0.620148 0.620148 0.620148
0.828613 0.828613 0.828613
0.147949 0.147949 0.147949
0.165100 0.165100 0.165100
0.219757 0.219757 0.219757
0.305481 0.305481 0.305481
0.361359 0.361359 0.361359
0.473816 0.473816 0.473816
0.631836 0.631836 0.631836
0.835541 0.835541 0.835541
0.194153 0.194153 0.194153
0.228424 0.228424 0.228424
0.279144 0.279144 0.279144
0.353607 0.353607 0.353607
0.408569 0.408569 0.408569
0.509247 0.509247 0.509247
0.666382 0.666382 0.666382
0.853607 0.853607 0.853607
0.210052 0.210052 0.210052
0.233887 0.233887 0.233887
0.310181 0.310181 0.310181
0.425415 0.425415 0.425415
0.486725 0.486725 0.486725
0.584656 0.584656 0.584656
0.737885 0.737885 0.737885
0.891205 0.891205 0.891205
0.252411 0.252411 0.252411
0.274750 0.274750 0.274750
0.345367 0.345367 0.345367
0.453247 0.453247 0.453247
0.577271 0.577271 0.577271
0.674377 0.674377 0.674377
0.805481 0.805481 0.805481
0.917633 0.917633 0.917633
0.305267 0.305267 0.305267
0.326630 0.326630 0.326630
0.394714 0.394714 0.394714
0.501495 0.501495 0.501495
0.625702 0.625702 0.625702
0.607819 0.607819 0.607819
0.800232 0.800232 0.800232
0.943787 0.943787 0.943787
0.434113 0.434113 0.434113
0.450989 0.450989 0.450989
0.508850 0.508850 0.508850
0.603271 0.603271 0.603271
0.719574 0.719574 0.719574
0.779236 0.779236 0.779236
0.652618 0.652618 0.652618
0.793121 0.793121 0.793121
0.587799 0.587799 0.587799
0.601929 0.601929 0.601929
0.651611 0.651611 0.651611
0.752502 0.752502 0.752502
0.842926 0.842926 0.842926
0.890930 0.890930 0.890930
0.880066 0.880066 0.880066
0.730286 0.730286 0.730286
0.171600 0.171600 0.171600
0.188385 0.188385 0.188385
0.241516 0.241516 0.241516
0.327179 0.327179 0.327179
0.429077 0.429077 0.429077
0.473816 0.473816 0.473816
0.604248 0.604248 0.604248
0.795319 0.795319 0.795319
0.196960 0.196960 0.196960
0.211212 0.211212 0.211212
0.259460 0.259460 0.259460
0.338776 0.338776 0.338776
0.438202 0.438202 0.438202
0.481842 0.481842 0.481842
0.610504 0.610504 0.610504
0.800812 0.800812 0.800812
0.266144 0.266144 0.266144
0.277588 0.277588 0.277588
0.318237 0.318237 0.318237
0.387756 0.387756 0.387756
0.478485 0.478485 0.478485
0.521973 0.521973 0.521973
0.644806 0.644806 0.644806
0.829315 0.829315 0.829315
0.268585 0.268585 0.268585
0.290802 0.290802 0.290802
0.368835 0.368835 0.368835
0.461121 0.461121 0.461121
0.543304 0.543304 0.543304
0.593719 0.593719 0.593719
0.711182 0.711182 0.711182
0.874451 0.874451 0.874451
0.297363 0.297363 0.297363
0.316498 0.316498 0.316498
0.378998 0.378998 0.378998
0.476562 0.476562 0.476562
0.598755 0.598755 0.598755
0.663300 0.663300 0.663300
0.782959 0.782959 0.782959
0.912170 0.912170 0.912170
0.338379 0.338379 0.338379
0.357422 0.357422 0.357422
0.415741 0.415741 0.415741
0.506561 0.506561 0.506561
0.617889 0.617889 0.617889
0.772247 0.772247 0.772247
0.874176 0.874176 0.874176
0.947632 0.947632 0.947632
0.399933 0.399933 0.399933
0.417297 0.417297 0.417297
0.470154 0.470154 0.470154
0.562256 0.562256 0.562256
0.689453 0.689453 0.689453
0.839264 0.839264 0.839264
0.812317 0.812317 0.812317
0.941681 0.941681 0.941681
0.531525 0.531525 0.531525
0.545715 0.545715 0.545715
0.595703 0.595703 0.595703
0.686066 0.686066 0.686066
0.810638 0.810638 0.810638
0.908478 0.908478 0.908478
0.938263 0.938263 0.938263
0.859314 0.859314 0.859314
0.236420 0.236420 0.236420
0.252869 0.252869 0.252869
0.300110 0.300110 0.300110
0.378204 0.378204 0.378204
0.477875 0.477875 0.477875
0.567291 0.567291 0.567291
0.609253 0.609253 0.609253
0.774414 0.774414 0.774414
0.249451 0.249451 0.249451
0.264130 0.264130 0.264130
0.307861 0.307861 0.307861
0.380066 0.380066 0.380066
0.473816 0.473816 0.473816
0.559662 0.559662 0.559662
0.598083 0.598083 0.598083
0.754852 0.754852 0.754852
0.308807 0.308807 0.308807
0.319763 0.319763 0.319763
0.356476 0.356476 0.356476
0.421539 0.421539 0.421539
0.505524 0.505524 0.505524
0.594360 0.594360 0.594360
0.636414 0.636414 0.636414
0.798096 0.798096 0.798096
0.339752 0.339752 0.339752
0.362122 0.362122 0.362122
0.423431 0.423431 0.423431
0.483521 0.483521 0.483521
0.560486 0.560486 0.560486
0.658813 0.658813 0.658813
0.703766 0.703766 0.703766
0.845642 0.845642 0.845642
0.332581 0.332581 0.332581
0.346039 0.346039 0.346039
0.394714 0.394714 0.394714
0.496307 0.496307 0.496307
0.602539 0.602539 0.602539
0.695953 0.695953 0.695953
0.755890 0.755890 0.755890
0.882294 0.882294 0.882294
0.365784 0.365784 0.365784
0.380371 0.380371 0.380371
0.429504 0.429504 0.429504
0.509552 0.509552 0.509552
0.614990 0.614990 0.614990
0.782257 0.782257 0.782257
0.853333 0.853333 0.853333
0.931580 0.931580 0.931580
0.417847 0.417847 0.417847
0.433472 0.433472 0.433472
0.480957 0.480957 0.480957
0.558258 0.558258 0.558258
0.663727 0.663727 0.663727
0.807068 0.807068 0.807068
0.923584 0.923584 0.923584
0.967804 0.967804 0.967804
0.474335 0.474335 0.474335
0.487091 0.487091 0.487091
0.539368 0.539368 0.539368
0.616364 0.616364 0.616364
0.737061 0.737061 0.737061
0.877655 0.877655 0.877655
0.956696 0.956696 0.956696
0.944580 0.944580 0.944580
0.302734 0.302734 0.302734
0.316437 0.316437 0.316437
0.356140 0.356140 0.356140
0.428864 0.428864 0.428864
0.523132 0.523132 0.523132
0.631622 0.631622 0.631622
0.717865 0.717865 0.717865
0.762421 0.762421 0.762421
0.310638 0.310638 0.310638
0.323700 0.323700 0.323700
0.362518 0.362518 0.362518
0.431061 0.431061 0.431061
0.522797 0.522797 0.522797
0.628815 0.628815 0.628815
0.712585 0.712585 0.712585
0.756287 0.756287 0.756287
0.343506 0.343506 0.343506
0.354614 0.354614 0.354614
0.387756 0.387756 0.387756
0.458527 0.458527 0.458527
0.542938 0.542938 0.542938
0.641449 0.641449 0.641449
0.730682 0.730682 0.730682
0.773987 0.773987 0.773987
0.390015 0.390015 0.390015
0.401245 0.401245 0.401245
0.433167 0.433167 0.433167
0.494263 0.494263 0.494263
0.575867 0.575867 0.575867
0.674683 0.674683 0.674683
0.774963 0.774963 0.774963
0.814484 0.814484 0.814484
0.347534 0.347534 0.347534
0.364532 0.364532 0.364532
0.417389 0.417389 0.417389
0.525269 0.525269 0.525269
0.601807 0.601807 0.601807
0.701477 0.701477 0.701477
0.819183 0.819183 0.819183
0.861145 0.861145 0.861145
0.361176 0.361176 0.361176
0.370911 0.370911 0.370911
0.405823 0.405823 0.405823
0.467255 0.467255 0.467255
0.586945 0.586945 0.586945
0.755493 0.755493 0.755493
0.875336 0.875336 0.875336
0.922546 0.922546 0.922546
0.406799 0.406799 0.406799
0.416687 0.416687 0.416687
0.451599 0.451599 0.451599
0.515778 0.515778 0.515778
0.612183 0.612183 0.612183
0.764618 0.764618 0.764618
0.922363 0.922363 0.922363
0.955902 0.955902 0.955902
0.478027 0.478027 0.478027
0.487762 0.487762 0.487762
0.524506 0.524506 0.524506
0.593842 0.593842 0.593842
0.702728 0.702728 0.702728
0.838562 0.838562 0.838562
0.936707 0.936707 0.936707
0.982300 0.982300 0.982300
