Vakken/Crossmedia/Illu & Foto II/Les 3/Les 3/Les 3 Adjustmentlayers en Blending 2/Black and White/BW LUTS/BW Landscapes 01.cube
TITLE "Untitled"
# LUT size
# data domain
# LUT data points
# 
# Copyright: (C) Copyright 2017 ©Richard Harrington
# Created by: Adobe Photoshop Export Color Lookup Plugin
LUT_3D_SIZE 5
DOMAIN_MIN 0.000000 0.000000 0.000000
DOMAIN_MAX 0.903226 0.903226 0.903226
0.000000 0.000000 0.000000
0.140352 0.140352 0.140352
0.238267 0.238267 0.238267
0.271339 0.271339 0.271339
0.286426 0.286426 0.286426
0.105459 0.105459 0.105459
0.139497 0.139497 0.139497
0.255695 0.255695 0.255695
0.346104 0.346104 0.346104
0.387388 0.387388 0.387388
0.180335 0.180335 0.180335
0.263648 0.263648 0.263648
0.390027 0.390027 0.390027
0.501839 0.501839 0.501839
0.554680 0.554680 0.554680
0.278139 0.278139 0.278139
0.272491 0.272491 0.272491
0.487236 0.487236 0.487236
0.632232 0.632232 0.632232
0.699900 0.699900 0.699900
0.341496 0.341496 0.341496
0.347256 0.347256 0.347256
0.533499 0.533499 0.533499
0.713797 0.713797 0.713797
0.805395 0.805395 0.805395
0.046227 0.046227 0.046227
0.168853 0.168853 0.168853
0.281446 0.281446 0.281446
0.324775 0.324775 0.324775
0.339713 0.339713 0.339713
0.098138 0.098138 0.098138
0.152614 0.152614 0.152614
0.268627 0.268627 0.268627
0.368920 0.368920 0.368920
0.421203 0.421203 0.421203
0.183791 0.183791 0.183791
0.273680 0.273680 0.273680
0.400134 0.400134 0.400134
0.524469 0.524469 0.524469
0.586489 0.586489 0.586489
0.294266 0.294266 0.294266
0.297351 0.297351 0.297351
0.504849 0.504849 0.504849
0.660177 0.660177 0.660177
0.739140 0.739140 0.739140
0.365242 0.365242 0.365242
0.375944 0.375944 0.375944
0.550890 0.550890 0.550890
0.742671 0.742671 0.742671
0.841440 0.841440 0.841440
0.092491 0.092491 0.092491
0.189476 0.189476 0.189476
0.294453 0.294453 0.294453
0.337074 0.337074 0.337074
0.345733 0.345733 0.345733
0.125451 0.125451 0.125451
0.195051 0.195051 0.195051
0.308424 0.308424 0.308424
0.406452 0.406452 0.406452
0.460184 0.460184 0.460184
0.217421 0.217421 0.217421
0.305265 0.305265 0.305265
0.437887 0.437887 0.437887
0.561071 0.561071 0.561071
0.626659 0.626659 0.626659
0.335960 0.335960 0.335960
0.342313 0.342313 0.342313
0.540671 0.540671 0.540671
0.697967 0.697967 0.697967
0.780275 0.780275 0.780275
0.410092 0.410092 0.410092
0.423768 0.423768 0.423768
0.578277 0.578277 0.578277
0.780722 0.780722 0.780722
0.881387 0.881387 0.881387
0.121289 0.121289 0.121289
0.196425 0.196425 0.196425
0.278809 0.278809 0.278809
0.306937 0.306937 0.306937
0.313553 0.313553 0.313553
0.173573 0.173573 0.173573
0.234477 0.234477 0.234477
0.338264 0.338264 0.338264
0.424994 0.424994 0.424994
0.474676 0.474676 0.474676
0.246888 0.246888 0.246888
0.346772 0.346772 0.346772
0.474825 0.474825 0.474825
0.585931 0.585931 0.585931
0.649176 0.649176 0.649176
0.376241 0.376241 0.376241
0.380922 0.380922 0.380922
0.580581 0.580581 0.580581
0.727733 0.727733 0.727733
0.806844 0.806844 0.806844
0.455538 0.455538 0.455538
0.468210 0.468210 0.468210
0.617331 0.617331 0.617331
0.813125 0.813125 0.813125
0.910073 0.910073 0.910073
0.143956 0.143956 0.143956
0.201590 0.201590 0.201590
0.257776 0.257776 0.257776
0.286946 0.286946 0.286946
0.323474 0.323474 0.323474
0.217606 0.217606 0.217606
0.269630 0.269630 0.269630
0.359854 0.359854 0.359854
0.433950 0.433950 0.433950
0.478168 0.478168 0.478168
0.276838 0.276838 0.276838
0.397087 0.397087 0.397087
0.508231 0.508231 0.508231
0.603025 0.603025 0.603025
0.660845 0.660845 0.660845
0.400729 0.400729 0.400729
0.404704 0.404704 0.404704
0.622385 0.622385 0.622385
0.751292 0.751292 0.751292
0.823381 0.823381 0.823381
0.488424 0.488424 0.488424
0.497194 0.497194 0.497194
0.670878 0.670878 0.670878
0.841180 0.841180 0.841180
0.929843 0.929843 0.929843
