Vakken/Crossmedia/Illu & Foto II/Les 3/Les 3/Les 3 Adjustmentlayers en Blending 2/Black and White/BW LUTS/BW Landscapes 02.cube
#Created by: Adobe Photoshop Export Color Lookup Plugin
#Copyright: (C) Copyright 2017 ©Richard Harrington
TITLE "Untitled"
#LUT size
LUT_3D_SIZE 8
#data domain
#LUT data points
DOMAIN_MIN 0.000000 0.000000 0.000000
DOMAIN_MAX 0.903226 0.903226 0.903226
0.060181 0.060181 0.060181
0.105927 0.105927 0.105927
0.199219 0.199219 0.199219
0.277802 0.277802 0.277802
0.334595 0.334595 0.334595
0.378723 0.378723 0.378723
0.414185 0.414185 0.414185
0.438477 0.438477 0.438477
0.094147 0.094147 0.094147
0.101074 0.101074 0.101074
0.134857 0.134857 0.134857
0.204468 0.204468 0.204468
0.287903 0.287903 0.287903
0.348114 0.348114 0.348114
0.396393 0.396393 0.396393
0.440125 0.440125 0.440125
0.180786 0.180786 0.180786
0.155426 0.155426 0.155426
0.183380 0.183380 0.183380
0.237976 0.237976 0.237976
0.309052 0.309052 0.309052
0.370331 0.370331 0.370331
0.423889 0.423889 0.423889
0.467865 0.467865 0.467865
0.284515 0.284515 0.284515
0.265656 0.265656 0.265656
0.252350 0.252350 0.252350
0.296539 0.296539 0.296539
0.364594 0.364594 0.364594
0.426422 0.426422 0.426422
0.481354 0.481354 0.481354
0.527069 0.527069 0.527069
0.364624 0.364624 0.364624
0.350250 0.350250 0.350250
0.343323 0.343323 0.343323
0.347656 0.347656 0.347656
0.413940 0.413940 0.413940
0.489288 0.489288 0.489288
0.545898 0.545898 0.545898
0.600006 0.600006 0.600006
0.426239 0.426239 0.426239
0.418640 0.418640 0.418640
0.419189 0.419189 0.419189
0.419037 0.419037 0.419037
0.456482 0.456482 0.456482
0.538361 0.538361 0.538361
0.602844 0.602844 0.602844
0.662292 0.662292 0.662292
0.475372 0.475372 0.475372
0.474518 0.474518 0.474518
0.478485 0.478485 0.478485
0.484680 0.484680 0.484680
0.500488 0.500488 0.500488
0.572174 0.572174 0.572174
0.645142 0.645142 0.645142
0.716644 0.716644 0.716644
0.520081 0.520081 0.520081
0.517731 0.517731 0.517731
0.525513 0.525513 0.525513
0.541321 0.541321 0.541321
0.561584 0.561584 0.561584
0.617371 0.617371 0.617371
0.679474 0.679474 0.679474
0.745209 0.745209 0.745209
0.110077 0.110077 0.110077
0.181061 0.181061 0.181061
0.259033 0.259033 0.259033
0.325623 0.325623 0.325623
0.374573 0.374573 0.374573
0.418365 0.418365 0.418365
0.454620 0.454620 0.454620
0.481598 0.481598 0.481598
0.106995 0.106995 0.106995
0.125275 0.125275 0.125275
0.162842 0.162842 0.162842
0.229492 0.229492 0.229492
0.307343 0.307343 0.307343
0.364685 0.364685 0.364685
0.416779 0.416779 0.416779
0.463928 0.463928 0.463928
0.174896 0.174896 0.174896
0.173248 0.173248 0.173248
0.202362 0.202362 0.202362
0.254822 0.254822 0.254822
0.324005 0.324005 0.324005
0.384644 0.384644 0.384644
0.439087 0.439087 0.439087
0.485291 0.485291 0.485291
0.269012 0.269012 0.269012
0.272552 0.272552 0.272552
0.270721 0.270721 0.270721
0.308716 0.308716 0.308716
0.373352 0.373352 0.373352
0.437012 0.437012 0.437012
0.491730 0.491730 0.491730
0.542847 0.542847 0.542847
0.361969 0.361969 0.361969
0.353943 0.353943 0.353943
0.363342 0.363342 0.363342
0.364166 0.364166 0.364166
0.426392 0.426392 0.426392
0.498291 0.498291 0.498291
0.553833 0.553833 0.553833
0.610992 0.610992 0.610992
0.431946 0.431946 0.431946
0.429993 0.429993 0.429993
0.436890 0.436890 0.436890
0.443054 0.443054 0.443054
0.472321 0.472321 0.472321
0.543488 0.543488 0.543488
0.611359 0.611359 0.611359
0.672760 0.672760 0.672760
0.487000 0.487000 0.487000
0.490875 0.490875 0.490875
0.494598 0.494598 0.494598
0.506622 0.506622 0.506622
0.516663 0.516663 0.516663
0.584686 0.584686 0.584686
0.653076 0.653076 0.653076
0.725647 0.725647 0.725647
0.530731 0.530731 0.530731
0.537415 0.537415 0.537415
0.547272 0.547272 0.547272
0.567749 0.567749 0.567749
0.585083 0.585083 0.585083
0.629791 0.629791 0.629791
0.689056 0.689056 0.689056
0.749542 0.749542 0.749542
0.221161 0.221161 0.221161
0.274811 0.274811 0.274811
0.327026 0.327026 0.327026
0.402771 0.402771 0.402771
0.452271 0.452271 0.452271
0.495697 0.495697 0.495697
0.525879 0.525879 0.525879
0.551453 0.551453 0.551453
0.142242 0.142242 0.142242
0.182312 0.182312 0.182312
0.225616 0.225616 0.225616
0.294800 0.294800 0.294800
0.369446 0.369446 0.369446
0.425262 0.425262 0.425262
0.473663 0.473663 0.473663
0.514435 0.514435 0.514435
0.190125 0.190125 0.190125
0.218262 0.218262 0.218262
0.259521 0.259521 0.259521
0.308716 0.308716 0.308716
0.373474 0.373474 0.373474
0.433899 0.433899 0.433899
0.484589 0.484589 0.484589
0.529236 0.529236 0.529236
0.280762 0.280762 0.280762
0.288452 0.288452 0.288452
0.328674 0.328674 0.328674
0.354858 0.354858 0.354858
0.412750 0.412750 0.412750
0.474304 0.474304 0.474304
0.524048 0.524048 0.524048
0.574188 0.574188 0.574188
0.371674 0.371674 0.371674
0.368317 0.368317 0.368317
0.396454 0.396454 0.396454
0.410980 0.410980 0.410980
0.459412 0.459412 0.459412
0.527161 0.527161 0.527161
0.581268 0.581268 0.581268
0.637054 0.637054 0.637054
0.445648 0.445648 0.445648
0.444794 0.444794 0.444794
0.449585 0.449585 0.449585
0.482239 0.482239 0.482239
0.503113 0.503113 0.503113
0.570923 0.570923 0.570923
0.635345 0.635345 0.635345
0.695496 0.695496 0.695496
0.503754 0.503754 0.503754
0.505615 0.505615 0.505615
0.510681 0.510681 0.510681
0.545685 0.545685 0.545685
0.559570 0.559570 0.559570
0.611908 0.611908 0.611908
0.671997 0.671997 0.671997
0.745514 0.745514 0.745514
0.550751 0.550751 0.550751
0.555023 0.555023 0.555023
0.566559 0.566559 0.566559
0.589020 0.589020 0.589020
0.623657 0.623657 0.623657
0.656525 0.656525 0.656525
0.714935 0.714935 0.714935
0.766785 0.766785 0.766785
0.324066 0.324066 0.324066
0.363251 0.363251 0.363251
0.407562 0.407562 0.407562
0.445740 0.445740 0.445740
0.521210 0.521210 0.521210
0.567200 0.567200 0.567200
0.596436 0.596436 0.596436
0.624634 0.624634 0.624634
0.229919 0.229919 0.229919
0.268250 0.268250 0.268250
0.308014 0.308014 0.308014
0.354462 0.354462 0.354462
0.435730 0.435730 0.435730
0.493652 0.493652 0.493652
0.543671 0.543671 0.543671
0.582458 0.582458 0.582458
0.233887 0.233887 0.233887
0.280853 0.280853 0.280853
0.332489 0.332489 0.332489
0.373138 0.373138 0.373138
0.442688 0.442688 0.442688
0.500000 0.500000 0.500000
0.548126 0.548126 0.548126
0.589844 0.589844 0.589844
0.310150 0.310150 0.310150
0.317139 0.317139 0.317139
0.364166 0.364166 0.364166
0.432404 0.432404 0.432404
0.482941 0.482941 0.482941
0.535919 0.535919 0.535919
0.579803 0.579803 0.579803
0.622375 0.622375 0.622375
0.397461 0.397461 0.397461
0.399750 0.399750 0.399750
0.422089 0.422089 0.422089
0.480927 0.480927 0.480927
0.524872 0.524872 0.524872
0.580780 0.580780 0.580780
0.628357 0.628357 0.628357
0.674988 0.674988 0.674988
0.469971 0.469971 0.469971
0.473602 0.473602 0.473602
0.476868 0.476868 0.476868
0.527679 0.527679 0.527679
0.564697 0.564697 0.564697
0.617706 0.617706 0.617706
0.671753 0.671753 0.671753
0.724335 0.724335 0.724335
0.529572 0.529572 0.529572
0.532379 0.532379 0.532379
0.540009 0.540009 0.540009
0.571747 0.571747 0.571747
0.624268 0.624268 0.624268
0.655029 0.655029 0.655029
0.707733 0.707733 0.707733
0.769928 0.769928 0.769928
0.578705 0.578705 0.578705
0.583527 0.583527 0.583527
0.597260 0.597260 0.597260
0.617737 0.617737 0.617737
0.674164 0.674164 0.674164
0.692657 0.692657 0.692657
0.747253 0.747253 0.747253
0.793030 0.793030 0.793030
0.391663 0.391663 0.391663
0.427338 0.427338 0.427338
0.470856 0.470856 0.470856
0.499878 0.499878 0.499878
0.539917 0.539917 0.539917
0.605164 0.605164 0.605164
0.648041 0.648041 0.648041
0.677795 0.677795 0.677795
0.326324 0.326324 0.326324
0.353302 0.353302 0.353302
0.388733 0.388733 0.388733
0.433533 0.433533 0.433533
0.473724 0.473724 0.473724
0.548767 0.548767 0.548767
0.606476 0.606476 0.606476
0.644684 0.644684 0.644684
0.329285 0.329285 0.329285
0.376434 0.376434 0.376434
0.404236 0.404236 0.404236
0.445831 0.445831 0.445831
0.484863 0.484863 0.484863
0.560883 0.560883 0.560883
0.609802 0.609802 0.609802
0.650238 0.650238 0.650238
0.357880 0.357880 0.357880
0.380188 0.380188 0.380188
0.426727 0.426727 0.426727
0.491455 0.491455 0.491455
0.530060 0.530060 0.530060
0.595306 0.595306 0.595306
0.636414 0.636414 0.636414
0.676392 0.676392 0.676392
0.430145 0.430145 0.430145
0.423309 0.423309 0.423309
0.442322 0.442322 0.442322
0.508270 0.508270 0.508270
0.588959 0.588959 0.588959
0.636139 0.636139 0.636139
0.673462 0.673462 0.673462
0.712494 0.712494 0.712494
0.504547 0.504547 0.504547
0.507233 0.507233 0.507233
0.515564 0.515564 0.515564
0.556793 0.556793 0.556793
0.629242 0.629242 0.629242
0.671661 0.671661 0.671661
0.714111 0.714111 0.714111
0.760712 0.760712 0.760712
0.561035 0.561035 0.561035
0.564850 0.564850 0.564850
0.576019 0.576019 0.576019
0.599670 0.599670 0.599670
0.668701 0.668701 0.668701
0.702820 0.702820 0.702820
0.750031 0.750031 0.750031
0.803833 0.803833 0.803833
0.608521 0.608521 0.608521
0.617310 0.617310 0.617310
0.631073 0.631073 0.631073
0.646271 0.646271 0.646271
0.703857 0.703857 0.703857
0.749603 0.749603 0.749603
0.787445 0.787445 0.787445
0.831635 0.831635 0.831635
0.455841 0.455841 0.455841
0.484802 0.484802 0.484802
0.523560 0.523560 0.523560
0.560944 0.560944 0.560944
0.574341 0.574341 0.574341
0.618561 0.618561 0.618561
0.662231 0.662231 0.662231
0.700500 0.700500 0.700500
0.397919 0.397919 0.397919
0.420227 0.420227 0.420227
0.451538 0.451538 0.451538
0.497894 0.497894 0.497894
0.526428 0.526428 0.526428
0.572784 0.572784 0.572784
0.637299 0.637299 0.637299
0.683502 0.683502 0.683502
0.423431 0.423431 0.423431
0.442474 0.442474 0.442474
0.466888 0.466888 0.466888
0.504974 0.504974 0.504974
0.536896 0.536896 0.536896
0.582520 0.582520 0.582520
0.642151 0.642151 0.642151
0.692017 0.692017 0.692017
0.435822 0.435822 0.435822
0.457581 0.457581 0.457581
0.501678 0.501678 0.501678
0.546722 0.546722 0.546722
0.583374 0.583374 0.583374
0.622040 0.622040 0.622040
0.675507 0.675507 0.675507
0.722015 0.722015 0.722015
0.473877 0.473877 0.473877
0.486115 0.486115 0.486115
0.512177 0.512177 0.512177
0.569366 0.569366 0.569366
0.637756 0.637756 0.637756
0.672119 0.672119 0.672119
0.718628 0.718628 0.718628
0.759735 0.759735 0.759735
0.526855 0.526855 0.526855
0.525848 0.525848 0.525848
0.532410 0.532410 0.532410
0.581268 0.581268 0.581268
0.654358 0.654358 0.654358
0.719360 0.719360 0.719360
0.756989 0.756989 0.756989
0.794739 0.794739 0.794739
0.595428 0.595428 0.595428
0.599640 0.599640 0.599640
0.603241 0.603241 0.603241
0.622894 0.622894 0.622894
0.695343 0.695343 0.695343
0.761505 0.761505 0.761505
0.797546 0.797546 0.797546
0.836456 0.836456 0.836456
0.643188 0.643188 0.643188
0.651794 0.651794 0.651794
0.663910 0.663910 0.663910
0.675415 0.675415 0.675415
0.730804 0.730804 0.730804
0.798706 0.798706 0.798706
0.827820 0.827820 0.827820
0.865662 0.865662 0.865662
0.505341 0.505341 0.505341
0.532196 0.532196 0.532196
0.569458 0.569458 0.569458
0.606140 0.606140 0.606140
0.622131 0.622131 0.622131
0.634216 0.634216 0.634216
0.672180 0.672180 0.672180
0.710571 0.710571 0.710571
0.465302 0.465302 0.465302
0.486389 0.486389 0.486389
0.514618 0.514618 0.514618
0.557861 0.557861 0.557861
0.589417 0.589417 0.589417
0.604584 0.604584 0.604584
0.652771 0.652771 0.652771
0.691223 0.691223 0.691223
0.483978 0.483978 0.483978
0.502441 0.502441 0.502441
0.528473 0.528473 0.528473
0.564941 0.564941 0.564941
0.603180 0.603180 0.603180
0.618469 0.618469 0.618469
0.656250 0.656250 0.656250
0.706421 0.706421 0.706421
0.499023 0.499023 0.499023
0.530457 0.530457 0.530457
0.572449 0.572449 0.572449
0.603790 0.603790 0.603790
0.641357 0.641357 0.641357
0.657898 0.657898 0.657898
0.690002 0.690002 0.690002
0.743958 0.743958 0.743958
0.535614 0.535614 0.535614
0.546936 0.546936 0.546936
0.577789 0.577789 0.577789
0.629150 0.629150 0.629150
0.683014 0.683014 0.683014
0.709991 0.709991 0.709991
0.737885 0.737885 0.737885
0.793518 0.793518 0.793518
0.568054 0.568054 0.568054
0.578430 0.578430 0.578430
0.591827 0.591827 0.591827
0.638092 0.638092 0.638092
0.697418 0.697418 0.697418
0.755829 0.755829 0.755829
0.787537 0.787537 0.787537
0.837952 0.837952 0.837952
0.604218 0.604218 0.604218
0.609558 0.609558 0.609558
0.617798 0.617798 0.617798
0.645050 0.645050 0.645050
0.707703 0.707703 0.707703
0.777588 0.777588 0.777588
0.836700 0.836700 0.836700
0.868866 0.868866 0.868866
0.665100 0.665100 0.665100
0.669891 0.669891 0.669891
0.674164 0.674164 0.674164
0.683350 0.683350 0.683350
0.747284 0.747284 0.747284
0.819000 0.819000 0.819000
0.872681 0.872681 0.872681
0.903351 0.903351 0.903351
0.555481 0.555481 0.555481
0.578217 0.578217 0.578217
0.607727 0.607727 0.607727
0.638794 0.638794 0.638794
0.654602 0.654602 0.654602
0.663208 0.663208 0.663208
0.676147 0.676147 0.676147
0.712982 0.712982 0.712982
0.518890 0.518890 0.518890
0.539032 0.539032 0.539032
0.567810 0.567810 0.567810
0.602722 0.602722 0.602722
0.636261 0.636261 0.636261
0.652344 0.652344 0.652344
0.664856 0.664856 0.664856
0.701813 0.701813 0.701813
0.539368 0.539368 0.539368
0.556488 0.556488 0.556488
0.579468 0.579468 0.579468
0.611694 0.611694 0.611694
0.644775 0.644775 0.644775
0.661896 0.661896 0.661896
0.673126 0.673126 0.673126
0.713135 0.713135 0.713135
0.577454 0.577454 0.577454
0.602386 0.602386 0.602386
0.622375 0.622375 0.622375
0.649353 0.649353 0.649353
0.681335 0.681335 0.681335
0.697266 0.697266 0.697266
0.702301 0.702301 0.702301
0.747894 0.747894 0.747894
0.599457 0.599457 0.599457
0.608643 0.608643 0.608643
0.636261 0.636261 0.636261
0.686096 0.686096 0.686096
0.716522 0.716522 0.716522
0.744507 0.744507 0.744507
0.755035 0.755035 0.755035
0.802216 0.802216 0.802216
0.625397 0.625397 0.625397
0.634888 0.634888 0.634888
0.648682 0.648682 0.648682
0.687317 0.687317 0.687317
0.740295 0.740295 0.740295
0.789215 0.789215 0.789215
0.810394 0.810394 0.810394
0.850922 0.850922 0.850922
0.649811 0.649811 0.649811
0.659515 0.659515 0.659515
0.672394 0.672394 0.672394
0.696106 0.696106 0.696106
0.750092 0.750092 0.750092
0.814850 0.814850 0.814850
0.865723 0.865723 0.865723
0.894928 0.894928 0.894928
0.671783 0.671783 0.671783
0.677887 0.677887 0.677887
0.686188 0.686188 0.686188
0.705017 0.705017 0.705017
0.765686 0.765686 0.765686
0.829346 0.829346 0.829346
0.892120 0.892120 0.892120
0.935944 0.935944 0.935944
