Vakken/Crossmedia/Illu & Foto II/Les 3/Les 3/Les 3 Adjustmentlayers en Blending 2/Black and White/BW LUTS/BW Landscapes 04.cube
#Created by: Adobe Photoshop Export Color Lookup Plugin
#Copyright: (C) Copyright 2017 ©Richard Harrington
TITLE "LUT_Build.psd"
#LUT size
LUT_3D_SIZE 5
#data domain
#LUT data points
DOMAIN_MIN 0.000000 0.000000 0.000000
DOMAIN_MAX 0.903226 0.903226 0.903226
0.187347 0.187347 0.187347
0.536041 0.536041 0.536041
0.824127 0.824127 0.824127
0.895966 0.895966 0.895966
0.930145 0.930145 0.930145
0.259735 0.259735 0.259735
0.385223 0.385223 0.385223
0.754211 0.754211 0.754211
0.897949 0.897949 0.897949
0.952454 0.952454 0.952454
0.382751 0.382751 0.382751
0.491302 0.491302 0.491302
0.776978 0.776978 0.776978
0.971405 0.971405 0.971405
0.999634 0.999634 0.999634
0.565826 0.565826 0.565826
0.538757 0.538757 0.538757
0.869812 0.869812 0.869812
0.965118 0.965118 0.965118
1.000000 1.000000 1.000000
0.681580 0.681580 0.681580
0.691406 0.691406 0.691406
0.866882 0.866882 0.866882
0.990814 0.990814 0.990814
1.000000 1.000000 1.000000
0.243530 0.243530 0.243530
0.287720 0.287720 0.287720
0.660431 0.660431 0.660431
0.820374 0.820374 0.820374
0.893524 0.893524 0.893524
0.158417 0.158417 0.158417
0.326843 0.326843 0.326843
0.632050 0.632050 0.632050
0.848938 0.848938 0.848938
0.928406 0.928406 0.928406
0.267365 0.267365 0.267365
0.381989 0.381989 0.381989
0.741364 0.741364 0.741364
0.953491 0.953491 0.953491
0.993256 0.993256 0.993256
0.486877 0.486877 0.486877
0.423004 0.423004 0.423004
0.823975 0.823975 0.823975
0.952240 0.952240 0.952240
1.000000 1.000000 1.000000
0.632751 0.632751 0.632751
0.583954 0.583954 0.583954
0.814209 0.814209 0.814209
0.988434 0.988434 0.988434
1.000000 1.000000 1.000000
0.377960 0.377960 0.377960
0.218719 0.218719 0.218719
0.415741 0.415741 0.415741
0.733765 0.733765 0.733765
0.838379 0.838379 0.838379
0.460815 0.460815 0.460815
0.381805 0.381805 0.381805
0.410095 0.410095 0.410095
0.711029 0.711029 0.711029
0.847961 0.847961 0.847961
0.141052 0.141052 0.141052
0.258484 0.258484 0.258484
0.644257 0.644257 0.644257
0.845551 0.845551 0.845551
0.938141 0.938141 0.938141
0.240448 0.240448 0.240448
0.198029 0.198029 0.198029
0.555359 0.555359 0.555359
0.931396 0.931396 0.931396
1.000000 1.000000 1.000000
0.311340 0.311340 0.311340
0.256805 0.256805 0.256805
0.355072 0.355072 0.355072
0.983337 0.983337 0.983337
1.000000 1.000000 1.000000
0.451263 0.451263 0.451263
0.262360 0.262360 0.262360
0.233459 0.233459 0.233459
0.493652 0.493652 0.493652
0.729553 0.729553 0.729553
0.570923 0.570923 0.570923
0.492035 0.492035 0.492035
0.263123 0.263123 0.263123
0.511627 0.511627 0.511627
0.773682 0.773682 0.773682
0.604401 0.604401 0.604401
0.727203 0.727203 0.727203
0.706665 0.706665 0.706665
0.723236 0.723236 0.723236
0.878937 0.878937 0.878937
0.201141 0.201141 0.201141
0.258240 0.258240 0.258240
0.500763 0.500763 0.500763
0.884644 0.884644 0.884644
0.959961 0.959961 0.959961
0.096405 0.096405 0.096405
0.070984 0.070984 0.070984
0.080719 0.080719 0.080719
0.897125 0.897125 0.897125
1.000000 1.000000 1.000000
0.488312 0.488312 0.488312
0.268555 0.268555 0.268555
0.167969 0.167969 0.167969
0.316589 0.316589 0.316589
0.535461 0.535461 0.535461
0.646362 0.646362 0.646362
0.555298 0.555298 0.555298
0.260376 0.260376 0.260376
0.308990 0.308990 0.308990
0.575500 0.575500 0.575500
0.865753 0.865753 0.865753
0.865173 0.865173 0.865173
0.742157 0.742157 0.742157
0.422913 0.422913 0.422913
0.764709 0.764709 0.764709
0.603333 0.603333 0.603333
0.703033 0.703033 0.703033
0.882233 0.882233 0.882233
0.871368 0.871368 0.871368
0.918121 0.918121 0.918121
0.189423 0.189423 0.189423
0.216736 0.216736 0.216736
0.294556 0.294556 0.294556
0.800812 0.800812 0.800812
0.995911 0.995911 0.995911
