Vakken/Crossmedia/Illu & Foto II/Les 3/Les 3/Les 3 Adjustmentlayers en Blending 2/Black and White/BW LUTS/BW Landscapes 01.cube
TITLE "Untitled"
# LUT size
# data domain
# LUT data points
# 
# Copyright: (C) Copyright 2017 ©Richard Harrington
# Created by: Adobe Photoshop Export Color Lookup Plugin
LUT_3D_SIZE 32
DOMAIN_MIN 0.000000 0.000000 0.000000
DOMAIN_MAX 1.000000 1.000000 1.000000
0.000000 0.000000 0.000000
0.011111 0.011111 0.011111
0.026792 0.026792 0.026792
0.048048 0.048048 0.048048
0.070715 0.070715 0.070715
0.093569 0.093569 0.093569
0.117796 0.117796 0.117796
0.140352 0.140352 0.140352
0.161125 0.161125 0.161125
0.179890 0.179890 0.179890
0.196500 0.196500 0.196500
0.210918 0.210918 0.210918
0.220839 0.220839 0.220839
0.229869 0.229869 0.229869
0.238267 0.238267 0.238267
0.245810 0.245810 0.245810
0.252053 0.252053 0.252053
0.256809 0.256809 0.256809
0.260786 0.260786 0.260786
0.264575 0.264575 0.264575
0.268107 0.268107 0.268107
0.271339 0.271339 0.271339
0.274386 0.274386 0.274386
0.276987 0.276987 0.276987
0.279106 0.279106 0.279106
0.281000 0.281000 0.281000
0.282748 0.282748 0.282748
0.284568 0.284568 0.284568
0.286426 0.286426 0.286426
0.288766 0.288766 0.288766
0.291034 0.291034 0.291034
0.293189 0.293189 0.293189
0.008547 0.008547 0.008547
0.008472 0.008472 0.008472
0.018134 0.018134 0.018134
0.031957 0.031957 0.031957
0.044517 0.044517 0.044517
0.062874 0.062874 0.062874
0.080487 0.080487 0.080487
0.097618 0.097618 0.097618
0.117387 0.117387 0.117387
0.135818 0.135818 0.135818
0.156405 0.156405 0.156405
0.174241 0.174241 0.174241
0.192524 0.192524 0.192524
0.207239 0.207239 0.207239
0.219539 0.219539 0.219539
0.232618 0.232618 0.232618
0.241277 0.241277 0.241277
0.248708 0.248708 0.248708
0.257516 0.257516 0.257516
0.263313 0.263313 0.263313
0.269369 0.269369 0.269369
0.274609 0.274609 0.274609
0.278919 0.278919 0.278919
0.283416 0.283416 0.283416
0.287689 0.287689 0.287689
0.290737 0.290737 0.290737
0.294118 0.294118 0.294118
0.296608 0.296608 0.296608
0.298912 0.298912 0.298912
0.301810 0.301810 0.301810
0.304597 0.304597 0.304597
0.307198 0.307198 0.307198
0.021441 0.021441 0.021441
0.020252 0.020252 0.020252
0.022110 0.022110 0.022110
0.029950 0.029950 0.029950
0.040653 0.040653 0.040653
0.052507 0.052507 0.052507
0.065327 0.065327 0.065327
0.079819 0.079819 0.079819
0.095500 0.095500 0.095500
0.112966 0.112966 0.112966
0.133143 0.133143 0.133143
0.154621 0.154621 0.154621
0.174464 0.174464 0.174464
0.193341 0.193341 0.193341
0.211289 0.211289 0.211289
0.225968 0.225968 0.225968
0.238044 0.238044 0.238044
0.247705 0.247705 0.247705
0.257070 0.257070 0.257070
0.266062 0.266062 0.266062
0.273643 0.273643 0.273643
0.279886 0.279886 0.279886
0.285311 0.285311 0.285311
0.290514 0.290514 0.290514
0.295753 0.295753 0.295753
0.300881 0.300881 0.300881
0.305191 0.305191 0.305191
0.308907 0.308907 0.308907
0.311880 0.311880 0.311880
0.314927 0.314927 0.314927
0.318012 0.318012 0.318012
0.321207 0.321207 0.321207
0.037048 0.037048 0.037048
0.035005 0.035005 0.035005
0.036045 0.036045 0.036045
0.040393 0.040393 0.040393
0.050426 0.050426 0.050426
0.061610 0.061610 0.061610
0.074282 0.074282 0.074282
0.087920 0.087920 0.087920
0.102338 0.102338 0.102338
0.117573 0.117573 0.117573
0.136934 0.136934 0.136934
0.157816 0.157816 0.157816
0.178144 0.178144 0.178144
0.197280 0.197280 0.197280
0.215637 0.215637 0.215637
0.232433 0.232433 0.232433
0.245885 0.245885 0.245885
0.256735 0.256735 0.256735
0.266285 0.266285 0.266285
0.275501 0.275501 0.275501
0.284345 0.284345 0.284345
0.291108 0.291108 0.291108
0.297202 0.297202 0.297202
0.302590 0.302590 0.302590
0.307978 0.307978 0.307978
0.313330 0.313330 0.313330
0.318494 0.318494 0.318494
0.322582 0.322582 0.322582
0.326187 0.326187 0.326187
0.329197 0.329197 0.329197
0.332244 0.332244 0.332244
0.335364 0.335364 0.335364
0.052247 0.052247 0.052247
0.048679 0.048679 0.048679
0.049200 0.049200 0.049200
0.053212 0.053212 0.053212
0.062168 0.062168 0.062168
0.073056 0.073056 0.073056
0.085356 0.085356 0.085356
0.097916 0.097916 0.097916
0.111924 0.111924 0.111924
0.126900 0.126900 0.126900
0.144439 0.144439 0.144439
0.164691 0.164691 0.164691
0.185017 0.185017 0.185017
0.204229 0.204229 0.204229
0.222735 0.222735 0.222735
0.240348 0.240348 0.240348
0.255212 0.255212 0.255212
0.267029 0.267029 0.267029
0.276653 0.276653 0.276653
0.285980 0.285980 0.285980
0.294861 0.294861 0.294861
0.302962 0.302962 0.302962
0.309205 0.309205 0.309205
0.314518 0.314518 0.314518
0.319906 0.319906 0.319906
0.325258 0.325258 0.325258
0.330460 0.330460 0.330460
0.335254 0.335254 0.335254
0.339193 0.339193 0.339193
0.342203 0.342203 0.342203
0.345249 0.345249 0.345249
0.348259 0.348259 0.348259
0.068262 0.068262 0.068262
0.064361 0.064361 0.064361
0.063617 0.063617 0.063617
0.067222 0.067222 0.067222
0.075695 0.075695 0.075695
0.085765 0.085765 0.085765
0.097730 0.097730 0.097730
0.109844 0.109844 0.109844
0.122775 0.122775 0.122775
0.137528 0.137528 0.137528
0.154175 0.154175 0.154175
0.172904 0.172904 0.172904
0.193156 0.193156 0.193156
0.212441 0.212441 0.212441
0.231021 0.231021 0.231021
0.248932 0.248932 0.248932
0.265282 0.265282 0.265282
0.278362 0.278362 0.278362
0.288210 0.288210 0.288210
0.297686 0.297686 0.297686
0.306604 0.306604 0.306604
0.315002 0.315002 0.315002
0.322471 0.322471 0.322471
0.327785 0.327785 0.327785
0.333135 0.333135 0.333135
0.338523 0.338523 0.338523
0.343726 0.343726 0.343726
0.348668 0.348668 0.348668
0.353276 0.353276 0.353276
0.356509 0.356509 0.356509
0.359555 0.359555 0.359555
0.362565 0.362565 0.362565
0.086100 0.086100 0.086100
0.081826 0.081826 0.081826
0.080748 0.080748 0.080748
0.083423 0.083423 0.083423
0.091227 0.091227 0.091227
0.100703 0.100703 0.100703
0.111814 0.111814 0.111814
0.123481 0.123481 0.123481
0.135930 0.135930 0.135930
0.149827 0.149827 0.149827
0.165620 0.165620 0.165620
0.182936 0.182936 0.182936
0.202891 0.202891 0.202891
0.222103 0.222103 0.222103
0.240980 0.240980 0.240980
0.259113 0.259113 0.259113
0.275984 0.275984 0.275984
0.291666 0.291666 0.291666
0.301661 0.301661 0.301661
0.311249 0.311249 0.311249
0.320390 0.320390 0.320390
0.329197 0.329197 0.329197
0.337074 0.337074 0.337074
0.343391 0.343391 0.343391
0.348779 0.348779 0.348779
0.354131 0.354131 0.354131
0.359519 0.359519 0.359519
0.364572 0.364572 0.364572
0.369440 0.369440 0.369440
0.373305 0.373305 0.373305
0.376538 0.376538 0.376538
0.379584 0.379584 0.379584
0.105459 0.105459 0.105459
0.100183 0.100183 0.100183
0.098584 0.098584 0.098584
0.100926 0.100926 0.100926
0.107875 0.107875 0.107875
0.116979 0.116979 0.116979
0.127904 0.127904 0.127904
0.139497 0.139497 0.139497
0.151797 0.151797 0.151797
0.165658 0.165658 0.165658
0.180596 0.180596 0.180596
0.197429 0.197429 0.197429
0.217421 0.217421 0.217421
0.236744 0.236744 0.236744
0.255695 0.255695 0.255695
0.273606 0.273606 0.273606
0.291070 0.291070 0.291070
0.307533 0.307533 0.307533
0.318606 0.318606 0.318606
0.328194 0.328194 0.328194
0.337297 0.337297 0.337297
0.346104 0.346104 0.346104
0.354502 0.354502 0.354502
0.361377 0.361377 0.361377
0.366801 0.366801 0.366801
0.372153 0.372153 0.372153
0.377318 0.377318 0.377318
0.382371 0.382371 0.382371
0.387388 0.387388 0.387388
0.391847 0.391847 0.391847
0.395192 0.395192 0.395192
0.398276 0.398276 0.398276
0.123555 0.123555 0.123555
0.119283 0.119283 0.119283
0.117425 0.117425 0.117425
0.119208 0.119208 0.119208
0.126268 0.126268 0.126268
0.134853 0.134853 0.134853
0.145591 0.145591 0.145591
0.157148 0.157148 0.157148
0.169299 0.169299 0.169299
0.183122 0.183122 0.183122
0.197726 0.197726 0.197726
0.213705 0.213705 0.213705
0.233770 0.233770 0.233770
0.253131 0.253131 0.253131
0.272305 0.272305 0.272305
0.290068 0.290068 0.290068
0.307236 0.307236 0.307236
0.324291 0.324291 0.324291
0.336219 0.336219 0.336219
0.346587 0.346587 0.346587
0.355580 0.355580 0.355580
0.364461 0.364461 0.364461
0.373156 0.373156 0.373156
0.380662 0.380662 0.380662
0.386533 0.386533 0.386533
0.391699 0.391699 0.391699
0.396715 0.396715 0.396715
0.401732 0.401732 0.401732
0.406674 0.406674 0.406674
0.411430 0.411430 0.411430
0.415480 0.415480 0.415480
0.418490 0.418490 0.418490
0.138716 0.138716 0.138716
0.135744 0.135744 0.135744
0.135261 0.135261 0.135261
0.138196 0.138196 0.138196
0.145962 0.145962 0.145962
0.155067 0.155067 0.155067
0.166140 0.166140 0.166140
0.177809 0.177809 0.177809
0.190072 0.190072 0.190072
0.202929 0.202929 0.202929
0.216900 0.216900 0.216900
0.232136 0.232136 0.232136
0.251608 0.251608 0.251608
0.270708 0.270708 0.270708
0.289770 0.289770 0.289770
0.307198 0.307198 0.307198
0.324255 0.324255 0.324255
0.341087 0.341087 0.341087
0.354614 0.354614 0.354614
0.365650 0.365650 0.365650
0.374866 0.374866 0.374866
0.383858 0.383858 0.383858
0.392702 0.392702 0.392702
0.401397 0.401397 0.401397
0.407381 0.407381 0.407381
0.412694 0.412694 0.412694
0.417748 0.417748 0.417748
0.422801 0.422801 0.422801
0.427892 0.427892 0.427892
0.432983 0.432983 0.432983
0.437442 0.437442 0.437442
0.441196 0.441196 0.441196
0.148341 0.148341 0.148341
0.148007 0.148007 0.148007
0.149047 0.149047 0.149047
0.153321 0.153321 0.153321
0.163539 0.163539 0.163539
0.173573 0.173573 0.173573
0.185426 0.185426 0.185426
0.198247 0.198247 0.198247
0.210657 0.210657 0.210657
0.223626 0.223626 0.223626
0.237635 0.237635 0.237635
0.252425 0.252425 0.252425
0.271562 0.271562 0.271562
0.290811 0.290811 0.290811
0.309911 0.309911 0.309911
0.327821 0.327821 0.327821
0.344914 0.344914 0.344914
0.361748 0.361748 0.361748
0.376761 0.376761 0.376761
0.388355 0.388355 0.388355
0.397532 0.397532 0.397532
0.406377 0.406377 0.406377
0.415221 0.415221 0.415221
0.423878 0.423878 0.423878
0.430753 0.430753 0.430753
0.436067 0.436067 0.436067
0.440935 0.440935 0.440935
0.445840 0.445840 0.445840
0.450931 0.450931 0.450931
0.456096 0.456096 0.456096
0.461075 0.461075 0.461075
0.465311 0.465311 0.465311
0.154324 0.154324 0.154324
0.155364 0.155364 0.155364
0.159229 0.159229 0.159229
0.165211 0.165211 0.165211
0.178477 0.178477 0.178477
0.190554 0.190554 0.190554
0.203671 0.203671 0.203671
0.217421 0.217421 0.217421
0.231169 0.231169 0.231169
0.244361 0.244361 0.244361
0.258557 0.258557 0.258557
0.273680 0.273680 0.273680
0.292595 0.292595 0.292595
0.311769 0.311769 0.311769
0.331314 0.331314 0.331314
0.349560 0.349560 0.349560
0.367099 0.367099 0.367099
0.384119 0.384119 0.384119
0.399948 0.399948 0.399948
0.412954 0.412954 0.412954
0.421910 0.421910 0.421910
0.430679 0.430679 0.430679
0.439374 0.439374 0.439374
0.447884 0.447884 0.447884
0.454906 0.454906 0.454906
0.460852 0.460852 0.460852
0.465610 0.465610 0.465610
0.470476 0.470476 0.470476
0.475345 0.475345 0.475345
0.480584 0.480584 0.480584
0.485713 0.485713 0.485713
0.490580 0.490580 0.490580
0.152949 0.152949 0.152949
0.155550 0.155550 0.155550
0.161199 0.161199 0.161199
0.170675 0.170675 0.170675
0.188659 0.188659 0.188659
0.204081 0.204081 0.204081
0.219428 0.219428 0.219428
0.234699 0.234699 0.234699
0.249378 0.249378 0.249378
0.263758 0.263758 0.263758
0.278474 0.278474 0.278474
0.294006 0.294006 0.294006
0.312883 0.312883 0.312883
0.332541 0.332541 0.332541
0.352570 0.352570 0.352570
0.371782 0.371782 0.371782
0.389618 0.389618 0.389618
0.407008 0.407008 0.407008
0.424139 0.424139 0.424139
0.437665 0.437665 0.437665
0.447289 0.447289 0.447289
0.456134 0.456134 0.456134
0.464866 0.464866 0.464866
0.473486 0.473486 0.473486
0.481216 0.481216 0.481216
0.487607 0.487607 0.487607
0.492624 0.492624 0.492624
0.497715 0.497715 0.497715
0.502768 0.502768 0.502768
0.508120 0.508120 0.508120
0.513396 0.513396 0.513396
0.518525 0.518525 0.518525
0.162684 0.162684 0.162684
0.160529 0.160529 0.160529
0.160975 0.160975 0.160975
0.170079 0.170079 0.170079
0.193082 0.193082 0.193082
0.215117 0.215117 0.215117
0.233028 0.233028 0.233028
0.250753 0.250753 0.250753
0.266656 0.266656 0.266656
0.281781 0.281781 0.281781
0.297239 0.297239 0.297239
0.313106 0.313106 0.313106
0.331798 0.331798 0.331798
0.351715 0.351715 0.351715
0.372041 0.372041 0.372041
0.391624 0.391624 0.391624
0.410018 0.410018 0.410018
0.427558 0.427558 0.427558
0.445023 0.445023 0.445023
0.460109 0.460109 0.460109
0.470440 0.470440 0.470440
0.479655 0.479655 0.479655
0.488611 0.488611 0.488611
0.497380 0.497380 0.497380
0.506187 0.506187 0.506187
0.513211 0.513211 0.513211
0.518561 0.518561 0.518561
0.523875 0.523875 0.523875
0.529152 0.529152 0.529152
0.534615 0.534615 0.534615
0.540113 0.540113 0.540113
0.545391 0.545391 0.545391
0.180335 0.180335 0.180335
0.174836 0.174836 0.174836
0.170711 0.170711 0.170711
0.168370 0.168370 0.168370
0.190852 0.190852 0.190852
0.218424 0.218424 0.218424
0.243804 0.243804 0.243804
0.263648 0.263648 0.263648
0.282078 0.282078 0.282078
0.298168 0.298168 0.298168
0.314147 0.314147 0.314147
0.330646 0.330646 0.330646
0.349300 0.349300 0.349300
0.369217 0.369217 0.369217
0.390027 0.390027 0.390027
0.409944 0.409944 0.409944
0.428784 0.428784 0.428784
0.446695 0.446695 0.446695
0.464346 0.464346 0.464346
0.479916 0.479916 0.479916
0.492178 0.492178 0.492178
0.501839 0.501839 0.501839
0.511092 0.511092 0.511092
0.520233 0.520233 0.520233
0.529412 0.529412 0.529412
0.537922 0.537922 0.537922
0.543643 0.543643 0.543643
0.549218 0.549218 0.549218
0.554680 0.554680 0.554680
0.560180 0.560180 0.560180
0.565717 0.565717 0.565717
0.571253 0.571253 0.571253
0.197280 0.197280 0.197280
0.192078 0.192078 0.192078
0.187953 0.187953 0.187953
0.185538 0.185538 0.185538
0.184609 0.184609 0.184609
0.212589 0.212589 0.212589
0.250047 0.250047 0.250047
0.274350 0.274350 0.274350
0.294527 0.294527 0.294527
0.312624 0.312624 0.312624
0.329791 0.329791 0.329791
0.346921 0.346921 0.346921
0.365910 0.365910 0.365910
0.386274 0.386274 0.386274
0.407269 0.407269 0.407269
0.428078 0.428078 0.428078
0.447104 0.447104 0.447104
0.465126 0.465126 0.465126
0.483036 0.483036 0.483036
0.499461 0.499461 0.499461
0.513173 0.513173 0.513173
0.523317 0.523317 0.523317
0.532756 0.532756 0.532756
0.542194 0.542194 0.542194
0.551411 0.551411 0.551411
0.560068 0.560068 0.560068
0.566720 0.566720 0.566720
0.572294 0.572294 0.572294
0.577793 0.577793 0.577793
0.583219 0.583219 0.583219
0.588756 0.588756 0.588756
0.594255 0.594255 0.594255
0.213965 0.213965 0.213965
0.209060 0.209060 0.209060
0.205084 0.205084 0.205084
0.202668 0.202668 0.202668
0.201033 0.201033 0.201033
0.208279 0.208279 0.208279
0.247297 0.247297 0.247297
0.282004 0.282004 0.282004
0.305414 0.305414 0.305414
0.324588 0.324588 0.324588
0.343391 0.343391 0.343391
0.361413 0.361413 0.361413
0.380625 0.380625 0.380625
0.401881 0.401881 0.401881
0.423248 0.423248 0.423248
0.444726 0.444726 0.444726
0.464903 0.464903 0.464903
0.483036 0.483036 0.483036
0.501506 0.501506 0.501506
0.519155 0.519155 0.519155
0.533983 0.533983 0.533983
0.544684 0.544684 0.544684
0.554421 0.554421 0.554421
0.563971 0.563971 0.563971
0.573297 0.573297 0.573297
0.582216 0.582216 0.582216
0.589350 0.589350 0.589350
0.595296 0.595296 0.595296
0.600796 0.600796 0.600796
0.606184 0.606184 0.606184
0.611721 0.611721 0.611721
0.616254 0.616254 0.616254
0.230315 0.230315 0.230315
0.225781 0.225781 0.225781
0.222103 0.222103 0.222103
0.219576 0.219576 0.219576
0.217421 0.217421 0.217421
0.223849 0.223849 0.223849
0.246108 0.246108 0.246108
0.283378 0.283378 0.283378
0.313886 0.313886 0.313886
0.334919 0.334919 0.334919
0.354948 0.354948 0.354948
0.374011 0.374011 0.374011
0.393519 0.393519 0.393519
0.415183 0.415183 0.415183
0.437702 0.437702 0.437702
0.459997 0.459997 0.459997
0.480881 0.480881 0.480881
0.500242 0.500242 0.500242
0.519155 0.519155 0.519155
0.537402 0.537402 0.537402
0.554569 0.554569 0.554569
0.565679 0.565679 0.565679
0.575712 0.575712 0.575712
0.585374 0.585374 0.585374
0.594702 0.594702 0.594702
0.603656 0.603656 0.603656
0.611534 0.611534 0.611534
0.617815 0.617815 0.617815
0.623314 0.623314 0.623314
0.628740 0.628740 0.628740
0.634276 0.634276 0.634276
0.636915 0.636915 0.636915
0.242652 0.242652 0.242652
0.239419 0.239419 0.239419
0.236372 0.236372 0.236372
0.234514 0.234514 0.234514
0.233473 0.233473 0.233473
0.231950 0.231950 0.231950
0.240460 0.240460 0.240460
0.284271 0.284271 0.284271
0.320055 0.320055 0.320055
0.344209 0.344209 0.344209
0.366171 0.366171 0.366171
0.385865 0.385865 0.385865
0.405856 0.405856 0.405856
0.428189 0.428189 0.428189
0.451043 0.451043 0.451043
0.473932 0.473932 0.473932
0.495299 0.495299 0.495299
0.515031 0.515031 0.515031
0.534280 0.534280 0.534280
0.553157 0.553157 0.553157
0.571067 0.571067 0.571067
0.583145 0.583145 0.583145
0.593438 0.593438 0.593438
0.603397 0.603397 0.603397
0.613095 0.613095 0.613095
0.622459 0.622459 0.622459
0.631340 0.631340 0.631340
0.637955 0.637955 0.637955
0.643640 0.643640 0.643640
0.649511 0.649511 0.649511
0.655196 0.655196 0.655196
0.656386 0.656386 0.656386
0.254692 0.254692 0.254692
0.251682 0.251682 0.251682
0.249340 0.249340 0.249340
0.248040 0.248040 0.248040
0.247149 0.247149 0.247149
0.246553 0.246553 0.246553
0.245922 0.245922 0.245922
0.277619 0.277619 0.277619
0.323845 0.323845 0.323845
0.350675 0.350675 0.350675
0.375497 0.375497 0.375497
0.397050 0.397050 0.397050
0.417487 0.417487 0.417487
0.440415 0.440415 0.440415
0.464085 0.464085 0.464085
0.487310 0.487310 0.487310
0.509457 0.509457 0.509457
0.529634 0.529634 0.529634
0.549069 0.549069 0.549069
0.568318 0.568318 0.568318
0.586786 0.586786 0.586786
0.599793 0.599793 0.599793
0.610679 0.610679 0.610679
0.620861 0.620861 0.620861
0.630708 0.630708 0.630708
0.640445 0.640445 0.640445
0.649772 0.649772 0.649772
0.657203 0.657203 0.657203
0.663149 0.663149 0.663149
0.669057 0.669057 0.669057
0.674854 0.674854 0.674854
0.675003 0.675003 0.675003
0.266508 0.266508 0.266508
0.263796 0.263796 0.263796
0.261677 0.261677 0.261677
0.260377 0.260377 0.260377
0.259560 0.259560 0.259560
0.259039 0.259039 0.259039
0.259039 0.259039 0.259039
0.283155 0.283155 0.283155
0.318867 0.318867 0.318867
0.355505 0.355505 0.355505
0.382817 0.382817 0.382817
0.407455 0.407455 0.407455
0.428895 0.428895 0.428895
0.452343 0.452343 0.452343
0.476757 0.476757 0.476757
0.500539 0.500539 0.500539
0.523132 0.523132 0.523132
0.544127 0.544127 0.544127
0.563747 0.563747 0.563747
0.583145 0.583145 0.583145
0.601910 0.601910 0.601910
0.615770 0.615770 0.615770
0.627698 0.627698 0.627698
0.637955 0.637955 0.637955
0.647876 0.647876 0.647876
0.657649 0.657649 0.657649
0.667385 0.667385 0.667385
0.675115 0.675115 0.675115
0.681655 0.681655 0.681655
0.687600 0.687600 0.687600
0.692282 0.692282 0.692282
0.692431 0.692431 0.692431
0.278139 0.278139 0.278139
0.275984 0.275984 0.275984
0.274089 0.274089 0.274089
0.272899 0.272899 0.272899
0.272120 0.272120 0.272120
0.271599 0.271599 0.271599
0.271562 0.271562 0.271562
0.272491 0.272491 0.272491
0.307978 0.307978 0.307978
0.356732 0.356732 0.356732
0.388355 0.388355 0.388355
0.414886 0.414886 0.414886
0.437887 0.437887 0.437887
0.462153 0.462153 0.462153
0.487236 0.487236 0.487236
0.512318 0.512318 0.512318
0.535877 0.535877 0.535877
0.557654 0.557654 0.557654
0.578239 0.578239 0.578239
0.597786 0.597786 0.597786
0.616774 0.616774 0.616774
0.632232 0.632232 0.632232
0.644495 0.644495 0.644495
0.654899 0.654899 0.654899
0.664969 0.664969 0.664969
0.674818 0.674818 0.674818
0.684627 0.684627 0.684627
0.693063 0.693063 0.693063
0.699900 0.699900 0.699900
0.705882 0.705882 0.705882
0.709785 0.709785 0.709785
0.709970 0.709970 0.709970
0.289139 0.289139 0.289139
0.287689 0.287689 0.287689
0.286352 0.286352 0.286352
0.285385 0.285385 0.285385
0.284679 0.284679 0.284679
0.284233 0.284233 0.284233
0.284159 0.284159 0.284159
0.285051 0.285051 0.285051
0.295790 0.295790 0.295790
0.351863 0.351863 0.351863
0.391067 0.391067 0.391067
0.421017 0.421017 0.421017
0.445282 0.445282 0.445282
0.470625 0.470625 0.470625
0.496637 0.496637 0.496637
0.522240 0.522240 0.522240
0.546952 0.546952 0.546952
0.569915 0.569915 0.569915
0.590799 0.590799 0.590799
0.611274 0.611274 0.611274
0.630374 0.630374 0.630374
0.646650 0.646650 0.646650
0.660399 0.660399 0.660399
0.670878 0.670878 0.670878
0.681246 0.681246 0.681246
0.691353 0.691353 0.691353
0.701238 0.701238 0.701238
0.710305 0.710305 0.710305
0.717959 0.717959 0.717959
0.724127 0.724127 0.724127
0.727101 0.727101 0.727101
0.727546 0.727546 0.727546
0.298800 0.298800 0.298800
0.298689 0.298689 0.298689
0.298019 0.298019 0.298019
0.297686 0.297686 0.297686
0.297054 0.297054 0.297054
0.296682 0.296682 0.296682
0.296831 0.296831 0.296831
0.297722 0.297722 0.297722
0.308424 0.308424 0.308424
0.347888 0.347888 0.347888
0.391662 0.391662 0.391662
0.425662 0.425662 0.425662
0.452195 0.452195 0.452195
0.478020 0.478020 0.478020
0.504664 0.504664 0.504664
0.530861 0.530861 0.530861
0.555795 0.555795 0.555795
0.579465 0.579465 0.579465
0.600572 0.600572 0.600572
0.621307 0.621307 0.621307
0.641448 0.641448 0.641448
0.659136 0.659136 0.659136
0.674074 0.674074 0.674074
0.685295 0.685295 0.685295
0.695961 0.695961 0.695961
0.706476 0.706476 0.706476
0.716955 0.716955 0.716955
0.726840 0.726840 0.726840
0.735758 0.735758 0.735758
0.742671 0.742671 0.742671
0.744974 0.744974 0.744974
0.745494 0.745494 0.745494
0.307756 0.307756 0.307756
0.307681 0.307681 0.307681
0.307718 0.307718 0.307718
0.307644 0.307644 0.307644
0.307941 0.307941 0.307941
0.308053 0.308053 0.308053
0.308721 0.308721 0.308721
0.310171 0.310171 0.310171
0.313106 0.313106 0.313106
0.336963 0.336963 0.336963
0.392219 0.392219 0.392219
0.429192 0.429192 0.429192
0.458103 0.458103 0.458103
0.484969 0.484969 0.484969
0.511873 0.511873 0.511873
0.538776 0.538776 0.538776
0.564453 0.564453 0.564453
0.588644 0.588644 0.588644
0.610122 0.610122 0.610122
0.631080 0.631080 0.631080
0.651556 0.651556 0.651556
0.670544 0.670544 0.670544
0.686373 0.686373 0.686373
0.697967 0.697967 0.697967
0.709263 0.709263 0.709263
0.720077 0.720077 0.720077
0.730928 0.730928 0.730928
0.741555 0.741555 0.741555
0.751143 0.751143 0.751143
0.758203 0.758203 0.758203
0.760470 0.760470 0.760470
0.761139 0.761139 0.761139
0.316413 0.316413 0.316413
0.316451 0.316451 0.316451
0.316563 0.316563 0.316563
0.316822 0.316822 0.316822
0.317342 0.317342 0.317342
0.318197 0.318197 0.318197
0.319609 0.319609 0.319609
0.321355 0.321355 0.321355
0.323548 0.323548 0.323548
0.331834 0.331834 0.331834
0.377170 0.377170 0.377170
0.431570 0.431570 0.431570
0.462301 0.462301 0.462301
0.490915 0.490915 0.490915
0.518635 0.518635 0.518635
0.546208 0.546208 0.546208
0.572517 0.572517 0.572517
0.597637 0.597637 0.597637
0.619449 0.619449 0.619449
0.640816 0.640816 0.640816
0.661551 0.661551 0.661551
0.681097 0.681097 0.681097
0.698190 0.698190 0.698190
0.710230 0.710230 0.710230
0.721787 0.721787 0.721787
0.733083 0.733083 0.733083
0.744194 0.744194 0.744194
0.755081 0.755081 0.755081
0.765523 0.765523 0.765523
0.772732 0.772732 0.772732
0.774851 0.774851 0.774851
0.775816 0.775816 0.775816
0.324775 0.324775 0.324775
0.325184 0.325184 0.325184
0.325369 0.325369 0.325369
0.325666 0.325666 0.325666
0.326187 0.326187 0.326187
0.326966 0.326966 0.326966
0.328304 0.328304 0.328304
0.330237 0.330237 0.330237
0.332318 0.332318 0.332318
0.335031 0.335031 0.335031
0.377095 0.377095 0.377095
0.430456 0.430456 0.430456
0.466204 0.466204 0.466204
0.496154 0.496154 0.496154
0.524804 0.524804 0.524804
0.553602 0.553602 0.553602
0.580394 0.580394 0.580394
0.606220 0.606220 0.606220
0.628740 0.628740 0.628740
0.650515 0.650515 0.650515
0.671918 0.671918 0.671918
0.692505 0.692505 0.692505
0.710267 0.710267 0.710267
0.723162 0.723162 0.723162
0.734829 0.734829 0.734829
0.746201 0.746201 0.746201
0.757422 0.757422 0.757422
0.768496 0.768496 0.768496
0.779087 0.779087 0.779087
0.786891 0.786891 0.786891
0.788896 0.788896 0.788896
0.789863 0.789863 0.789863
0.333098 0.333098 0.333098
0.333693 0.333693 0.333693
0.334064 0.334064 0.334064
0.334324 0.334324 0.334324
0.334770 0.334770 0.334770
0.335514 0.335514 0.335514
0.336851 0.336851 0.336851
0.338784 0.338784 0.338784
0.340976 0.340976 0.340976
0.343429 0.343429 0.343429
0.372673 0.372673 0.372673
0.427334 0.427334 0.427334
0.466613 0.466613 0.466613
0.500204 0.500204 0.500204
0.529598 0.529598 0.529598
