Vakken/Crossmedia/Illu & Foto II/Les 3/Les 3/Les 3 Adjustmentlayers en Blending 2/Black and White/BW LUTS/BW Landscapes 04.cube
#Created by: Adobe Photoshop Export Color Lookup Plugin
#Copyright: (C) Copyright 2017 ©Richard Harrington
TITLE "LUT_Build.psd"
#LUT size
LUT_3D_SIZE 8
#data domain
#LUT data points
DOMAIN_MIN 0.000000 0.000000 0.000000
DOMAIN_MAX 0.903226 0.903226 0.903226
0.187347 0.187347 0.187347
0.348267 0.348267 0.348267
0.596313 0.596313 0.596313
0.777740 0.777740 0.777740
0.854889 0.854889 0.854889
0.889160 0.889160 0.889160
0.913879 0.913879 0.913879
0.930145 0.930145 0.930145
0.238647 0.238647 0.238647
0.270081 0.270081 0.270081
0.442261 0.442261 0.442261
0.630005 0.630005 0.630005
0.795837 0.795837 0.795837
0.870911 0.870911 0.870911
0.912506 0.912506 0.912506
0.942139 0.942139 0.942139
0.265381 0.265381 0.265381
0.324646 0.324646 0.324646
0.430176 0.430176 0.430176
0.704437 0.704437 0.704437
0.832245 0.832245 0.832245
0.899048 0.899048 0.899048
0.934845 0.934845 0.934845
0.959320 0.959320 0.959320
0.306671 0.306671 0.306671
0.332336 0.332336 0.332336
0.549652 0.549652 0.549652
0.675293 0.675293 0.675293
0.875641 0.875641 0.875641
0.946564 0.946564 0.946564
0.972565 0.972565 0.972565
0.988556 0.988556 0.988556
0.443390 0.443390 0.443390
0.413757 0.413757 0.413757
0.563324 0.563324 0.563324
0.764374 0.764374 0.764374
0.859619 0.859619 0.859619
0.958893 0.958893 0.958893
0.994812 0.994812 0.994812
1.000000 1.000000 1.000000
0.539520 0.539520 0.539520
0.511810 0.511810 0.511810
0.544830 0.544830 0.544830
0.776733 0.776733 0.776733
0.889282 0.889282 0.889282
0.948792 0.948792 0.948792
0.994934 0.994934 0.994934
1.000000 1.000000 1.000000
0.628540 0.628540 0.628540
0.614258 0.614258 0.614258
0.617615 0.617615 0.617615
0.777924 0.777924 0.777924
0.921967 0.921967 0.921967
0.959900 0.959900 0.959900
0.990723 0.990723 0.990723
1.000000 1.000000 1.000000
0.681580 0.681580 0.681580
0.683990 0.683990 0.683990
0.695160 0.695160 0.695160
0.777588 0.777588 0.777588
0.931763 0.931763 0.931763
0.985870 0.985870 0.985870
0.998749 0.998749 0.998749
1.000000 1.000000 1.000000
0.168732 0.168732 0.168732
0.247253 0.247253 0.247253
0.425751 0.425751 0.425751
0.683594 0.683594 0.683594
0.806610 0.806610 0.806610
0.869232 0.869232 0.869232
0.903717 0.903717 0.903717
0.925293 0.925293 0.925293
0.203918 0.203918 0.203918
0.257019 0.257019 0.257019
0.378296 0.378296 0.378296
0.567047 0.567047 0.567047
0.755798 0.755798 0.755798
0.856415 0.856415 0.856415
0.908905 0.908905 0.908905
0.938751 0.938751 0.938751
0.236816 0.236816 0.236816
0.300964 0.300964 0.300964
0.412872 0.412872 0.412872
0.655029 0.655029 0.655029
0.798004 0.798004 0.798004
0.880646 0.880646 0.880646
0.925751 0.925751 0.925751
0.950867 0.950867 0.950867
0.265045 0.265045 0.265045
0.304443 0.304443 0.304443
0.518372 0.518372 0.518372
0.667877 0.667877 0.667877
0.867279 0.867279 0.867279
0.932526 0.932526 0.932526
0.960846 0.960846 0.960846
0.979553 0.979553 0.979553
0.410278 0.410278 0.410278
0.363403 0.363403 0.363403
0.520660 0.520660 0.520660
0.748108 0.748108 0.748108
0.837799 0.837799 0.837799
0.952820 0.952820 0.952820
0.991760 0.991760 0.991760
1.000000 1.000000 1.000000
0.528625 0.528625 0.528625
0.483093 0.483093 0.483093
0.493073 0.493073 0.493073
0.734436 0.734436 0.734436
0.873352 0.873352 0.873352
0.939545 0.939545 0.939545
0.992584 0.992584 0.992584
1.000000 1.000000 1.000000
0.614868 0.614868 0.614868
0.585541 0.585541 0.585541
0.579285 0.579285 0.579285
0.747375 0.747375 0.747375
0.919189 0.919189 0.919189
0.959381 0.959381 0.959381
0.987183 0.987183 0.987183
1.000000 1.000000 1.000000
0.679352 0.679352 0.679352
0.648071 0.648071 0.648071
0.649261 0.649261 0.649261
0.729523 0.729523 0.729523
0.924744 0.924744 0.924744
0.985443 0.985443 0.985443
0.999329 0.999329 0.999329
1.000000 1.000000 1.000000
0.271027 0.271027 0.271027
0.186951 0.186951 0.186951
0.308655 0.308655 0.308655
0.544617 0.544617 0.544617
0.691681 0.691681 0.691681
0.783234 0.783234 0.783234
0.834229 0.834229 0.834229
0.872467 0.872467 0.872467
0.226715 0.226715 0.226715
0.222290 0.222290 0.222290
0.279724 0.279724 0.279724
0.417542 0.417542 0.417542
0.623230 0.623230 0.623230
0.772003 0.772003 0.772003
0.864471 0.864471 0.864471
0.912354 0.912354 0.912354
0.137115 0.137115 0.137115
0.200195 0.200195 0.200195
0.352722 0.352722 0.352722
0.524384 0.524384 0.524384
0.711304 0.711304 0.711304
0.821838 0.821838 0.821838
0.887970 0.887970 0.887970
0.927979 0.927979 0.927979
0.181122 0.181122 0.181122
0.202026 0.202026 0.202026
0.417511 0.417511 0.417511
0.616486 0.616486 0.616486
0.837372 0.837372 0.837372
0.904938 0.904938 0.904938
0.944885 0.944885 0.944885
0.973145 0.973145 0.973145
0.309021 0.309021 0.309021
0.258575 0.258575 0.258575
0.401367 0.401367 0.401367
0.694244 0.694244 0.694244
0.809143 0.809143 0.809143
0.943176 0.943176 0.943176
0.987000 0.987000 0.987000
1.000000 1.000000 1.000000
0.431396 0.431396 0.431396
0.379517 0.379517 0.379517
0.359619 0.359619 0.359619
0.686829 0.686829 0.686829
0.870697 0.870697 0.870697
0.930542 0.930542 0.930542
0.989044 0.989044 0.989044
1.000000 1.000000 1.000000
0.547607 0.547607 0.547607
0.494141 0.494141 0.494141
0.468292 0.468292 0.468292
0.669006 0.669006 0.669006
0.898834 0.898834 0.898834
0.958008 0.958008 0.958008
0.984772 0.984772 0.984772
1.000000 1.000000 1.000000
0.609314 0.609314 0.609314
0.564270 0.564270 0.564270
0.550659 0.550659 0.550659
0.616791 0.616791 0.616791
0.903503 0.903503 0.903503
0.982117 0.982117 0.982117
0.999054 0.999054 0.999054
1.000000 1.000000 1.000000
0.345734 0.345734 0.345734
0.263306 0.263306 0.263306
0.200989 0.200989 0.200989
0.373505 0.373505 0.373505
0.613281 0.613281 0.613281
0.739746 0.739746 0.739746
0.804230 0.804230 0.804230
0.851868 0.851868 0.851868
0.343170 0.343170 0.343170
0.297791 0.297791 0.297791
0.227234 0.227234 0.227234
0.331238 0.331238 0.331238
0.558746 0.558746 0.558746
0.692322 0.692322 0.692322
0.796570 0.796570 0.796570
0.858887 0.858887 0.858887
0.271942 0.271942 0.271942
0.398651 0.398651 0.398651
0.367279 0.367279 0.367279
0.392090 0.392090 0.392090
0.590088 0.590088 0.590088
0.722717 0.722717 0.722717
0.803009 0.803009 0.803009
0.863708 0.863708 0.863708
0.123383 0.123383 0.123383
0.168182 0.168182 0.168182
0.304077 0.304077 0.304077
0.539398 0.539398 0.539398
0.700226 0.700226 0.700226
0.822113 0.822113 0.822113
0.886108 0.886108 0.886108
0.932129 0.932129 0.932129
0.207367 0.207367 0.207367
0.179413 0.179413 0.179413
0.232971 0.232971 0.232971
0.517670 0.517670 0.517670
0.785614 0.785614 0.785614
0.924255 0.924255 0.924255
0.963593 0.963593 0.963593
0.991180 0.991180 0.991180
0.280579 0.280579 0.280579
0.248566 0.248566 0.248566
0.234619 0.234619 0.234619
0.454987 0.454987 0.454987
0.843597 0.843597 0.843597
0.917816 0.917816 0.917816
0.985809 0.985809 0.985809
1.000000 1.000000 1.000000
0.352631 0.352631 0.352631
0.308655 0.308655 0.308655
0.285187 0.285187 0.285187
0.378021 0.378021 0.378021
0.846588 0.846588 0.846588
0.950806 0.950806 0.950806
0.981812 0.981812 0.981812
1.000000 1.000000 1.000000
0.408051 0.408051 0.408051
0.359558 0.359558 0.359558
0.329163 0.329163 0.329163
0.321625 0.321625 0.321625
0.845703 0.845703 0.845703
0.977722 0.977722 0.977722
0.997589 0.997589 0.997589
1.000000 1.000000 1.000000
0.403503 0.403503 0.403503
0.326965 0.326965 0.326965
0.216492 0.216492 0.216492
0.254517 0.254517 0.254517
0.430481 0.430481 0.430481
0.650574 0.650574 0.650574
0.760468 0.760468 0.760468
0.821136 0.821136 0.821136
0.407410 0.407410 0.407410
0.376038 0.376038 0.376038
0.285889 0.285889 0.285889
0.244995 0.244995 0.244995
0.403015 0.403015 0.403015
0.630066 0.630066 0.630066
0.756683 0.756683 0.756683
0.820587 0.820587 0.820587
0.546600 0.546600 0.546600
0.518494 0.518494 0.518494
0.446960 0.446960 0.446960
0.317688 0.317688 0.317688
0.462280 0.462280 0.462280
0.674927 0.674927 0.674927
0.766754 0.766754 0.766754
0.838104 0.838104 0.838104
0.300781 0.300781 0.300781
0.429108 0.429108 0.429108
0.592712 0.592712 0.592712
0.597198 0.597198 0.597198
0.598175 0.598175 0.598175
0.745209 0.745209 0.745209
0.822510 0.822510 0.822510
0.882660 0.882660 0.882660
0.162140 0.162140 0.162140
0.203369 0.203369 0.203369
0.277405 0.277405 0.277405
0.471741 0.471741 0.471741
0.730865 0.730865 0.730865
0.828918 0.828918 0.828918
0.894745 0.894745 0.894745
0.940826 0.940826 0.940826
0.177368 0.177368 0.177368
0.157227 0.157227 0.157227
0.141907 0.141907 0.141907
0.230164 0.230164 0.230164
0.712097 0.712097 0.712097
0.898438 0.898438 0.898438
0.977814 0.977814 0.977814
0.997101 0.997101 0.997101
0.211914 0.211914 0.211914
0.187622 0.187622 0.187622
0.168213 0.168213 0.168213
0.185547 0.185547 0.185547
0.639740 0.639740 0.639740
0.935883 0.935883 0.935883
0.973175 0.973175 0.973175
1.000000 1.000000 1.000000
0.234802 0.234802 0.234802
0.209015 0.209015 0.209015
0.185913 0.185913 0.185913
0.164246 0.164246 0.164246
0.523529 0.523529 0.523529
0.948578 0.948578 0.948578
0.995270 0.995270 0.995270
1.000000 1.000000 1.000000
0.444244 0.444244 0.444244
0.372437 0.372437 0.372437
0.237427 0.237427 0.237427
0.195953 0.195953 0.195953
0.305328 0.305328 0.305328
0.477600 0.477600 0.477600
0.641266 0.641266 0.641266
0.753723 0.753723 0.753723
0.465302 0.465302 0.465302
0.427399 0.427399 0.427399
0.342407 0.342407 0.342407
0.236816 0.236816 0.236816
0.299347 0.299347 0.299347
0.459045 0.459045 0.459045
0.651215 0.651215 0.651215
0.759796 0.759796 0.759796
0.609070 0.609070 0.609070
0.575287 0.575287 0.575287
0.506012 0.506012 0.506012
0.344177 0.344177 0.344177
0.342987 0.342987 0.342987
0.532715 0.532715 0.532715
0.683624 0.683624 0.683624
0.800812 0.800812 0.800812
0.650818 0.650818 0.650818
0.716248 0.716248 0.716248
0.739166 0.739166 0.739166
0.646454 0.646454 0.646454
0.436920 0.436920 0.436920
0.643921 0.643921 0.643921
0.770081 0.770081 0.770081
0.857178 0.857178 0.857178
0.363220 0.363220 0.363220
0.445068 0.445068 0.445068
0.569885 0.569885 0.569885
0.747040 0.747040 0.747040
0.745239 0.745239 0.745239
0.765991 0.765991 0.765991
0.855804 0.855804 0.855804
0.911224 0.911224 0.911224
0.195099 0.195099 0.195099
0.237885 0.237885 0.237885
0.272217 0.272217 0.272217
0.392365 0.392365 0.392365
0.688263 0.688263 0.688263
0.858490 0.858490 0.858490
0.917877 0.917877 0.917877
0.958069 0.958069 0.958069
0.115936 0.115936 0.115936
0.116943 0.116943 0.116943
0.131042 0.131042 0.131042
0.151001 0.151001 0.151001
0.239075 0.239075 0.239075
0.872833 0.872833 0.872833
0.966034 0.966034 0.966034
1.000000 1.000000 1.000000
0.119415 0.119415 0.119415
0.100403 0.100403 0.100403
0.083435 0.083435 0.083435
0.068970 0.068970 0.068970
0.170044 0.170044 0.170044
0.847595 0.847595 0.847595
0.990021 0.990021 0.990021
1.000000 1.000000 1.000000
0.475983 0.475983 0.475983
0.398560 0.398560 0.398560
0.247162 0.247162 0.247162
0.174225 0.174225 0.174225
0.239502 0.239502 0.239502
0.350830 0.350830 0.350830
0.495758 0.495758 0.495758
0.643341 0.643341 0.643341
0.515869 0.515869 0.515869
0.475647 0.475647 0.475647
0.384552 0.384552 0.384552
0.246338 0.246338 0.246338
0.235291 0.235291 0.235291
0.343414 0.343414 0.343414
0.515076 0.515076 0.515076
0.661530 0.661530 0.661530
0.649017 0.649017 0.649017
0.620941 0.620941 0.620941
0.547363 0.547363 0.547363
0.367035 0.367035 0.367035
0.258270 0.258270 0.258270
0.379547 0.379547 0.379547
0.552887 0.552887 0.552887
0.710510 0.710510 0.710510
0.803009 0.803009 0.803009
0.793671 0.793671 0.793671
0.767578 0.767578 0.767578
0.667633 0.667633 0.667633
0.377808 0.377808 0.377808
0.473480 0.473480 0.473480
0.654510 0.654510 0.654510
0.791382 0.791382 0.791382
0.663544 0.663544 0.663544
0.708923 0.708923 0.708923
0.782745 0.782745 0.782745
0.860657 0.860657 0.860657
0.766449 0.766449 0.766449
0.634644 0.634644 0.634644
0.784241 0.784241 0.784241
0.878632 0.878632 0.878632
0.365295 0.365295 0.365295
0.425140 0.425140 0.425140
0.500122 0.500122 0.500122
0.690613 0.690613 0.690613
0.854675 0.854675 0.854675
0.840729 0.840729 0.840729
0.879059 0.879059 0.879059
0.936798 0.936798 0.936798
0.202911 0.202911 0.202911
0.226593 0.226593 0.226593
0.248718 0.248718 0.248718
0.295929 0.295929 0.295929
0.538727 0.538727 0.538727
0.828064 0.828064 0.828064
0.945038 0.945038 0.945038
0.980011 0.980011 0.980011
0.092133 0.092133 0.092133
0.099670 0.099670 0.099670
0.110077 0.110077 0.110077
0.118073 0.118073 0.118073
0.149628 0.149628 0.149628
0.377625 0.377625 0.377625
0.968964 0.968964 0.968964
0.999817 0.999817 0.999817
0.488312 0.488312 0.488312
0.393951 0.393951 0.393951
0.248901 0.248901 0.248901
0.174774 0.174774 0.174774
0.201172 0.201172 0.201172
0.287994 0.287994 0.287994
0.393738 0.393738 0.393738
0.535461 0.535461 0.535461
0.549561 0.549561 0.549561
0.502441 0.502441 0.502441
0.390717 0.390717 0.390717
0.248505 0.248505 0.248505
0.193634 0.193634 0.193634
0.269897 0.269897 0.269897
0.388306 0.388306 0.388306
0.527222 0.527222 0.527222
0.682617 0.682617 0.682617
0.646790 0.646790 0.646790
0.570679 0.570679 0.570679
0.365479 0.365479 0.365479
0.223816 0.223816 0.223816
0.292450 0.292450 0.292450
0.417267 0.417267 0.417267
0.594666 0.594666 0.594666
0.831085 0.831085 0.831085
0.818939 0.818939 0.818939
0.785828 0.785828 0.785828
0.679871 0.679871 0.679871
0.377136 0.377136 0.377136
0.339325 0.339325 0.339325
0.513580 0.513580 0.513580
0.699615 0.699615 0.699615
0.832489 0.832489 0.832489
0.852783 0.852783 0.852783
0.891388 0.891388 0.891388
0.885132 0.885132 0.885132
0.786499 0.786499 0.786499
0.433868 0.433868 0.433868
0.674011 0.674011 0.674011
0.819397 0.819397 0.819397
0.678467 0.678467 0.678467
0.728210 0.728210 0.728210
0.772949 0.772949 0.772949
0.865356 0.865356 0.865356
0.936584 0.936584 0.936584
0.860565 0.860565 0.860565
0.810547 0.810547 0.810547
0.902557 0.902557 0.902557
0.362305 0.362305 0.362305
0.399933 0.399933 0.399933
0.463013 0.463013 0.463013
0.608490 0.608490 0.608490
0.824707 0.824707 0.824707
0.938904 0.938904 0.938904
0.923706 0.923706 0.923706
0.959717 0.959717 0.959717
0.189423 0.189423 0.189423
0.204254 0.204254 0.204254
0.220184 0.220184 0.220184
0.241211 0.241211 0.241211
0.404541 0.404541 0.404541
0.735199 0.735199 0.735199
0.927032 0.927032 0.927032
0.995911 0.995911 0.995911
