Vakken/Video videoverdieping/Opdrachten/Kortfilm/LUTS/DaGreenishRuff(LOG).cube
TITLE "Generated by Resolve"
LUT_3D_SIZE 9
0.108659 0.153079 0.152163
0.115068 0.151781 0.151232
0.140795 0.159075 0.154726
0.238087 0.169238 0.155077
0.472633 0.169207 0.135531
0.703975 0.181903 0.123354
0.732555 0.185458 0.122225
0.732555 0.185458 0.122225
0.732509 0.185443 0.12221
0.11812 0.167056 0.161288
0.12224 0.165698 0.160418
0.141741 0.163134 0.154757
0.232029 0.168078 0.152941
0.462104 0.168872 0.135988
0.69778 0.181842 0.124681
0.73257 0.185458 0.122225
0.73257 0.185458 0.122225
0.732555 0.185458 0.122225
0.151049 0.204425 0.190646
0.149432 0.201434 0.185321
0.173739 0.198047 0.179065
0.23006 0.188434 0.158968
0.449012 0.170108 0.136858
0.681025 0.179217 0.125017
0.73257 0.185458 0.122225
0.73257 0.185458 0.122225
0.732555 0.185458 0.122225
0.254612 0.357641 0.262791
0.240513 0.34255 0.253574
0.25124 0.337163 0.248753
0.370901 0.32079 0.218357
0.502251 0.260868 0.155764
0.757412 0.249607 0.130861
0.799023 0.232547 0.120729
0.791608 0.222919 0.119738
0.789868 0.221286 0.120043
0.638041 0.73344 0.550286
0.617426 0.717083 0.531899
0.602457 0.699123 0.51165
0.596902 0.682155 0.460639
0.834043 0.701152 0.386709
0.796078 0.592889 0.238682
0.808927 0.51873 0.21471
0.817349 0.497078 0.209293
0.817502 0.49398 0.20943
0.794079 0.882261 0.724254
0.791272 0.877165 0.718593
0.79118 0.872877 0.712932
0.821653 0.891768 0.720623
0.789364 0.849638 0.552529
1 0.920455 0.638666
1 0.905653 0.641062
1 0.899367 0.626749
1 0.897734 0.623667
0.815183 0.900404 0.749218
0.815747 0.900999 0.748562
0.816754 0.902098 0.747066
0.853864 0.93077 0.773114
0.778241 0.853223 0.576837
0.981628 0.975982 0.682979
1 0.972473 0.715068
1 0.970184 0.722332
1 0.969604 0.721721
0.81471 0.899474 0.749889
0.815 0.900206 0.749355
0.816205 0.901503 0.747951
0.852598 0.929366 0.774609
0.776486 0.853727 0.585077
0.964157 0.981857 0.692363
1 0.983642 0.712123
1 0.983902 0.730449
1 0.984863 0.73164
0.814649 0.899321 0.74995
0.814908 0.900114 0.749493
0.816129 0.901411 0.748058
0.852567 0.929137 0.774731
0.776104 0.853483 0.585946
0.963577 0.98175 0.693416
1 0.986542 0.710536
1 0.984421 0.729442
1 0.985626 0.730877
0.11104 0.154131 0.155322
0.117113 0.153475 0.155642
0.140917 0.158709 0.157244
0.237797 0.169177 0.154971
0.472145 0.169192 0.135561
0.703685 0.181903 0.123415
0.73257 0.185458 0.122225
0.73257 0.185458 0.122225
0.73257 0.185458 0.122225
0.122469 0.1682 0.16762
0.124544 0.167269 0.164553
0.144686 0.164691 0.159518
0.231785 0.168032 0.15285
0.46186 0.168872 0.136004
0.697643 0.181842 0.124712
0.73257 0.185458 0.122225
0.73257 0.185458 0.122225
0.73257 0.185458 0.122225
0.154376 0.20618 0.19382
0.154055 0.203922 0.190188
0.173037 0.199481 0.185397
0.231449 0.187488 0.160189
0.449729 0.170321 0.13695
0.680858 0.179187 0.125017
0.73257 0.185458 0.122225
0.73257 0.185458 0.122225
0.73257 0.185458 0.122225
0.261372 0.362829 0.272892
0.245914 0.342626 0.261448
0.261891 0.338766 0.2598
0.36611 0.325216 0.227619
0.503471 0.26276 0.157321
0.757458 0.250401 0.13106
0.800259 0.23299 0.120607
0.792035 0.223453 0.119631
0.790646 0.221927 0.119921
0.643153 0.734997 0.559899
0.622263 0.71725 0.539391
0.612024 0.702358 0.521263
0.621714 0.694835 0.488258
0.836179 0.709987 0.409262
0.796841 0.593805 0.243534
0.823011 0.527214 0.215213
0.817517 0.498375 0.209262
0.817349 0.49514 0.209354
0.796155 0.879103 0.726085
0.791897 0.874907 0.720821
0.789776 0.871229 0.715389
0.823529 0.893629 0.728923
0.781613 0.841749 0.55555
1 0.921508 0.655268
1 0.915999 0.661494
1 0.90193 0.634409
1 0.899504 0.629572
0.813123 0.896361 0.749737
0.813703 0.897414 0.749981
0.81474 0.899504 0.749905
0.857466 0.928283 0.782284
0.780819 0.853162 0.590127
0.970916 0.980362 0.69453
1 0.980514 0.733318
1 0.976135 0.735241
1 0.975662 0.734768
0.812284 0.894926 0.749493
0.812955 0.896071 0.74966
0.814191 0.898314 0.750195
0.856794 0.926436 0.783551
0.783246 0.849485 0.602167
0.959823 0.98114 0.701381
1 0.984619 0.727642
1 0.986114 0.739147
1 0.985946 0.739071
0.812207 0.894774 0.749554
0.812863 0.895918 0.749615
0.814099 0.898161 0.750149
0.856687 0.926238 0.783673
0.783139 0.849867 0.60322
0.958816 0.980682 0.701869
1 0.984909 0.726009
1 0.987198 0.738888
1 0.987045 0.738781
0.112398 0.157061 0.163729
0.118105 0.156237 0.1664
0.143816 0.159808 0.170718
0.241703 0.170443 0.166094
0.476432 0.169329 0.138811
0.703059 0.181903 0.123537
0.73257 0.185458 0.122225
0.73257 0.185458 0.122225
0.73257 0.185458 0.122225
0.126131 0.172213 0.17409
0.130266 0.171389 0.176974
0.148836 0.16762 0.176196
0.236835 0.170855 0.167849
0.467384 0.168978 0.140108
0.697032 0.181827 0.124849
0.73257 0.185458 0.122225
0.73257 0.185458 0.122225
0.73257 0.185458 0.122225
0.156024 0.210239 0.200595
0.158495 0.207675 0.199069
0.170489 0.203128 0.196536
0.250507 0.191806 0.17406
0.460426 0.171527 0.144045
0.683055 0.179522 0.126986
0.73257 0.185458 0.122225
0.73257 0.185458 0.122225
0.73257 0.185458 0.122225
0.268971 0.364462 0.285359
0.25539 0.349218 0.274342
0.280797 0.345739 0.279255
0.354604 0.3337 0.250202
0.532998 0.271855 0.176852
0.773281 0.25536 0.136477
0.806729 0.235065 0.123156
0.796292 0.225528 0.120714
0.794171 0.223667 0.120821
0.641718 0.731517 0.572168
0.625528 0.71545 0.551583
0.623362 0.705104 0.543191
0.652476 0.706706 0.534234
0.826825 0.722072 0.451209
0.790112 0.59147 0.269795
0.828962 0.536599 0.238865
0.820676 0.507057 0.228656
0.820081 0.50312 0.226184
0.788342 0.867628 0.724239
0.785916 0.864485 0.718898
0.786984 0.863661 0.716915
0.829419 0.890852 0.744595
0.769207 0.824933 0.563165
1 0.924132 0.685908
1 0.921675 0.6878
1 0.912627 0.671489
1 0.911467 0.668299
0.796902 0.880339 0.74612
0.79913 0.882612 0.747768
0.803983 0.887297 0.750317
0.856901 0.92311 0.791455
0.791104 0.854276 0.629084
0.963546 0.978317 0.716854
1 0.98201 0.758144
1 0.9794 0.758892
1 0.978592 0.757946
0.794293 0.877363 0.743816
0.796307 0.879744 0.745663
0.801175 0.884581 0.74905
0.853574 0.920348 0.79028
0.80528 0.862943 0.64918
0.954437 0.97734 0.721477
1 0.985946 0.741817
1 0.987854 0.760708
1 0.98761 0.760693
0.793988 0.876982 0.743542
0.795911 0.879332 0.745342
0.800778 0.884215 0.748821
0.853178 0.920012 0.790112
0.808194 0.864454 0.653895
0.953811 0.976852 0.721767
1 0.986984 0.741115
1 0.988617 0.760403
1 0.988388 0.760418
0.116564 0.162753 0.173785
0.12462 0.162158 0.182025
0.147372 0.167208 0.197116
0.244465 0.172442 0.197864
0.488563 0.17525 0.169314
0.713497 0.182055 0.142245
0.750729 0.185519 0.139452
0.748974 0.18558 0.138155
0.748714 0.185595 0.137987
0.13048 0.178027 0.188098
0.133577 0.179141 0.19089
0.153368 0.174533 0.198505
0.238361 0.173312 0.200351
0.479759 0.17734 0.17229
0.70663 0.181689 0.148257
0.750942 0.185489 0.140826
0.750408 0.185534 0.139223
0.750164 0.18555 0.139086
0.157092 0.210849 0.213886
0.160708 0.209781 0.213642
0.173983 0.209766 0.219013
0.253315 0.195132 0.211429
0.47396 0.180911 0.180926
0.693935 0.183062 0.160891
0.745632 0.185626 0.145342
0.748653 0.18555 0.142763
0.74905 0.185534 0.142428
0.256764 0.362448 0.299382
0.245777 0.346975 0.292348
0.284733 0.350286 0.303761
0.340291 0.346517 0.302892
0.578408 0.288563 0.22771
0.789029 0.266361 0.18555
0.829053 0.245121 0.163699
0.815381 0.231525 0.156634
0.814725 0.229435 0.156069
0.601831 0.694545 0.559304
0.583551 0.675517 0.538994
0.582742 0.666423 0.532494
0.667384 0.702174 0.580407
0.778607 0.720897 0.518853
0.788144 0.590372 0.332662
0.847944 0.55938 0.304784
0.843641 0.529259 0.293614
0.844923 0.527108 0.292531
0.738003 0.826291 0.700206
0.737682 0.82475 0.697704
0.742046 0.82707 0.696117
0.811139 0.864027 0.749645
0.79765 0.827253 0.65864
1 0.935622 0.74258
1 0.933486 0.744503
1 0.92195 0.715999
1 0.92079 0.713634
0.742672 0.835538 0.709316
0.746517 0.838102 0.709377
0.754803 0.842237 0.71574
0.8224 0.885893 0.773297
0.904051 0.943725 0.828748
0.939422 0.963439 0.759518
1 0.979919 0.802884
1 0.982025 0.813062
1 0.981659 0.812207
0.736706 0.833326 0.708629
0.741451 0.834974 0.7093
0.749737 0.84094 0.710781
0.813611 0.880003 0.765713
0.90193 0.942 0.83241
0.934722 0.960342 0.760937
1 0.98883 0.794369
1 0.987869 0.811765
1 0.98764 0.811399
0.735927 0.833021 0.708461
0.740703 0.834684 0.70927
0.749157 0.840543 0.710323
0.812207 0.879225 0.764721
0.90161 0.941848 0.832868
0.934096 0.959213 0.760983
1 0.988891 0.794354
1 0.988357 0.810605
1 0.988266 0.811032
0.122103 0.166247 0.203586
0.127398 0.166079 0.208804
0.146059 0.17203 0.22768
0.226734 0.178439 0.264973
0.492866 0.167086 0.256001
0.72314 0.194965 0.230472
0.75642 0.197803 0.209155
0.754482 0.196796 0.199985
0.754025 0.196597 0.199023
0.132403 0.179751 0.217548
0.135042 0.1776 0.220554
0.153384 0.178576 0.233906
0.222141 0.179736 0.265156
0.48043 0.173587 0.267613
0.715328 0.194751 0.237171
0.754086 0.196353 0.213611
0.757076 0.198245 0.208042
0.757076 0.198276 0.207141
0.148623 0.202869 0.238209
0.153597 0.20206 0.24062
0.169955 0.202396 0.251102
0.236027 0.203326 0.289235
0.462593 0.187304 0.28983
0.699123 0.193698 0.25275
0.75433 0.197284 0.227207
0.754284 0.196155 0.218601
0.754208 0.196155 0.217807
0.226337 0.346105 0.333303
0.218967 0.331518 0.322866
0.2477 0.328405 0.328801
0.340368 0.343771 0.361151
0.573785 0.315694 0.402304
0.795773 0.274617 0.330831
0.837293 0.267597 0.297948
0.820401 0.249287 0.270024
0.819623 0.246845 0.267689
0.533227 0.679698 0.561746
0.518715 0.665736 0.547799
0.517479 0.644526 0.534539
0.589639 0.639078 0.552254
0.738399 0.700496 0.627283
0.847227 0.637324 0.519677
0.928023 0.620447 0.48835
0.9234 0.592218 0.465614
0.92224 0.589334 0.462409
0.665064 0.792828 0.682933
0.665995 0.789273 0.678874
0.66894 0.779232 0.672847
0.715496 0.788434 0.685557
0.876616 0.885023 0.8094
0.940139 0.902296 0.791379
0.968185 0.899596 0.764355
0.946853 0.869322 0.716197
0.946456 0.866819 0.711421
0.684123 0.817227 0.706874
0.684215 0.815671 0.705394
0.685985 0.810361 0.70161
0.742702 0.82092 0.718914
0.885145 0.908202 0.832853
0.897612 0.90161 0.786282
0.997314 0.970581 0.851408
1 0.974014 0.873854
1 0.973953 0.873259
0.682338 0.818647 0.707912
0.684138 0.817685 0.707317
0.68333 0.813336 0.703716
0.737163 0.818998 0.715541
0.876051 0.897353 0.820294
0.898863 0.905837 0.801144
0.972915 0.974029 0.854551
1 0.981353 0.871412
1 0.981445 0.872328
0.681956 0.818753 0.708019
0.683925 0.817884 0.707469
0.683482 0.81384 0.704036
0.736584 0.818814 0.715236
0.874846 0.895827 0.818677
0.900008 0.907485 0.804303
0.972519 0.973236 0.854307
1 0.981979 0.869596
1 0.98204 0.871412
0.132082 0.170382 0.234165
0.13463 0.170306 0.236713
0.1467 0.173602 0.25594
0.217197 0.181216 0.312718
0.44303 0.194568 0.382071
0.689036 0.216632 0.407843
0.746548 0.190295 0.384344
0.747051 0.182513 0.368566
0.747677 0.181781 0.36733
0.139254 0.18291 0.24358
0.142153 0.181094 0.247608
0.153597 0.178912 0.263066
0.209308 0.179339 0.31104
0.436942 0.195834 0.38349
0.678508 0.2206 0.415381
0.742962 0.197803 0.395773
0.746456 0.188663 0.380972
0.746349 0.187854 0.379324
0.156985 0.210452 0.27332
0.160403 0.207355 0.273411
0.173144 0.20557 0.280766
0.219867 0.201587 0.331914
0.430594 0.201755 0.401465
0.651331 0.218814 0.424582
0.732784 0.212848 0.418173
0.737819 0.204776 0.404959
0.73846 0.203861 0.403601
0.241932 0.348516 0.373999
0.233692 0.332723 0.362783
0.244572 0.319219 0.364294
0.305913 0.316976 0.393744
0.53962 0.314778 0.515267
0.743694 0.317571 0.536339
0.813718 0.315831 0.524102
0.796109 0.292134 0.493675
0.796887 0.290455 0.491783
0.519539 0.684962 0.601068
0.503395 0.670893 0.583124
0.487755 0.646433 0.567376
0.518242 0.606348 0.552544
0.720516 0.687907 0.659953
0.846189 0.666987 0.703975
0.9149 0.665293 0.706477
0.916274 0.641337 0.694301
0.916838 0.638911 0.693095
0.648173 0.80737 0.708278
0.643961 0.802213 0.705379
0.638392 0.793942 0.696818
0.666377 0.787411 0.694209
0.825147 0.848234 0.782605
0.908034 0.885008 0.835233
0.932967 0.864958 0.798688
0.939757 0.85832 0.7841
0.940017 0.857801 0.783047
0.663798 0.824109 0.723156
0.664393 0.824445 0.722927
0.665934 0.82504 0.722057
0.696101 0.824155 0.726009
0.826078 0.857557 0.785321
0.946883 0.941512 0.89865
0.95288 0.9449 0.882704
0.977676 0.944183 0.887282
0.977722 0.94345 0.88629
0.666178 0.825193 0.721248
0.666209 0.825208 0.720638
0.666331 0.825223 0.719341
0.694347 0.823835 0.724559
0.816373 0.851804 0.780056
0.94609 0.942687 0.89958
0.948913 0.946258 0.886061
0.96701 0.962356 0.896513
0.968841 0.963043 0.896727
0.666178 0.825193 0.721325
0.666209 0.825208 0.720729
0.666316 0.825223 0.719463
0.69398 0.823758 0.724361
0.814176 0.850629 0.778744
0.945983 0.942489 0.899428
0.94902 0.946075 0.886503
0.9664 0.963027 0.89778
0.968429 0.964111 0.89865
0.137987 0.177279 0.252903
0.142626 0.176349 0.257847
0.152911 0.176394 0.276036
0.218173 0.183581 0.343008
0.446769 0.199802 0.443854
0.64477 0.2177 0.492744
0.686885 0.227207 0.492164
0.692622 0.227481 0.484749
0.693278 0.227512 0.483818
0.144137 0.187945 0.260975
0.147814 0.185901 0.269215
0.160403 0.184085 0.281788
0.213489 0.184207 0.33991
0.436423 0.199954 0.444434
0.642771 0.216236 0.497337
0.684215 0.227008 0.495476
0.687617 0.227253 0.491432
0.688197 0.227283 0.490669
0.1664 0.21445 0.292576
0.167452 0.211246 0.293233
0.177218 0.209491 0.30547
0.228565 0.206149 0.364874
0.437537 0.207568 0.46128
0.629191 0.214496 0.502464
0.680919 0.227329 0.504463
0.682002 0.226825 0.498711
0.682322 0.226856 0.498207
0.253971 0.360372 0.398047
0.242695 0.342748 0.389776
0.253712 0.327352 0.390173
0.312062 0.3205 0.418708
0.531151 0.31751 0.56173
0.743572 0.323873 0.621561
0.785885 0.307073 0.611551
0.762387 0.290288 0.58349
0.758999 0.287999 0.579507
0.515129 0.678279 0.606424
0.494224 0.661006 0.588678
0.487968 0.635599 0.573373
0.516335 0.595453 0.562783
0.68333 0.649638 0.646647
0.833356 0.663005 0.748989
0.896391 0.642893 0.759426
0.890135 0.622965 0.749645
0.888899 0.620584 0.747448
0.646311 0.807752 0.710094
0.639826 0.801526 0.706493
0.631342 0.792538 0.700328
0.655055 0.780499 0.700481
0.787045 0.821973 0.767407
0.904082 0.885161 0.846799
0.941512 0.873991 0.851102
0.945357 0.868467 0.847974
0.945357 0.867536 0.847608
0.6636 0.823987 0.723232
0.6636 0.823987 0.723232
0.6636 0.823987 0.723232
0.690105 0.822385 0.731151
0.790097 0.846571 0.777493
0.93724 0.934218 0.894759
0.957641 0.941787 0.907454
0.963485 0.940414 0.902785
0.963378 0.939498 0.902083
0.663584 0.823987 0.723232
0.663584 0.823987 0.723232
0.663584 0.823987 0.723232
0.688289 0.822873 0.730632
0.782971 0.842054 0.773037
0.934585 0.93312 0.892271
0.964538 0.955535 0.921798
0.967132 0.956024 0.919081
0.967376 0.956069 0.918547
0.6636 0.823987 0.723232
0.6636 0.823987 0.723232
0.6636 0.823987 0.723232
0.68806 0.822995 0.730632
0.782498 0.841505 0.772366
0.934218 0.932815 0.891798
0.964431 0.955398 0.921721
0.967559 0.958114 0.921706
0.96788 0.958328 0.921172
0.139895 0.178424 0.25835
0.143877 0.177646 0.262608
0.154788 0.177325 0.279911
0.221103 0.185306 0.352834
0.448264 0.201465 0.462333
0.653376 0.220325 0.524849
0.679744 0.226047 0.515343
0.679942 0.227527 0.508721
0.68011 0.227512 0.508034
0.145113 0.187579 0.270359
0.149294 0.186709 0.277668
0.159869 0.185534 0.2878
0.215702 0.18471 0.34905
0.439612 0.201968 0.462531
0.647334 0.21973 0.526024
0.680262 0.224704 0.520989
0.679683 0.226383 0.514031
0.679698 0.226596 0.513252
0.168048 0.215518 0.297902
0.16849 0.212116 0.298329
0.181247 0.21004 0.31342
0.234913 0.206683 0.374853
0.439048 0.209598 0.477958
0.631769 0.219623 0.527337
0.685664 0.22536 0.535866
0.681758 0.224094 0.526833
0.681193 0.223911 0.525536
0.254902 0.361761 0.398779
0.243412 0.343893 0.390463
0.256123 0.329686 0.393973
0.31548 0.32401 0.425971
0.533486 0.319097 0.580407
0.743008 0.333944 0.643778
0.790158 0.315557 0.641184
0.772045 0.294408 0.61976
0.76788 0.290837 0.615061
0.517128 0.680034 0.608377
0.495369 0.662196 0.589792
0.488655 0.636606 0.573892
0.51722 0.596201 0.56492
0.670573 0.636957 0.64332
0.828397 0.659937 0.756985
0.895338 0.645792 0.774289
0.888945 0.620706 0.764492
0.888334 0.618097 0.762982
0.646662 0.808087 0.710338
0.640452 0.802121 0.706813
0.631662 0.792828 0.700542
0.65539 0.780911 0.700771
0.784512 0.818738 0.765087
0.899748 0.879698 0.845762
0.936324 0.870115 0.865095
0.942763 0.865125 0.860395
0.942687 0.864149 0.859937
0.6636 0.823987 0.723232
0.6636 0.823987 0.723232
0.663584 0.823987 0.723232
0.690028 0.822385 0.731121
0.789456 0.84625 0.777157
0.935653 0.93225 0.893309
0.957519 0.941329 0.910155
0.96144 0.939803 0.907912
0.961608 0.939452 0.907439
0.6636 0.823987 0.723232
0.663584 0.823987 0.723232
0.663584 0.823987 0.723232
0.688212 0.822919 0.730632
0.782834 0.841886 0.772824
0.933669 0.931945 0.891279
0.964355 0.956374 0.926207
0.969451 0.96144 0.929854
0.969299 0.961135 0.92958
0.6636 0.823987 0.723247
0.663584 0.823987 0.723232
0.6636 0.823987 0.723232
0.688029 0.823056 0.730632
0.78233 0.841306 0.772137
0.93341 0.931777 0.890898
0.964187 0.956161 0.925933
0.970474 0.962966 0.931228
0.970642 0.963149 0.931426
0.140078 0.178515 0.258869
0.143862 0.17763 0.263447
0.155062 0.177432 0.280446
0.221286 0.185412 0.353582
0.448569 0.201541 0.464179
0.655299 0.22089 0.528298
0.679988 0.225116 0.519051
0.679774 0.226932 0.512078
0.679805 0.227131 0.511299
0.145113 0.187579 0.270359
0.149401 0.186664 0.278172
0.159762 0.185687 0.28835
0.215976 0.184741 0.350164
0.439857 0.201923 0.464271
0.648035 0.219944 0.529366
0.680934 0.22388 0.524758
0.679805 0.225422 0.517708
0.679789 0.22562 0.51693
0.168124 0.215579 0.297993
0.168536 0.212177 0.29836
0.181582 0.210132 0.31429
0.235676 0.206882 0.376471
0.439124 0.209934 0.47953
0.631907 0.220844 0.530404
0.687648 0.226047 0.540597
0.683726 0.22472 0.531456
0.683192 0.224552 0.530205
0.254902 0.361776 0.398749
0.24358 0.344213 0.39057
0.256123 0.329686 0.393988
0.316091 0.324285 0.426734
0.534524 0.319402 0.581888
0.743603 0.335607 0.646555
0.790097 0.317021 0.643824
0.773007 0.296284 0.624186
0.7691 0.292775 0.620142
0.517632 0.68043 0.608804
0.495369 0.662196 0.589792
0.488716 0.636805 0.573983
0.517189 0.596201 0.564874
0.669902 0.636072 0.643198
0.827909 0.659358 0.758053
0.894865 0.646006 0.776425
0.888304 0.621225 0.765881
0.887892 0.618769 0.76466
0.64686 0.808255 0.710445
0.640452 0.802136 0.706813
0.631785 0.79295 0.700648
0.65536 0.780865 0.700771
0.784558 0.81886 0.765148
0.899062 0.878752 0.845472
0.935805 0.869169 0.866453
0.942321 0.864897 0.861051
0.942306 0.864027 0.860655
0.6636 0.823987 0.723232
0.6636 0.823987 0.723232
0.6636 0.823987 0.723232
0.690028 0.822385 0.731121
0.789471 0.84625 0.777157
0.935668 0.932296 0.893355
0.957427 0.941222 0.910353
0.961349 0.939559 0.908217
0.961395 0.939132 0.907729
0.6636 0.823987 0.723232
0.663584 0.823987 0.723232
0.6636 0.823987 0.723232
0.688212 0.822904 0.730617
0.782742 0.841794 0.772717
0.933623 0.931914 0.891218
0.964355 0.956374 0.926207
0.969543 0.961624 0.930007
0.969451 0.96144 0.929854
0.6636 0.823987 0.723232
0.6636 0.823987 0.723247
0.6636 0.823987 0.723247
0.688029 0.823056 0.730663
0.782254 0.841215 0.772015
0.933364 0.931716 0.890822
0.964157 0.956146 0.925917
0.97055 0.963043 0.931289
0.970657 0.963149 0.931426
