Vakken/Video videoverdieping/Opdrachten/Kortfilm/LUTS/DaGreenishRuff(LOG).cube
TITLE "Generated by Resolve"
LUT_3D_SIZE 5
0.108659 0.153079 0.152163
0.140795 0.159075 0.154726
0.472633 0.169207 0.135531
0.732555 0.185458 0.122225
0.732509 0.185443 0.12221
0.151049 0.204425 0.190646
0.173739 0.198047 0.179065
0.449012 0.170108 0.136858
0.73257 0.185458 0.122225
0.732555 0.185458 0.122225
0.638041 0.73344 0.550286
0.602457 0.699123 0.51165
0.834043 0.701152 0.386709
0.808927 0.51873 0.21471
0.817502 0.49398 0.20943
0.815183 0.900404 0.749218
0.816754 0.902098 0.747066
0.778241 0.853223 0.576837
1 0.972473 0.715068
1 0.969604 0.721721
0.814649 0.899321 0.74995
0.816129 0.901411 0.748058
0.776104 0.853483 0.585946
1 0.986542 0.710536
1 0.985626 0.730877
0.112398 0.157061 0.163729
0.143816 0.159808 0.170718
0.476432 0.169329 0.138811
0.73257 0.185458 0.122225
0.73257 0.185458 0.122225
0.156024 0.210239 0.200595
0.170489 0.203128 0.196536
0.460426 0.171527 0.144045
0.73257 0.185458 0.122225
0.73257 0.185458 0.122225
0.641718 0.731517 0.572168
0.623362 0.705104 0.543191
0.826825 0.722072 0.451209
0.828962 0.536599 0.238865
0.820081 0.50312 0.226184
0.796902 0.880339 0.74612
0.803983 0.887297 0.750317
0.791104 0.854276 0.629084
1 0.98201 0.758144
1 0.978592 0.757946
0.793988 0.876982 0.743542
0.800778 0.884215 0.748821
0.808194 0.864454 0.653895
1 0.986984 0.741115
1 0.988388 0.760418
0.122103 0.166247 0.203586
0.146059 0.17203 0.22768
0.492866 0.167086 0.256001
0.75642 0.197803 0.209155
0.754025 0.196597 0.199023
0.148623 0.202869 0.238209
0.169955 0.202396 0.251102
0.462593 0.187304 0.28983
0.75433 0.197284 0.227207
0.754208 0.196155 0.217807
0.533227 0.679698 0.561746
0.517479 0.644526 0.534539
0.738399 0.700496 0.627283
0.928023 0.620447 0.48835
0.92224 0.589334 0.462409
0.684123 0.817227 0.706874
0.685985 0.810361 0.70161
0.885145 0.908202 0.832853
0.997314 0.970581 0.851408
1 0.973953 0.873259
0.681956 0.818753 0.708019
0.683482 0.81384 0.704036
0.874846 0.895827 0.818677
0.972519 0.973236 0.854307
1 0.98204 0.871412
0.137987 0.177279 0.252903
0.152911 0.176394 0.276036
0.446769 0.199802 0.443854
0.686885 0.227207 0.492164
0.693278 0.227512 0.483818
0.1664 0.21445 0.292576
0.177218 0.209491 0.30547
0.437537 0.207568 0.46128
0.680919 0.227329 0.504463
0.682322 0.226856 0.498207
0.515129 0.678279 0.606424
0.487968 0.635599 0.573373
0.68333 0.649638 0.646647
0.896391 0.642893 0.759426
0.888899 0.620584 0.747448
0.6636 0.823987 0.723232
0.6636 0.823987 0.723232
0.790097 0.846571 0.777493
0.957641 0.941787 0.907454
0.963378 0.939498 0.902083
0.6636 0.823987 0.723232
0.6636 0.823987 0.723232
0.782498 0.841505 0.772366
0.964431 0.955398 0.921721
0.96788 0.958328 0.921172
0.140078 0.178515 0.258869
0.155062 0.177432 0.280446
0.448569 0.201541 0.464179
0.679988 0.225116 0.519051
0.679805 0.227131 0.511299
0.168124 0.215579 0.297993
0.181582 0.210132 0.31429
0.439124 0.209934 0.47953
0.687648 0.226047 0.540597
0.683192 0.224552 0.530205
0.517632 0.68043 0.608804
0.488716 0.636805 0.573983
0.669902 0.636072 0.643198
0.894865 0.646006 0.776425
0.887892 0.618769 0.76466
0.6636 0.823987 0.723232
0.6636 0.823987 0.723232
0.789471 0.84625 0.777157
0.957427 0.941222 0.910353
0.961395 0.939132 0.907729
0.6636 0.823987 0.723232
0.6636 0.823987 0.723247
0.782254 0.841215 0.772015
0.964157 0.956146 0.925917
0.970657 0.963149 0.931426
