Vakken/Video videoverdieping/Opdrachten/Kortfilm/LUTS/DaGreenishRuff(LOG).cube
TITLE "Generated by Resolve"
LUT_3D_SIZE 33
0.108659 0.153079 0.152163
0.109224 0.152911 0.152132
0.110765 0.15256 0.152132
0.113191 0.152102 0.151904
0.115068 0.151781 0.151232
0.117708 0.153414 0.151614
0.12195 0.155047 0.152468
0.131106 0.157305 0.153628
0.140795 0.159075 0.154726
0.154284 0.161563 0.154025
0.169924 0.162966 0.151934
0.202808 0.165774 0.15227
0.238087 0.169238 0.155077
0.282933 0.172335 0.145937
0.33373 0.168978 0.142306
0.397955 0.169726 0.142535
0.472633 0.169207 0.135531
0.543389 0.173709 0.133989
0.606699 0.174044 0.128344
0.655558 0.176516 0.12639
0.703975 0.181903 0.123354
0.710414 0.181994 0.121965
0.717357 0.183124 0.12163
0.725078 0.184466 0.121569
0.732555 0.185458 0.122225
0.732555 0.185458 0.122225
0.732555 0.185458 0.122225
0.732555 0.185458 0.122225
0.732555 0.185458 0.122225
0.73257 0.185458 0.122225
0.732555 0.185458 0.122225
0.732509 0.185443 0.12221
0.732509 0.185443 0.12221
0.111528 0.156893 0.154833
0.112078 0.156741 0.154955
0.112978 0.156542 0.154788
0.114809 0.156191 0.154589
0.116335 0.155642 0.153841
0.119005 0.155795 0.153368
0.122942 0.156237 0.153277
0.131243 0.157733 0.15378
0.140185 0.158968 0.154681
0.153582 0.161501 0.154208
0.169284 0.162905 0.151843
0.201358 0.165621 0.152331
0.236667 0.168963 0.154559
0.281254 0.172335 0.145998
0.33193 0.168994 0.142611
0.396048 0.169833 0.143175
0.470298 0.169131 0.135637
0.541909 0.173816 0.134295
0.604883 0.173846 0.128435
0.654063 0.176471 0.126268
0.702602 0.181888 0.123644
0.709392 0.181979 0.122194
0.716564 0.182986 0.121645
0.724636 0.18439 0.121569
0.73257 0.185458 0.122225
0.732555 0.185458 0.122225
0.73257 0.185458 0.122225
0.732555 0.185458 0.122225
0.73257 0.185458 0.122225
0.73257 0.185458 0.122225
0.732555 0.185458 0.122225
0.732555 0.185458 0.122225
0.732555 0.185458 0.122225
0.113481 0.159426 0.156649
0.113863 0.159335 0.156329
0.114504 0.159182 0.156176
0.115785 0.158953 0.15581
0.117662 0.158587 0.155474
0.120302 0.157885 0.155001
0.123827 0.157427 0.154131
0.131365 0.158175 0.153994
0.139559 0.158862 0.15462
0.152956 0.161379 0.154299
0.168658 0.162829 0.15172
0.199939 0.165621 0.152422
0.235279 0.168688 0.15407
0.279805 0.171679 0.146731
0.330159 0.169024 0.142916
0.394263 0.169909 0.143374
0.46804 0.16907 0.135729
0.540444 0.173907 0.1346
0.603113 0.173632 0.128527
0.652628 0.17644 0.126162
0.701259 0.181872 0.123934
0.70837 0.181964 0.122408
0.715785 0.182849 0.12166
0.724269 0.184329 0.121553
0.73257 0.185458 0.122225
0.73257 0.185458 0.122225
0.73257 0.185458 0.122225
0.73257 0.185458 0.122225
0.73257 0.185458 0.122225
0.73257 0.185458 0.122225
0.732555 0.185458 0.122225
0.732555 0.185458 0.122225
0.732555 0.185458 0.122225
0.116854 0.162966 0.159197
0.118517 0.162463 0.159655
0.118212 0.162493 0.159075
0.119005 0.162219 0.158587
0.120531 0.161791 0.158236
0.123613 0.161364 0.157794
0.127062 0.160922 0.157198
0.133608 0.16054 0.155886
0.141024 0.16054 0.154513
0.152529 0.162737 0.154543
0.167865 0.162753 0.151583
0.19823 0.165606 0.152468
0.233661 0.168383 0.153506
0.278096 0.170916 0.14757
0.328084 0.169055 0.143313
0.392203 0.16997 0.143328
0.465064 0.168978 0.135866
0.537392 0.173907 0.134615
0.600916 0.173388 0.128634
0.650767 0.176394 0.126009
0.699504 0.181857 0.124315
0.707103 0.181949 0.122683
0.714794 0.182666 0.121691
0.723766 0.184237 0.121569
0.73257 0.185458 0.122225
0.73257 0.185458 0.122225
0.73257 0.185458 0.122225
0.73257 0.185458 0.122225
0.73257 0.185458 0.122225
0.73257 0.185458 0.122225
0.73257 0.185458 0.122225
0.732555 0.185458 0.122225
0.732555 0.185458 0.122225
0.11812 0.167056 0.161288
0.118502 0.166812 0.160601
0.121904 0.166155 0.162112
0.121874 0.166018 0.161318
0.12224 0.165698 0.160418
0.125231 0.165438 0.159854
0.128527 0.165545 0.158831
0.134447 0.164981 0.157351
0.141741 0.163134 0.154757
0.15256 0.164248 0.154955
0.167086 0.162661 0.151446
0.196521 0.165606 0.152499
0.232029 0.168078 0.152941
0.276402 0.170153 0.148455
0.326238 0.169085 0.14374
0.390143 0.170031 0.143267
0.462104 0.168872 0.135988
0.534203 0.173907 0.1346
0.598657 0.173205 0.128649
0.648707 0.176303 0.125811
0.69778 0.181842 0.124681
0.705791 0.181933 0.122957
0.713939 0.182528 0.121736
0.723247 0.184161 0.121553
0.73257 0.185458 0.122225
0.73257 0.185458 0.122225
0.73257 0.185458 0.122225
0.73257 0.185458 0.122225
0.73257 0.185458 0.122225
0.73257 0.185458 0.122225
0.73257 0.185458 0.122225
0.73257 0.185458 0.122225
0.732555 0.185458 0.122225
0.127382 0.175753 0.170123
0.127703 0.175586 0.169589
0.128466 0.175479 0.169177
0.130877 0.17467 0.1691
0.134356 0.173663 0.169528
0.135027 0.173785 0.168597
0.135943 0.173632 0.16669
0.14078 0.17322 0.162234
0.146197 0.172854 0.160327
0.156146 0.172717 0.157321
0.17644 0.170855 0.160906
0.198856 0.168978 0.154696
0.232303 0.16907 0.153155
0.275395 0.170382 0.148913
0.323857 0.169131 0.144564
0.387213 0.170153 0.143252
0.457633 0.168704 0.136187
0.528679 0.173846 0.134569
0.594842 0.172961 0.128588
0.64538 0.176181 0.12549
0.694987 0.18172 0.12517
0.703807 0.181903 0.123384
0.712581 0.1823 0.121798
0.722454 0.184024 0.121569
0.73257 0.185458 0.122225
0.73257 0.185458 0.122225
0.73257 0.185458 0.122225
0.73257 0.185458 0.122225
0.73257 0.185458 0.122225
0.73257 0.185458 0.122225
0.73257 0.185458 0.122225
0.73257 0.185458 0.122225
0.73257 0.185458 0.122225
0.134295 0.180133 0.175769
0.134386 0.179843 0.175204
0.134295 0.179431 0.174258
0.134813 0.179416 0.172564
0.135576 0.180026 0.170977
0.140978 0.180529 0.171756
0.143984 0.18027 0.172534
0.144884 0.180453 0.168261
0.152209 0.179065 0.166674
0.158785 0.180758 0.162493
0.178485 0.173175 0.16144
0.199863 0.171511 0.155871
0.23238 0.170047 0.153338
0.274311 0.170459 0.149248
0.321477 0.169162 0.145388
0.384085 0.170275 0.143236
0.452842 0.168521 0.136263
0.523064 0.173754 0.134524
0.591012 0.172732 0.128557
0.642084 0.176074 0.125154
0.691341 0.181048 0.125109
0.701747 0.181888 0.123827
0.711101 0.18204 0.121859
0.721584 0.183871 0.121569
0.732555 0.185458 0.122225
0.73257 0.185458 0.122225
0.73257 0.185458 0.122225
0.73257 0.185458 0.122225
0.73257 0.185458 0.122225
0.73257 0.185458 0.122225
0.73257 0.185458 0.122225
0.73257 0.185458 0.122225
0.732555 0.185458 0.122225
0.143771 0.19382 0.183505
0.143694 0.193408 0.182467
0.143557 0.192889 0.181353
0.143404 0.192248 0.178531
0.143648 0.191928 0.176516
0.146197 0.192187 0.174685
0.15378 0.19115 0.174044
0.1608 0.189822 0.175113
0.159594 0.190738 0.171038
0.164904 0.187869 0.166857
0.178286 0.182834 0.160388
0.201831 0.181567 0.160174
0.236683 0.178805 0.154253
0.282307 0.181888 0.148898
0.328984 0.173648 0.145571
0.389609 0.17293 0.143954
0.451148 0.169375 0.136614
0.518166 0.174212 0.134096
0.585473 0.172366 0.128496
0.637156 0.175921 0.124804
0.686107 0.180102 0.125048
0.698787 0.181842 0.124468
0.709148 0.181979 0.12224
0.720439 0.183658 0.121584
0.73257 0.185458 0.122225
0.73257 0.185458 0.122225
0.73257 0.185458 0.122225
0.73257 0.185458 0.122225
0.73257 0.185458 0.122225
0.73257 0.185458 0.122225
0.73257 0.185458 0.122225
0.73257 0.185458 0.122225
0.73257 0.185458 0.122225
0.151049 0.204425 0.190646
0.150042 0.203372 0.189883
0.149187 0.202472 0.189197
0.149767 0.202304 0.187671
0.149432 0.201434 0.185321
0.149401 0.200183 0.181689
0.151186 0.200305 0.179278
0.159991 0.201785 0.179828
0.173739 0.198047 0.179065
0.172015 0.197543 0.17293
0.180606 0.19379 0.168475
0.201892 0.191135 0.161898
0.23006 0.188434 0.158968
0.28452 0.183337 0.147265
0.334493 0.178973 0.147784
0.392859 0.174609 0.143801
0.449012 0.170108 0.136858
0.513161 0.174578 0.133547
0.579934 0.172061 0.128511
0.632105 0.175769 0.125551
0.681025 0.179217 0.125017
0.695766 0.181811 0.125109
0.707164 0.181949 0.122667
0.71928 0.183459 0.121599
0.73257 0.185458 0.122225
0.73257 0.185458 0.122225
0.73257 0.185458 0.122225
0.73257 0.185458 0.122225
0.73257 0.185458 0.122225
0.73257 0.185458 0.122225
0.73257 0.185458 0.122225
0.73257 0.185458 0.122225
0.732555 0.185458 0.122225
0.167407 0.223285 0.197375
0.166949 0.222217 0.196628
0.166217 0.221363 0.19649
0.166491 0.22089 0.196277
0.166659 0.220478 0.19585
0.166796 0.220157 0.194965
0.165438 0.219074 0.193179
0.169528 0.218494 0.188128
0.175494 0.218006 0.18468
0.202274 0.213703 0.189425
0.201999 0.211872 0.181827
0.21059 0.208301 0.170184
0.231373 0.200336 0.160693
0.278691 0.196017 0.152865
0.336797 0.189792 0.144594
0.396704 0.184344 0.142672
0.474937 0.18349 0.133776
0.543587 0.180499 0.133608
0.605188 0.182132 0.135164
0.648539 0.18352 0.129488
0.690013 0.183215 0.124651
0.698604 0.183062 0.123903
0.706783 0.18233 0.12256
0.719402 0.183688 0.121798
0.73257 0.185458 0.122225
0.73257 0.185458 0.122225
0.73257 0.185458 0.122225
0.73257 0.185458 0.122225
0.73257 0.185458 0.122225
0.73257 0.185458 0.122225
0.73257 0.185458 0.122225
0.73257 0.185458 0.122225
0.73257 0.185458 0.122225
0.180774 0.244297 0.212543
0.180575 0.242496 0.211231
0.179187 0.241016 0.209873
0.180102 0.240543 0.209735
0.180346 0.239963 0.208606
0.181033 0.239567 0.206958
0.180987 0.23917 0.205173
0.178454 0.235126 0.198505
0.179217 0.234195 0.191882
0.190997 0.23856 0.189212
0.229114 0.231586 0.194247
0.226947 0.230655 0.18117
0.246189 0.220768 0.164248
0.281926 0.210636 0.162264
0.33344 0.206378 0.146365
0.409628 0.202579 0.143679
0.485832 0.194995 0.13463
0.560021 0.192798 0.132738
0.618723 0.190875 0.130602
0.662242 0.189517 0.127733
0.697673 0.188724 0.122469
0.701396 0.184421 0.122698
0.706142 0.182696 0.122499
0.719539 0.183932 0.121996
0.73257 0.185458 0.122225
0.73257 0.185458 0.122225
0.73257 0.185458 0.122225
0.73257 0.185458 0.122225
0.73257 0.185458 0.122225
0.73257 0.185458 0.122225
0.73257 0.185458 0.122225
0.73257 0.185458 0.122225
0.73257 0.185458 0.122225
0.20174 0.28632 0.228168
0.199573 0.282994 0.22591
0.197589 0.279957 0.224018
0.197101 0.277394 0.222843
0.196017 0.275654 0.222293
0.199756 0.27509 0.22295
0.202365 0.27454 0.223041
0.203983 0.274372 0.221393
0.19913 0.271412 0.21387
0.197162 0.263722 0.201328
0.218402 0.272618 0.2009
0.28043 0.264714 0.20235
0.285176 0.262272 0.189807
0.296666 0.241489 0.170871
0.347326 0.232563 0.158343
0.420844 0.228092 0.146944
0.508202 0.223407 0.145083
0.5794 0.217792 0.137621
0.643153 0.215518 0.124697
0.691997 0.20943 0.124071
0.729763 0.2112 0.122606
0.737575 0.209934 0.121691
0.742702 0.204685 0.117723
0.759335 0.20325 0.117708
0.772778 0.203006 0.119112
0.771206 0.201236 0.118547
0.76965 0.199649 0.118105
0.768856 0.198978 0.117937
0.768261 0.198398 0.11783
0.7682 0.198276 0.117815
0.768124 0.198169 0.117815
0.768017 0.198077 0.117784
0.76791 0.197986 0.117769
0.254612 0.357641 0.262791
0.251225 0.353719 0.261234
0.247883 0.350286 0.259464
0.244053 0.346212 0.256611
0.240513 0.34255 0.253574
0.24332 0.340902 0.253544
0.245533 0.339422 0.253498
0.248524 0.337987 0.252171
0.25124 0.337163 0.248753
0.249378 0.330571 0.239765
0.231983 0.3149 0.217929
0.268254 0.329824 0.209796
0.370901 0.32079 0.218357
0.377707 0.315373 0.199237
0.367056 0.280034 0.172
0.42414 0.264866 0.16408
0.502251 0.260868 0.155764
0.585199 0.258625 0.144457
0.659785 0.254231 0.136751
0.714565 0.251225 0.134768
0.757412 0.249607 0.130861
0.772366 0.244083 0.130877
0.782391 0.238025 0.128389
0.792081 0.236255 0.12517
0.799023 0.232547 0.120729
0.797955 0.230289 0.120012
0.795636 0.22739 0.119036
0.793439 0.224994 0.119387
0.791608 0.222919 0.119738
0.791089 0.2224 0.119829
0.790585 0.221927 0.119921
0.790219 0.221607 0.119966
0.789868 0.221286 0.120043
0.335851 0.452705 0.319661
0.331899 0.448783 0.316152
0.327398 0.444175 0.312444
0.320775 0.437613 0.308125
0.314076 0.430243 0.303563
0.315511 0.427543 0.301976
0.316701 0.424475 0.300389
0.319997 0.422812 0.299001
0.322576 0.421241 0.296895
0.326619 0.419791 0.29221
0.318044 0.409506 0.280583
0.284382 0.37763 0.237995
0.344717 0.412741 0.238758
0.492226 0.407446 0.241505
0.519051 0.396933 0.238163
0.472786 0.351644 0.185275
0.51313 0.327276 0.176822
0.57734 0.312901 0.16965
0.63975 0.309483 0.157733
0.691966 0.306783 0.155657
0.747326 0.304387 0.146654
0.778851 0.298924 0.143786
0.795132 0.295033 0.141894
0.809552 0.291264 0.13727
0.825086 0.287266 0.133196
0.825711 0.282231 0.131487
0.825727 0.277836 0.128801
0.825193 0.275502 0.127947
0.826001 0.272694 0.128374
0.8262 0.272068 0.128481
0.826413 0.271443 0.128573
0.826551 0.271107 0.128603
0.826703 0.270802 0.128649
0.429236 0.551675 0.382162
0.424445 0.546609 0.379736
0.419135 0.542657 0.375418
0.411185 0.537606 0.370062
0.405341 0.532067 0.365301
0.404425 0.527001 0.362554
0.402869 0.522148 0.359747
0.405921 0.520012 0.357824
0.41059 0.518486 0.357321
0.417517 0.517128 0.356115
0.421332 0.514992 0.349096
0.388266 0.488884 0.308141
0.355398 0.458793 0.260395
0.458091 0.514473 0.267994
0.623117 0.507881 0.274754
0.659953 0.488563 0.283467
0.606638 0.454139 0.206394
0.597025 0.403204 0.187304
0.637537 0.381613 0.180346
0.680003 0.37232 0.179309
0.722393 0.368688 0.173175
0.749325 0.365499 0.171176
0.772519 0.358648 0.167025
0.796887 0.358068 0.163149
0.815274 0.352178 0.161883
0.821225 0.347478 0.159014
0.826764 0.342626 0.153643
0.826612 0.339879 0.151522
0.827848 0.338354 0.15108
0.828092 0.337957 0.150942
0.828275 0.337545 0.15079
0.828397 0.337255 0.150683
0.828504 0.336965 0.150576
0.531075 0.647105 0.457984
0.526192 0.642649 0.453407
0.521691 0.638743 0.449042
0.515404 0.633219 0.444099
0.50985 0.627878 0.439506
0.50518 0.622919 0.435859
0.500587 0.618311 0.4318
0.503731 0.616785 0.430182
0.507652 0.6159 0.428901
0.514641 0.615961 0.426902
0.519066 0.614664 0.422751
0.520241 0.611566 0.4112
0.441901 0.551934 0.328099
0.446494 0.546151 0.284825
0.568429 0.616053 0.310933
0.741024 0.609964 0.318563
0.782391 0.586435 0.336217
0.741802 0.571344 0.26949
0.699199 0.506355 0.209873
0.711955 0.477485 0.19675
0.737819 0.462943 0.195239
0.751431 0.446433 0.196918
0.76643 0.434302 0.190723
0.783169 0.428901 0.189822
0.795087 0.422797 0.189578
0.800778 0.419333 0.1879
0.806119 0.416449 0.18677
0.806378 0.413901 0.184878
0.80708 0.411566 0.182773
0.807248 0.411002 0.182239
0.807416 0.410422 0.181735
0.807492 0.410025 0.181338
0.807553 0.409659 0.180987
0.638041 0.73344 0.550286
0.633112 0.729747 0.545464
0.629053 0.726238 0.541726
0.622705 0.722164 0.536339
0.617426 0.717083 0.531899
0.609384 0.710872 0.525216
0.5953 0.700923 0.512825
0.599237 0.700236 0.51313
0.602457 0.699123 0.51165
0.606455 0.697292 0.50753
0.608621 0.696773 0.50367
0.609354 0.695338 0.49218
0.596902 0.682155 0.460639
0.496376 0.609979 0.340551
0.555108 0.645274 0.337392
0.6757 0.70724 0.374121
0.834043 0.701152 0.386709
0.872831 0.678538 0.401602
0.865538 0.674357 0.363149
0.82031 0.640803 0.289525
0.796078 0.592889 0.238682
0.790463 0.560327 0.222354
0.794385 0.539162 0.217411
0.800595 0.528252 0.215839
0.808927 0.51873 0.21471
0.812314 0.512322 0.211933
0.817533 0.505287 0.209644
0.817502 0.50132 0.209323
0.817349 0.497078 0.209293
0.817334 0.496101 0.209323
0.817349 0.495079 0.209369
0.817395 0.49453 0.209384
0.817502 0.49398 0.20943
0.710903 0.801877 0.622614
0.705623 0.799329 0.617288
0.701503 0.796399 0.613855
0.696666 0.791424 0.609857
0.692271 0.787717 0.605646
0.687388 0.781308 0.598245
0.679744 0.774151 0.591012
0.680186 0.772732 0.588037
0.680842 0.770687 0.586221
0.684153 0.769223 0.585122
0.688197 0.770077 0.584573
0.693965 0.771664 0.580224
0.698451 0.769848 0.568231
0.625986 0.715328 0.46479
0.575601 0.679637 0.374395
0.692012 0.751354 0.427756
0.780697 0.78616 0.450828
0.912322 0.783276 0.466239
0.945998 0.769085 0.47953
0.951675 0.765774 0.470283
0.936584 0.758251 0.427756
0.910765 0.734737 0.372213
0.878676 0.69575 0.307836
0.867948 0.670207 0.286778
0.855512 0.647028 0.262577
0.854963 0.63386 0.255192
0.857221 0.623011 0.248951
0.855177 0.616205 0.246448
0.853254 0.610895 0.245243
0.852674 0.609674 0.245182
0.852125 0.608591 0.24509
0.851789 0.607904 0.245045
0.851408 0.607294 0.245029
0.772671 0.858625 0.695735
0.771069 0.856031 0.693843
0.76849 0.853315 0.691188
0.764462 0.85034 0.686473
0.760845 0.847318 0.681331
0.757214 0.842985 0.673945
0.75201 0.838041 0.668376
0.752514 0.836011 0.664561
0.7523 0.833661 0.660029
0.755703 0.834821 0.660624
0.759503 0.835325 0.660456
0.764843 0.835355 0.657572
0.767407 0.835706 0.649836
0.745068 0.813581 0.600229
0.647913 0.738079 0.458518
0.687663 0.765332 0.451041
0.79823 0.837781 0.524224
0.873808 0.852857 0.53402
0.965698 0.844877 0.541527
0.993271 0.837064 0.555261
0.996475 0.835248 0.554711
0.99649 0.831113 0.547524
0.992844 0.828702 0.526467
0.984222 0.817472 0.497856
0.966308 0.801846 0.452384
0.956756 0.792187 0.436072
0.947875 0.778378 0.406653
0.945037 0.774227 0.398779
0.941878 0.767514 0.390005
0.941283 0.76492 0.387747
0.940597 0.762493 0.385443
0.940139 0.761135 0.384115
0.939651 0.759854 0.382879
0.78436 0.867781 0.708598
0.782101 0.866484 0.706508
0.780148 0.865736 0.704479
0.777768 0.864775 0.701793
0.775738 0.863783 0.699245
0.773983 0.861646 0.696925
0.772641 0.858854 0.695186
0.773022 0.857542 0.693889
0.772824 0.856153 0.692149
0.778347 0.858549 0.692409
0.783948 0.862715 0.692561
0.790738 0.862882 0.692424
0.797467 0.864759 0.688655
0.797818 0.864454 0.671
0.706828 0.78819 0.529976
0.695399 0.779675 0.480888
0.801663 0.850721 0.549889
0.862837 0.882643 0.581064
0.947982 0.889754 0.564782
0.996948 0.883284 0.586877
1 0.87863 0.598733
1 0.876493 0.601541
1 0.873655 0.598489
1 0.871565 0.590997
1 0.870237 0.578073
1 0.868055 0.570047
1 0.865354 0.564202
1 0.862867 0.558022
1 0.85951 0.550988
1 0.85861 0.549554
1 0.85771 0.548257
0.999893 0.857114 0.547387
0.999496 0.856474 0.546456
0.794079 0.882261 0.724254
0.793042 0.881224 0.723018
0.792309 0.880034 0.721675
0.791714 0.878447 0.720012
0.791272 0.877165 0.718593
0.790509 0.874815 0.716045
0.789364 0.872526 0.713481
0.790433 0.872831 0.71339
0.79118 0.872877 0.712932
0.797909 0.877455 0.717617
0.807401 0.88307 0.721309
0.814984 0.887694 0.723018
0.821653 0.891768 0.720623
0.830549 0.893462 0.715938
0.773907 0.846387 0.619013
0.720195 0.799893 0.51812
0.789364 0.849638 0.552529
0.865232 0.902663 0.60911
0.922652 0.920638 0.61709
0.992081 0.921416 0.61561
1 0.920455 0.638666
1 0.915679 0.648051
1 0.911147 0.645762
1 0.908141 0.644038
1 0.905653 0.641062
1 0.904051 0.637903
1 0.902586 0.633814
1 0.900969 0.630579
1 0.899367 0.626749
1 0.898695 0.625437
1 0.898085 0.624292
1 0.897902 0.623972
1 0.897734 0.623667
0.806516 0.893553 0.735683
0.806134 0.893263 0.735134
0.805737 0.892943 0.7346
0.805203 0.892546 0.733898
0.804593 0.892119 0.733166
0.803586 0.891447 0.732052
0.802548 0.890852 0.731029
0.803738 0.890913 0.730831
0.804654 0.890852 0.730404
0.812619 0.893431 0.733455
0.817639 0.896864 0.737285
0.829908 0.904051 0.746181
0.839094 0.908721 0.746822
0.845045 0.912917 0.742321
0.809873 0.881651 0.672831
0.745388 0.821286 0.558206
0.781582 0.849409 0.556054
0.867765 0.913985 0.632105
0.913787 0.936797 0.64538
0.970535 0.943725 0.640543
1 0.93843 0.650645
1 0.937118 0.661265
1 0.936568 0.667964
1 0.935241 0.672633
1 0.933898 0.674144
1 0.932952 0.674159
1 0.932036 0.673457
1 0.93167 0.672953
1 0.931289 0.672389
1 0.931014 0.671885
1 0.930709 0.671366
1 0.930526 0.671
1 0.930327 0.67068
0.81593 0.901213 0.748302
0.816068 0.90135 0.74818
0.816159 0.901457 0.747997
0.816297 0.90161 0.747799
0.816434 0.901747 0.747616
0.816617 0.901946 0.74728
0.816785 0.902144 0.747036
0.817304 0.902449 0.746548
0.817761 0.902693 0.746059
0.825132 0.907423 0.752972
0.831525 0.911177 0.75613
0.84152 0.91397 0.757305
0.847959 0.917967 0.757855
0.854231 0.923354 0.755611
0.842664 0.91017 0.719768
0.760021 0.836103 0.584314
0.777935 0.849454 0.563287
0.860304 0.912306 0.63064
0.910597 0.945357 0.660609
0.954223 0.95819 0.663996
1 0.957824 0.664485
1 0.954437 0.674296
1 0.954055 0.681376
1 0.950805 0.68896
1 0.949187 0.690074
1 0.948516 0.690913
1 0.947997 0.691386
1 0.947845 0.69192
1 0.947723 0.692348
1 0.947601 0.692149
1 0.947478 0.691951
1 0.947402 0.691814
1 0.947311 0.691691
0.81561 0.900847 0.74873
0.815717 0.900954 0.748577
0.815839 0.901091 0.748516
0.815976 0.901244 0.748318
0.816114 0.901396 0.748135
0.816297 0.90161 0.747768
0.816526 0.901839 0.747509
0.816922 0.902144 0.747082
0.817304 0.902434 0.746624
0.825559 0.908583 0.754711
0.834165 0.913405 0.758999
0.84538 0.920256 0.763989
0.851453 0.924239 0.765591
0.858061 0.926741 0.761669
0.856626 0.924697 0.742489
0.776211 0.85066 0.607507
0.776928 0.850568 0.569528
0.85034 0.906264 0.624155
0.907134 0.946197 0.663996
0.945129 0.963424 0.674205
0.994812 0.96582 0.672099
1 0.969482 0.686122
1 0.964736 0.694713
1 0.962951 0.700908
1 0.959945 0.703502
1 0.958312 0.704204
1 0.957046 0.70457
1 0.957122 0.705562
1 0.957183 0.706569
1 0.957031 0.706386
1 0.956878 0.706218
1 0.956695 0.705928
1 0.956558 0.705684
0.815183 0.900404 0.749218
0.81532 0.900557 0.749081
0.815427 0.900664 0.748898
0.81561 0.900847 0.74873
0.815747 0.900999 0.748562
0.815976 0.901244 0.748302
0.816205 0.901503 0.748028
0.81648 0.901808 0.747509
0.816754 0.902098 0.747066
0.826276 0.909667 0.756069
0.836439 0.915633 0.762875
0.846922 0.9243 0.769406
0.853864 0.93077 0.773114
0.863172 0.93669 0.772625
0.868925 0.93817 0.760601
0.793393 0.866911 0.633753
0.778241 0.853223 0.576837
0.840925 0.897948 0.615412
0.904677 0.946899 0.666163
0.938689 0.966735 0.681163
0.981628 0.975982 0.682979
1 0.974838 0.689433
1 0.976715 0.701778
1 0.973449 0.708782
1 0.972473 0.715068
1 0.971618 0.717556
1 0.970565 0.719432
1 0.970352 0.720928
1 0.970184 0.722332
1 0.970047 0.722301
1 0.969924 0.722301
1 0.969772 0.722026
1 0.969604 0.721721
0.814923 0.900099 0.749523
0.81503 0.900252 0.74934
0.815183 0.900404 0.749203
0.815366 0.900603 0.749035
0.815518 0.900755 0.748821
0.815747 0.900999 0.748562
0.815976 0.901244 0.748302
0.816297 0.901595 0.747845
0.816571 0.9019 0.747356
0.825818 0.909209 0.756222
0.835416 0.914687 0.762951
0.846464 0.924056 0.76965
0.853132 0.930465 0.773693
0.862623 0.936324 0.773602
0.870069 0.939879 0.76405
0.801923 0.875334 0.646128
0.777905 0.853651 0.579705
0.832288 0.893782 0.608377
0.903029 0.947204 0.668162
0.934752 0.968292 0.684153
0.972305 0.979828 0.686763
1 0.978378 0.688029
1 0.97969 0.703075
1 0.979126 0.710582
1 0.975662 0.717845
1 0.975998 0.72221
1 0.976287 0.725521
1 0.976638 0.726986
1 0.976944 0.72845
1 0.976974 0.728695
1 0.977005 0.728908
1 0.976852 0.728771
1 0.976715 0.728664
0.814832 0.899763 0.749752
0.814893 0.899962 0.74966
0.814908 0.900114 0.749493
0.815091 0.900313 0.749325
0.815229 0.900465 0.749126
0.815518 0.900755 0.748821
0.815763 0.900999 0.748562
0.816083 0.90135 0.748135
0.816388 0.901701 0.747692
0.82533 0.908736 0.756298
0.834409 0.913741 0.763043
0.84596 0.923812 0.769802
0.852674 0.930022 0.774227
0.861997 0.935973 0.774624
0.869932 0.94052 0.766262
0.811963 0.881621 0.662989
0.7776 0.85452 0.583169
0.825483 0.890776 0.605585
0.899901 0.945281 0.66836
0.931197 0.969375 0.686519
0.966644 0.981125 0.687846
0.997192 0.981613 0.686732
1 0.980697 0.697749
1 0.983749 0.708202
1 0.977752 0.715587
1 0.97879 0.722713
1 0.97995 0.728664
1 0.98117 0.730175
1 0.982315 0.731563
1 0.982589 0.731884
1 0.98294 0.732265
1 0.982879 0.73225
1 0.982788 0.732189
0.814801 0.899657 0.749844
0.814847 0.899809 0.749752
0.814878 0.899962 0.749599
0.814939 0.90016 0.749432
0.815122 0.900359 0.749249
0.815412 0.900649 0.748989
0.815656 0.900893 0.748684
0.815976 0.901259 0.748287
0.816297 0.901595 0.747829
