Vakken/Video videoverdieping/Opdrachten/Kortfilm/LUTS/Horror_Night.cube
LUT_3D_SIZE 6
-0.049973 -0.052631 -0.056413
0.089647 -0.050130 -0.054151
0.392863 0.071628 0.069677
0.736262 0.152802 0.159546
0.787770 0.164371 0.180815
0.787772 0.164380 0.182509
-0.040895 0.086543 -0.049038
0.071233 0.085197 -0.047797
0.389358 0.096617 0.070606
0.734753 0.152469 0.156446
0.787766 0.164337 0.177769
0.787768 0.164355 0.179427
0.133467 0.398926 0.131677
0.133342 0.398603 0.131541
0.354570 0.396771 0.142462
0.723883 0.395130 0.186749
0.791633 0.381164 0.194524
0.791574 0.378862 0.194055
0.259921 0.756042 0.259217
0.259888 0.755921 0.259183
0.259706 0.754393 0.258672
0.678580 0.753703 0.279634
0.809075 0.741952 0.287599
0.809001 0.741083 0.287356
0.294553 0.855188 0.293964
0.294553 0.855188 0.293964
0.294553 0.855188 0.293964
0.614715 0.858428 0.308208
0.817606 0.862293 0.323962
0.818397 0.862314 0.324018
0.294553 0.855188 0.293964
0.294553 0.855188 0.293964
0.294553 0.855188 0.293964
0.603363 0.858205 0.307481
0.816221 0.862250 0.323831
0.818397 0.862314 0.324018
-0.049201 -0.051918 0.078470
0.085656 -0.049583 0.080818
0.392048 0.072050 0.120450
0.735765 0.153018 0.189741
0.787811 0.164668 0.208953
0.787814 0.164692 0.210601
-0.043227 0.070227 0.072374
0.064688 0.068606 0.073866
0.388584 0.085022 0.115052
0.734603 0.152719 0.186158
0.787806 0.164634 0.205910
0.787809 0.164640 0.207573
0.132492 0.396246 0.130679
0.132379 0.395932 0.130556
0.353512 0.394139 0.141536
0.723565 0.392527 0.186699
0.791570 0.378589 0.197988
0.791579 0.376122 0.198128
0.259596 0.755047 0.258890
0.259547 0.754898 0.258854
0.259295 0.753261 0.258279
0.678201 0.752645 0.279250
0.808992 0.741067 0.287317
0.808922 0.740195 0.287067
0.294553 0.855188 0.293964
0.294553 0.855188 0.293964
0.294553 0.855188 0.293964
0.614310 0.858420 0.308174
0.817562 0.862291 0.323956
0.818397 0.862314 0.324018
0.294553 0.855188 0.293964
0.294553 0.855188 0.293964
0.294553 0.855188 0.293964
0.602971 0.858197 0.307448
0.816124 0.862248 0.323825
0.818397 0.862314 0.324018
0.025504 0.016155 0.390954
0.037821 0.017001 0.391101
0.383877 0.082939 0.397463
0.733267 0.157330 0.416428
0.788287 0.169120 0.421127
0.788290 0.169132 0.421805
0.024905 0.014982 0.389412
0.025956 0.015133 0.389567
0.380064 0.082024 0.395878
0.731938 0.157022 0.415047
0.788281 0.169073 0.419804
0.788285 0.169098 0.420562
0.125509 0.361452 0.381238
0.125373 0.361064 0.381413
0.339864 0.358836 0.385324
0.719395 0.355750 0.404003
0.791114 0.343215 0.410785
0.791054 0.340419 0.411323
0.256553 0.743253 0.362213
0.256495 0.743028 0.362296
0.256189 0.741689 0.363917
0.673755 0.740674 0.380397
0.808396 0.728590 0.391234
0.808322 0.727583 0.391905
0.294722 0.855178 0.313837
0.294724 0.855179 0.314033
0.294753 0.855186 0.316527
0.609366 0.858397 0.335554
0.817092 0.862373 0.356266
0.818388 0.862414 0.357310
0.294614 0.855207 0.301616
0.294615 0.855207 0.301642
0.294629 0.855211 0.302867
0.597966 0.858197 0.322357
0.814335 0.862257 0.344901
0.818353 0.862380 0.346233
0.094867 0.093730 0.748545
0.094887 0.093760 0.748755
0.353845 0.113290 0.750584
0.722950 0.172069 0.754905
0.790230 0.184300 0.751220
0.790233 0.184322 0.751444
0.094808 0.093674 0.748193
0.094825 0.093687 0.748171
0.349547 0.112706 0.749947
0.721727 0.171792 0.754354
0.790225 0.184261 0.750612
0.790229 0.184291 0.751076
0.099760 0.148597 0.741598
0.099688 0.148065 0.741594
0.287737 0.143380 0.742802
0.704807 0.177620 0.748192
0.790222 0.188829 0.743773
0.790220 0.188398 0.744263
0.249700 0.696786 0.735601
0.249639 0.696575 0.735744
0.249042 0.694751 0.736184
0.657909 0.693296 0.743331
0.807715 0.691086 0.748245
0.807643 0.690155 0.748273
0.302141 0.856860 0.714843
0.302143 0.856860 0.714952
0.302169 0.856866 0.715597
0.603144 0.859970 0.729123
0.812588 0.863992 0.739810
0.820309 0.864079 0.740275
0.302071 0.856829 0.711242
0.302071 0.856829 0.711218
0.302071 0.856835 0.711936
0.590844 0.859755 0.724651
0.805718 0.863791 0.735888
0.820281 0.864106 0.736742
0.116949 0.116107 0.895619
0.116949 0.116107 0.895619
0.315592 0.127284 0.896385
0.705682 0.179663 0.900771
0.791531 0.194454 0.902415
0.791531 0.194454 0.902415
0.116949 0.116107 0.895619
0.116949 0.116107 0.895619
0.310718 0.126863 0.896348
0.704089 0.179408 0.900735
0.791531 0.194454 0.902415
0.791531 0.194454 0.902415
0.116949 0.116107 0.895619
0.116949 0.116107 0.895619
0.235756 0.121270 0.895974
0.685961 0.176386 0.900412
0.791531 0.194454 0.902415
0.791531 0.194454 0.902415
0.238534 0.639515 0.901484
0.238471 0.639320 0.901534
0.237777 0.637025 0.901771
0.639927 0.645220 0.907028
0.806181 0.642814 0.910563
0.806140 0.641742 0.910478
0.305616 0.850271 0.897567
0.305541 0.850079 0.897601
0.305174 0.848863 0.898263
0.586707 0.847315 0.902880
0.804580 0.847358 0.908297
0.820266 0.847084 0.908672
0.308106 0.858232 0.894454
0.308109 0.858232 0.894470
0.308133 0.858238 0.894955
0.575663 0.860945 0.899652
0.799530 0.865004 0.907124
0.821782 0.865520 0.907769
0.116949 0.116107 0.895619
0.116949 0.116107 0.895619
0.309231 0.126742 0.896337
0.703596 0.179322 0.900725
0.791531 0.194454 0.902415
0.791531 0.194454 0.902415
0.116949 0.116107 0.895619
0.116949 0.116107 0.895619
0.304263 0.126311 0.896300
0.702302 0.179099 0.900692
0.791531 0.194454 0.902415
0.791531 0.194454 0.902415
0.116949 0.116107 0.895619
0.116949 0.116107 0.895619
0.225444 0.120637 0.895922
0.683964 0.176059 0.900367
0.791531 0.194454 0.902415
0.791531 0.194454 0.902415
0.236202 0.630924 0.907947
0.236172 0.630779 0.907940
0.235482 0.628542 0.907857
0.636689 0.637041 0.911608
0.805720 0.634615 0.914251
0.805643 0.633526 0.914180
0.304402 0.844220 0.919215
0.304376 0.844098 0.919312
0.304005 0.842882 0.919605
0.583545 0.840929 0.922433
0.802909 0.842853 0.925943
0.819984 0.842760 0.926247
0.309008 0.858448 0.917426
0.309011 0.858448 0.917464
0.309010 0.858455 0.918049
0.573284 0.861046 0.922029
0.798201 0.865126 0.927101
0.821884 0.865687 0.927866
