Vakken/Video videoverdieping/Opdrachten/Kortfilm/LUTS/Horror_Night.cube
LUT_3D_SIZE 16
-0.049973 -0.052631 -0.056413
-0.049822 -0.052631 -0.056410
0.007734 -0.052149 -0.055971
0.089647 -0.050130 -0.054151
0.165471 -0.042319 -0.047275
0.270707 0.030923 0.020568
0.392863 0.071628 0.069677
0.515153 0.102167 0.102386
0.631374 0.129161 0.132110
0.736262 0.152802 0.159546
0.787763 0.164308 0.175063
0.787767 0.164347 0.178716
0.787770 0.164371 0.180815
0.787771 0.164382 0.181754
0.787772 0.164375 0.182063
0.787772 0.164380 0.182509
-0.049962 -0.052508 -0.056404
-0.049887 -0.052517 -0.056403
-0.011799 -0.052103 -0.055987
0.088734 -0.050167 -0.054196
0.164988 -0.042394 -0.047351
0.270421 0.030780 0.020204
0.392631 0.071575 0.069562
0.515085 0.102141 0.102285
0.631286 0.129136 0.131976
0.736047 0.152772 0.159392
0.787763 0.164307 0.174951
0.787767 0.164346 0.178571
0.787770 0.164370 0.180680
0.787771 0.164380 0.181588
0.787772 0.164373 0.181921
0.787772 0.164379 0.182380
-0.048324 -0.022446 -0.055036
-0.048335 -0.022886 -0.055042
-0.033604 -0.025176 -0.054872
0.082227 -0.035198 -0.053647
0.161486 -0.026138 -0.047014
0.268475 0.037250 0.019091
0.391443 0.071334 0.068891
0.514209 0.101935 0.101507
0.630761 0.129012 0.131030
0.735680 0.152690 0.158374
0.787761 0.164297 0.174002
0.787766 0.164345 0.177590
0.787769 0.164358 0.179673
0.787770 0.164368 0.180572
0.787770 0.164372 0.180915
0.787771 0.164378 0.181367
-0.040895 0.086543 -0.049038
-0.040912 0.086464 -0.049054
-0.039875 0.085795 -0.049148
0.071233 0.085197 -0.047797
0.155523 0.088331 -0.039813
0.265226 0.091963 0.032458
0.389358 0.096617 0.070606
0.512693 0.106579 0.100871
0.629646 0.128838 0.129500
0.734753 0.152469 0.156446
0.787759 0.164293 0.172199
0.787763 0.164324 0.175687
0.787766 0.164337 0.177769
0.787767 0.164347 0.178648
0.787768 0.164350 0.178995
0.787768 0.164355 0.179427
0.036322 0.164855 0.021176
0.036262 0.164749 0.021045
0.036035 0.164412 0.020554
0.051352 0.163794 0.020701
0.142792 0.163245 0.032978
0.258298 0.166990 0.056341
0.385269 0.168600 0.081749
0.509949 0.169483 0.107023
0.627538 0.169053 0.131233
0.733052 0.168134 0.154694
0.787781 0.166669 0.169027
0.787768 0.165207 0.171744
0.787767 0.164897 0.173598
0.787767 0.164767 0.174412
0.787767 0.164717 0.174735
0.787766 0.164661 0.175123
0.086400 0.273329 0.083037
0.086385 0.273319 0.083031
0.086308 0.273098 0.082946
0.086169 0.272744 0.082791
0.109336 0.271983 0.083147
0.240749 0.271509 0.091033
0.375099 0.274060 0.106905
0.503276 0.275360 0.125990
0.623062 0.274259 0.145766
0.729823 0.270218 0.164263
0.788632 0.263068 0.174388
0.788917 0.254626 0.173949
0.788841 0.249643 0.174145
0.788800 0.247478 0.174358
0.788786 0.246709 0.174458
0.788767 0.245654 0.174584
0.133467 0.398926 0.131677
0.133472 0.398947 0.131677
0.133438 0.398831 0.131642
0.133342 0.398603 0.131541
0.133138 0.397991 0.131324
0.201745 0.397215 0.133232
0.354570 0.396771 0.142462
0.489808 0.399139 0.156401
0.614081 0.399138 0.171893
0.723883 0.395130 0.186749
0.789094 0.388972 0.195667
0.791732 0.384043 0.195124
0.791633 0.381164 0.194524
0.791609 0.379892 0.194283
0.791594 0.379465 0.194179
0.791574 0.378862 0.194055
0.178556 0.524728 0.177365
0.178550 0.524697 0.177359
0.178528 0.524629 0.177337
0.178466 0.524494 0.177296
0.178343 0.524122 0.177173
0.179644 0.523272 0.176886
0.321119 0.522650 0.181861
0.468584 0.522375 0.191392
0.599684 0.523177 0.203679
0.714116 0.519366 0.215540
0.789529 0.512803 0.223507
0.796171 0.509278 0.223555
0.796102 0.507376 0.223066
0.796060 0.506540 0.222868
0.796045 0.506241 0.222793
0.796025 0.505833 0.222687
0.221264 0.645727 0.220386
0.221279 0.645759 0.220401
0.221254 0.645669 0.220358
0.221200 0.645552 0.220315
0.221120 0.645330 0.220252
0.220862 0.644614 0.219989
0.252480 0.643488 0.220400
0.437336 0.643488 0.228155
0.578335 0.643320 0.237672
0.699881 0.640301 0.247546
0.787198 0.632906 0.254554
0.802042 0.629402 0.255265
0.801971 0.628015 0.254872
0.801935 0.627488 0.254730
0.801917 0.627212 0.254655
0.801898 0.626946 0.254578
0.259921 0.756042 0.259217
0.259906 0.756005 0.259214
0.259966 0.756178 0.259262
0.259888 0.755921 0.259183
0.259810 0.755690 0.259115
0.259618 0.755113 0.258912
0.259706 0.754393 0.258672
0.386827 0.753645 0.262329
0.546530 0.753727 0.270387
0.678580 0.753703 0.279634
0.773843 0.748293 0.286155
0.808860 0.743123 0.287909
0.809075 0.741952 0.287599
0.809033 0.741497 0.287456
0.809026 0.741455 0.287428
0.809001 0.741083 0.287356
0.289081 0.839420 0.288469
0.289077 0.839406 0.288464
0.289071 0.839391 0.288459
0.289030 0.839337 0.288444
0.289016 0.839294 0.288430
0.288867 0.838865 0.288281
0.288643 0.838189 0.288029
0.316412 0.837210 0.288368
0.509802 0.837331 0.295633
0.650629 0.837347 0.303741
0.754977 0.837518 0.311372
0.811536 0.834875 0.315193
0.815959 0.833427 0.315147
0.815925 0.833037 0.315038
0.815915 0.832946 0.315010
0.815888 0.832721 0.314889
0.294553 0.855188 0.293964
0.294553 0.855188 0.293964
0.294553 0.855188 0.293964
0.294553 0.855188 0.293964
0.294553 0.855188 0.293964
0.294553 0.855188 0.293964
0.294553 0.855188 0.293964
0.302036 0.855182 0.294159
0.477370 0.856672 0.300503
0.628314 0.858648 0.309080
0.736709 0.860558 0.317067
0.800323 0.861904 0.322428
0.818397 0.862314 0.324018
0.818397 0.862314 0.324018
0.818397 0.862314 0.324018
0.818397 0.862314 0.324018
0.294553 0.855188 0.293964
0.294553 0.855188 0.293964
0.294553 0.855188 0.293964
0.294553 0.855188 0.293964
0.294553 0.855188 0.293964
0.294553 0.855188 0.293964
0.294553 0.855188 0.293964
0.296337 0.855201 0.294020
0.455889 0.856435 0.299534
0.614715 0.858428 0.308208
0.726182 0.860347 0.316225
0.791039 0.861755 0.321627
0.817606 0.862293 0.323962
0.818397 0.862314 0.324018
0.818397 0.862314 0.324018
0.818397 0.862314 0.324018
0.294553 0.855188 0.293964
0.294553 0.855188 0.293964
0.294553 0.855188 0.293964
0.294553 0.855188 0.293964
0.294553 0.855188 0.293964
0.294553 0.855188 0.293964
0.294553 0.855188 0.293964
0.294600 0.855189 0.293966
0.445957 0.856306 0.299086
0.608573 0.858307 0.307804
0.721517 0.860289 0.315851
0.787016 0.861642 0.321270
0.816876 0.862270 0.323887
0.818397 0.862314 0.324018
0.818397 0.862314 0.324018
0.818397 0.862314 0.324018
0.294553 0.855188 0.293964
0.294553 0.855188 0.293964
0.294553 0.855188 0.293964
0.294553 0.855188 0.293964
0.294553 0.855188 0.293964
0.294553 0.855188 0.293964
0.294553 0.855188 0.293964
0.294553 0.855188 0.293964
0.442229 0.856259 0.298907
0.606407 0.858264 0.307664
0.719842 0.860248 0.315721
0.785508 0.861598 0.321134
0.816506 0.862261 0.323860
0.818397 0.862314 0.324018
0.818397 0.862314 0.324018
0.818397 0.862314 0.324018
0.294553 0.855188 0.293964
0.294553 0.855188 0.293964
0.294553 0.855188 0.293964
0.294553 0.855188 0.293964
0.294553 0.855188 0.293964
0.294553 0.855188 0.293964
0.294553 0.855188 0.293964
0.294553 0.855188 0.293964
0.437268 0.856234 0.298709
0.603363 0.858205 0.307481
0.717608 0.860229 0.315544
0.783717 0.861548 0.320979
0.816221 0.862250 0.323831
0.818397 0.862314 0.324018
0.818397 0.862314 0.324018
0.818397 0.862314 0.324018
-0.049972 -0.052630 -0.056326
-0.049844 -0.052630 -0.056322
0.003810 -0.052149 -0.055882
0.089471 -0.050133 -0.054053
0.165365 -0.042334 -0.047065
0.270626 0.030890 0.022053
0.392816 0.071625 0.070385
0.515091 0.102163 0.103281
0.631303 0.129153 0.133267
0.736217 0.152807 0.160750
0.787764 0.164331 0.176266
0.787769 0.164361 0.179935
0.787772 0.164375 0.182060
0.787773 0.164386 0.182982
0.787773 0.164390 0.183327
0.787774 0.164395 0.183774
-0.049967 -0.052557 -0.056343
-0.049905 -0.052563 -0.056341
-0.013070 -0.052137 -0.055912
0.088556 -0.050180 -0.054122
0.164876 -0.042411 -0.047180
0.270364 0.030758 0.021616
0.392656 0.071582 0.070256
0.514981 0.102131 0.103147
0.631249 0.129138 0.133113
0.736068 0.152785 0.160601
0.787764 0.164329 0.176137
0.787769 0.164360 0.179807
0.787772 0.164373 0.181918
0.787773 0.164384 0.182849
0.787773 0.164388 0.183200
0.787774 0.164393 0.183643
-0.048416 -0.025540 -0.055105
-0.048425 -0.025921 -0.055115
-0.034176 -0.027787 -0.054947
0.081995 -0.036372 -0.053702
0.161348 -0.027735 -0.047051
0.268420 0.036663 0.019779
0.391422 0.071314 0.069362
0.514148 0.101929 0.102214
0.630737 0.129017 0.132056
0.735750 0.152695 0.159540
0.787763 0.164309 0.175163
0.787767 0.164348 0.178792
0.787770 0.164372 0.180900
0.787771 0.164372 0.181840
0.787772 0.164376 0.182179
0.787772 0.164381 0.182605
-0.041040 0.085892 -0.049147
-0.041065 0.085776 -0.049170
-0.040084 0.085113 -0.049265
0.070903 0.084509 -0.047929
0.155384 0.087651 -0.039991
0.265153 0.091298 0.032214
0.389287 0.096061 0.070662
0.512652 0.106368 0.101358
0.629609 0.128841 0.130293
0.734774 0.152483 0.157534
0.787760 0.164305 0.173340
0.787765 0.164338 0.176904
0.787768 0.164350 0.178980
0.787769 0.164360 0.179872
0.787769 0.164364 0.180219
0.787770 0.164369 0.180650
0.036077 0.164466 0.020644
0.036032 0.164406 0.020546
0.035816 0.164072 0.020067
0.050983 0.163416 0.020130
0.142652 0.162898 0.032707
0.258198 0.166625 0.056197
0.385198 0.168226 0.081662
0.509903 0.169105 0.106980
0.627495 0.168745 0.131496
0.733072 0.167951 0.155517
0.787781 0.166621 0.170001
0.787770 0.165212 0.172855
0.787768 0.164893 0.174764
0.787768 0.164765 0.175600
0.787768 0.164715 0.175900
0.787768 0.164660 0.176322
0.086309 0.273115 0.082953
0.086307 0.273095 0.082945
0.086229 0.272901 0.082859
0.086085 0.272530 0.082707
0.109221 0.271813 0.083076
0.240702 0.271333 0.090961
0.375032 0.273861 0.106844
0.503242 0.275168 0.125949
0.622988 0.274049 0.145715
0.730017 0.270018 0.164267
0.788625 0.262881 0.174519
0.788914 0.254445 0.174382
0.788839 0.249518 0.174804
0.788799 0.247357 0.175097
0.788784 0.246549 0.175229
0.788765 0.245493 0.175395
0.133446 0.398868 0.131640
0.133437 0.398829 0.131641
0.133388 0.398733 0.131588
0.133324 0.398525 0.131529
0.133117 0.397954 0.131306
0.201657 0.397108 0.133192
0.354541 0.396795 0.142452
0.489763 0.399065 0.156377
0.614036 0.398986 0.171825
0.723830 0.395041 0.186741
0.789080 0.388853 0.195639
0.791726 0.383908 0.195081
0.791627 0.381041 0.194491
0.791606 0.379810 0.194256
0.791589 0.379285 0.194161
0.791568 0.378683 0.194021
0.178533 0.524645 0.177342
0.178528 0.524628 0.177337
0.178496 0.524589 0.177327
0.178457 0.524407 0.177255
0.178316 0.524075 0.177145
0.179592 0.523123 0.176841
0.321045 0.522613 0.181837
0.468535 0.522211 0.191352
0.599661 0.523096 0.203641
0.714034 0.519264 0.215511
0.789515 0.512779 0.223505
0.796166 0.509210 0.223523
0.796099 0.507313 0.223048
0.796058 0.506521 0.222849
0.796041 0.506164 0.222782
0.796021 0.505770 0.222676
0.221260 0.645681 0.220364
0.221254 0.645668 0.220358
0.221207 0.645568 0.220323
0.221156 0.645428 0.220298
0.221102 0.645254 0.220216
0.220866 0.644622 0.219993
0.252459 0.643495 0.220402
0.437260 0.643397 0.228108
0.578306 0.643241 0.237653
0.699916 0.640303 0.247543
0.787172 0.632852 0.254527
0.802038 0.629337 0.255246
0.801973 0.628038 0.254878
0.801930 0.627410 0.254707
0.801917 0.627207 0.254654
0.801893 0.626869 0.254556
0.259974 0.756195 0.259269
0.259966 0.756175 0.259261
0.259938 0.756093 0.259234
0.259863 0.755847 0.259158
0.259764 0.755521 0.259059
0.259588 0.755020 0.258882
0.259681 0.754318 0.258647
0.386822 0.753725 0.262387
0.546536 0.753862 0.270414
0.678537 0.753710 0.279609
0.773804 0.748253 0.286114
0.808847 0.742965 0.287876
0.809071 0.741956 0.287580
0.809040 0.741636 0.287485
0.809020 0.741331 0.287420
0.808993 0.741010 0.287324
0.289076 0.839404 0.288463
0.289092 0.839425 0.288470
0.289054 0.839339 0.288442
0.289013 0.839277 0.288409
0.289026 0.839316 0.288422
0.288863 0.838852 0.288277
0.288608 0.838084 0.288020
0.316360 0.837164 0.288352
0.509735 0.837223 0.295595
0.650644 0.837338 0.303739
0.754953 0.837440 0.311335
0.811522 0.834799 0.315176
0.815955 0.833371 0.315135
0.815919 0.833006 0.315023
0.815909 0.832946 0.314994
0.815881 0.832638 0.314894
0.294553 0.855188 0.293964
0.294553 0.855188 0.293964
0.294553 0.855188 0.293964
0.294553 0.855188 0.293964
0.294553 0.855188 0.293964
0.294553 0.855188 0.293964
0.294553 0.855188 0.293964
0.302065 0.855182 0.294159
0.477336 0.856671 0.300502
0.628263 0.858647 0.309078
0.736742 0.860558 0.317069
0.800303 0.861903 0.322427
0.818397 0.862314 0.324018
0.818397 0.862314 0.324018
0.818397 0.862314 0.324018
0.818397 0.862314 0.324018
0.294553 0.855188 0.293964
0.294553 0.855188 0.293964
0.294553 0.855188 0.293964
0.294553 0.855188 0.293964
0.294553 0.855188 0.293964
0.294553 0.855188 0.293964
0.294553 0.855188 0.293964
0.296329 0.855201 0.294020
0.455851 0.856435 0.299532
0.614693 0.858428 0.308206
0.726147 0.860346 0.316223
0.791018 0.861755 0.321626
0.817602 0.862293 0.323962
0.818397 0.862314 0.324018
0.818397 0.862314 0.324018
0.818397 0.862314 0.324018
0.294553 0.855188 0.293964
0.294553 0.855188 0.293964
0.294553 0.855188 0.293964
0.294553 0.855188 0.293964
0.294553 0.855188 0.293964
0.294553 0.855188 0.293964
0.294553 0.855188 0.293964
0.294597 0.855189 0.293966
0.445913 0.856306 0.299084
0.608562 0.858307 0.307803
0.721480 0.860289 0.315850
0.786995 0.861641 0.321252
0.816872 0.862270 0.323887
0.818397 0.862314 0.324018
0.818397 0.862314 0.324018
0.818397 0.862314 0.324018
0.294553 0.855188 0.293964
0.294553 0.855188 0.293964
0.294553 0.855188 0.293964
0.294553 0.855188 0.293964
0.294553 0.855188 0.293964
0.294553 0.855188 0.293964
0.294553 0.855188 0.293964
0.294553 0.855188 0.293964
0.442245 0.856260 0.298908
0.606396 0.858264 0.307664
0.719884 0.860248 0.315719
0.785495 0.861598 0.321133
0.816502 0.862261 0.323860
0.818397 0.862314 0.324018
0.818397 0.862314 0.324018
0.818397 0.862314 0.324018
0.294553 0.855188 0.293964
0.294553 0.855188 0.293964
0.294553 0.855188 0.293964
0.294553 0.855188 0.293964
0.294553 0.855188 0.293964
0.294553 0.855188 0.293964
0.294553 0.855188 0.293964
0.294553 0.855188 0.293964
0.437231 0.856233 0.298707
0.603354 0.858205 0.307481
0.717584 0.860229 0.315543
0.783696 0.861547 0.320977
0.816217 0.862250 0.323831
0.818397 0.862314 0.324018
0.818397 0.862314 0.324018
0.818397 0.862314 0.324018
-0.049833 -0.052500 -0.038906
-0.049802 -0.052503 -0.038846
-0.014789 -0.052052 -0.038908
0.088109 -0.050106 -0.040712
0.164642 -0.042302 -0.024194
0.270231 0.030983 0.050256
0.392538 0.071687 0.084117
0.514980 0.102246 0.115178
0.631207 0.129225 0.144156
0.736054 0.152870 0.170377
0.787776 0.164423 0.185401
0.787781 0.164458 0.189197
0.787784 0.164474 0.191357
0.787786 0.164494 0.192295
0.787786 0.164498 0.192610
0.787787 0.164504 0.193086
-0.049840 -0.052504 -0.039624
-0.049827 -0.052503 -0.039560
-0.018081 -0.052062 -0.038590
0.087165 -0.050161 -0.041294
0.164147 -0.042386 -0.025498
0.270003 0.030859 0.049696
0.392392 0.071632 0.083777
0.514862 0.102213 0.114928
0.631233 0.129230 0.143984
0.735876 0.152837 0.170212
0.787776 0.164421 0.185251
0.787781 0.164456 0.189041
0.787784 0.164472 0.191194
0.787786 0.164493 0.192134
0.787786 0.164497 0.192476
0.787787 0.164503 0.192925
-0.048881 -0.038496 -0.042867
-0.048893 -0.038656 -0.042833
-0.037559 -0.039483 -0.042263
0.080448 -0.038944 -0.040127
0.160589 -0.032771 -0.028143
0.268013 0.033424 0.046054
0.391218 0.071309 0.081385
0.514043 0.102001 0.113157
0.630575 0.129068 0.142550
0.735591 0.152744 0.169030
0.787775 0.164409 0.184238
0.787780 0.164444 0.188011
0.787783 0.164459 0.190179
0.787784 0.164471 0.191116
0.787785 0.164475 0.191460
0.787785 0.164490 0.191911
-0.042055 0.080755 -0.044473
-0.042076 0.080654 -0.044469
-0.041168 0.079954 -0.044042
0.068845 0.079316 -0.039639
0.154450 0.083193 -0.025808
0.264663 0.087236 0.047088
0.388986 0.093075 0.080586
0.512534 0.105072 0.110637
0.629485 0.128863 0.139866
0.734817 0.152569 0.166777
0.787772 0.164377 0.182245
0.787777 0.164420 0.186036
0.787780 0.164446 0.188194
0.787781 0.164457 0.189134
0.787782 0.164461 0.189486
0.787782 0.164456 0.189926
0.034255 0.161748 0.018922
0.034222 0.161694 0.018867
0.033973 0.161335 0.018430
0.048746 0.160660 0.019596
0.141435 0.160127 0.032768
0.257662 0.164014 0.057091
0.384895 0.165723 0.083749
0.509711 0.166846 0.111137
0.627398 0.166486 0.137731
0.733043 0.164510 0.161607
0.787787 0.166263 0.178267
0.787780 0.165183 0.181700
0.787779 0.164880 0.183746
0.787779 0.164761 0.184656
0.787779 0.164715 0.184962
0.787779 0.164665 0.185423
0.085745 0.271684 0.082351
0.085742 0.271673 0.082343
0.085646 0.271434 0.082252
0.085504 0.271058 0.082092
0.108168 0.270291 0.082432
0.240019 0.269820 0.090369
0.374737 0.272376 0.106378
0.503037 0.273698 0.125587
0.622767 0.272556 0.145694
0.729885 0.268677 0.165546
0.788582 0.261734 0.178461
0.788887 0.252736 0.179145
0.788805 0.247395 0.179818
0.788763 0.245065 0.180154
0.788747 0.244180 0.180309
0.788726 0.243040 0.180474
0.133117 0.398001 0.131322
0.133105 0.397946 0.131303
0.133092 0.397891 0.131295
0.132987 0.397600 0.131190
0.132769 0.397007 0.130957
0.200788 0.396120 0.132815
0.354181 0.395819 0.142128
0.489586 0.398178 0.156096
0.613932 0.398173 0.171624
0.723761 0.394186 0.186545
0.788998 0.387962 0.195452
0.791696 0.383017 0.194909
0.791617 0.380171 0.194344
0.791575 0.378945 0.194108
0.791560 0.378442 0.194032
0.791538 0.377790 0.193906
0.178326 0.524105 0.177155
0.178316 0.524073 0.177144
0.178296 0.524004 0.177102
0.178243 0.523877 0.177049
0.178110 0.523466 0.176902
0.179319 0.522501 0.176609
0.320641 0.522017 0.181614
0.468258 0.521588 0.191133
0.599486 0.522488 0.203457
0.713820 0.518684 0.215341
0.789574 0.512157 0.223369
0.796165 0.508623 0.223374
0.796069 0.506718 0.222898
0.796027 0.505869 0.222697
0.796012 0.505578 0.222625
0.795992 0.505184 0.222518
0.221107 0.645264 0.220221
0.221101 0.645252 0.220215
0.221059 0.645091 0.220160
0.220989 0.644942 0.220102
0.220937 0.644798 0.220050
0.220708 0.644126 0.219825
0.252178 0.643118 0.220270
0.436919 0.642866 0.227919
0.578186 0.642738 0.237499
0.699735 0.639828 0.247389
0.787096 0.632455 0.254423
0.802033 0.628937 0.255122
0.801944 0.627596 0.254769
0.801899 0.626962 0.254583
0.801888 0.626829 0.254534
0.801865 0.626438 0.254440
0.259771 0.755541 0.259066
0.259764 0.755519 0.259058
0.259759 0.755504 0.259053
0.259755 0.755494 0.259050
0.259667 0.755287 0.258966
0.259523 0.754908 0.258820
0.259547 0.753999 0.258522
0.386488 0.753330 0.262224
0.546317 0.753447 0.270268
0.678563 0.753385 0.279511
0.773623 0.747976 0.286019
0.808785 0.742724 0.287793
0.809043 0.741583 0.287498
0.809003 0.741113 0.287362
0.808993 0.740994 0.287321
0.808967 0.740667 0.287222
0.289030 0.839328 0.288426
0.289025 0.839314 0.288421
0.288989 0.839208 0.288376
0.288941 0.839039 0.288338
0.288888 0.838843 0.288274
0.288737 0.838531 0.288151
0.288464 0.837736 0.287858
0.316152 0.836795 0.288218
0.509561 0.837132 0.295528
0.650559 0.837225 0.303672
0.754812 0.837166 0.311214
0.811521 0.834564 0.315112
0.815934 0.833150 0.315063
0.815890 0.832745 0.314897
0.815869 0.832483 0.314843
0.815862 0.832439 0.314848
0.294553 0.855188 0.293964
0.294553 0.855188 0.293964
0.294553 0.855188 0.293964
0.294553 0.855188 0.293964
0.294553 0.855188 0.293964
0.294553 0.855188 0.293964
0.294553 0.855188 0.293964
0.301988 0.855181 0.294157
0.477151 0.856669 0.300491
0.628211 0.858646 0.309074
0.736572 0.860554 0.317058
0.800168 0.861900 0.322404
0.818397 0.862314 0.324018
0.818397 0.862314 0.324018
0.818397 0.862314 0.324018
0.818397 0.862314 0.324018
0.294553 0.855188 0.293964
0.294553 0.855188 0.293964
0.294553 0.855188 0.293964
0.294553 0.855188 0.293964
0.294553 0.855188 0.293964
0.294553 0.855188 0.293964
0.294553 0.855188 0.293964
0.296292 0.855201 0.294018
0.455639 0.856432 0.299508
0.614543 0.858425 0.308193
0.726048 0.860344 0.316200
0.791076 0.861756 0.321631
0.817617 0.862292 0.323960
0.818397 0.862314 0.324018
0.818397 0.862314 0.324018
0.818397 0.862314 0.324018
0.294553 0.855188 0.293964
0.294553 0.855188 0.293964
0.294553 0.855188 0.293964
0.294553 0.855188 0.293964
0.294553 0.855188 0.293964
0.294553 0.855188 0.293964
0.294553 0.855188 0.293964
0.294584 0.855188 0.293965
0.445741 0.856304 0.299063
0.608488 0.858305 0.307797
0.721356 0.860286 0.315841
0.787051 0.861643 0.321272
0.816844 0.862269 0.323885
0.818397 0.862314 0.324018
0.818397 0.862314 0.324018
0.818397 0.862314 0.324018
0.294553 0.855188 0.293964
0.294553 0.855188 0.293964
0.294553 0.855188 0.293964
0.294553 0.855188 0.293964
0.294553 0.855188 0.293964
0.294553 0.855188 0.293964
0.294553 0.855188 0.293964
0.294553 0.855188 0.293964
0.442029 0.856257 0.298895
0.606227 0.858261 0.307650
0.719708 0.860245 0.315712
0.785557 0.861600 0.321137
0.816473 0.862260 0.323858
0.818397 0.862314 0.324018
0.818397 0.862314 0.324018
0.818397 0.862314 0.324018
0.294553 0.855188 0.293964
0.294553 0.855188 0.293964
0.294553 0.855188 0.293964
0.294553 0.855188 0.293964
0.294553 0.855188 0.293964
0.294553 0.855188 0.293964
0.294553 0.855188 0.293964
0.294553 0.855188 0.293964
0.437061 0.856231 0.298698
0.603267 0.858203 0.307472
0.717416 0.860225 0.315533
0.783544 0.861544 0.320967
0.816187 0.862249 0.323829
0.818397 0.862314 0.324018
0.818397 0.862314 0.324018
0.818397 0.862314 0.324018
-0.049201 -0.051918 0.078470
-0.049202 -0.051917 0.078511
-0.034545 -0.051644 0.078910
0.085656 -0.049583 0.080818
0.163332 -0.041611 0.088389
0.269525 0.032101 0.101360
0.392048 0.072050 0.120450
0.514681 0.102492 0.143368
0.631032 0.129439 0.167160
0.735765 0.153018 0.189741
0.787802 0.164607 0.203164
0.787808 0.164647 0.206850
0.787811 0.164668 0.208953
0.787812 0.164681 0.209828
0.787813 0.164686 0.210181
0.787814 0.164692 0.210601
-0.049210 -0.051926 0.078086
-0.049209 -0.051926 0.078093
-0.036188 -0.051673 0.078505
0.084682 -0.049640 0.080347
0.162820 -0.041705 0.087989
0.269273 0.031964 0.100984
0.391903 0.072000 0.120147
0.514579 0.102469 0.143129
0.630985 0.129421 0.166966
0.735870 0.153044 0.189616
0.787802 0.164605 0.203030
0.787807 0.164645 0.206725
0.787811 0.164667 0.208799
0.787812 0.164679 0.209711
0.787813 0.164684 0.210042
0.787813 0.164690 0.210467
-0.049058 -0.049497 0.075243
-0.049058 -0.049538 0.075257
-0.043029 -0.048795 0.075625
0.077440 -0.047574 0.077264
0.159104 -0.040812 0.085065
0.267257 0.031072 0.098375
0.390706 0.071656 0.118050
0.513801 0.102264 0.141434
0.630491 0.129300 0.165604
0.735448 0.152924 0.188425
0.787800 0.164591 0.202014
0.787806 0.164631 0.205730
0.787809 0.164644 0.207833
0.787811 0.164665 0.208739
0.787811 0.164670 0.209051
0.787812 0.164676 0.209482
-0.043227 0.070227 0.072374
-0.043244 0.070125 0.072415
-0.042980 0.069312 0.072666
0.064688 0.068606 0.073866
0.152558 0.069246 0.078923
0.263696 0.073565 0.092509
0.388584 0.085022 0.115052
0.512258 0.102943 0.138272
0.629254 0.129007 0.162846
0.734603 0.152719 0.186158
0.787797 0.164576 0.200056
0.787803 0.164615 0.203799
0.787806 0.164634 0.205910
0.787808 0.164646 0.206816
0.787808 0.164659 0.207145
0.787809 0.164640 0.207573
0.031200 0.156446 0.073581
0.031179 0.156417 0.073608
0.030903 0.156038 0.073794
0.047587 0.155366 0.076276
0.139072 0.154747 0.076980
0.256608 0.157829 0.088937
0.384329 0.158701 0.108002
0.509274 0.158823 0.130771
0.627083 0.158010 0.154649
0.732803 0.160624 0.180598
0.787804 0.165798 0.195799
0.787803 0.165175 0.199426
0.787802 0.164896 0.201506
0.787803 0.164788 0.202389
0.787803 0.164762 0.202709
0.787803 0.164720 0.203161
0.084655 0.268820 0.085621
0.084642 0.268787 0.085622
0.084556 0.268569 0.085637
0.084410 0.268208 0.085685
0.106820 0.267439 0.087648
0.238810 0.266915 0.096300
0.374128 0.269820 0.113850
0.502638 0.270823 0.133607
0.622480 0.269166 0.155191
0.729642 0.264810 0.176662
0.788589 0.257386 0.190182
0.788839 0.248372 0.192540
0.788744 0.243069 0.193869
0.788702 0.240710 0.194483
0.788687 0.239860 0.194687
0.788667 0.238685 0.194975
0.132492 0.396246 0.130679
0.132494 0.396254 0.130682
0.132406 0.396023 0.130602
0.132379 0.395932 0.130556
0.132158 0.395315 0.130332
0.199188 0.394447 0.132148
0.353512 0.394139 0.141536
0.489125 0.396476 0.155586
0.613637 0.396489 0.171220
0.723565 0.392527 0.186699
0.788994 0.386405 0.196758
0.791648 0.381478 0.197565
0.791570 0.378589 0.197988
0.791617 0.377286 0.198053
0.791601 0.376773 0.198069
0.791579 0.376122 0.198128
0.177921 0.522942 0.176741
0.177917 0.522928 0.176736
