Vakken/Video videoverdieping/Opdrachten/Kortfilm/LUTS/takato152_cine.cube
TITLE "Generated by Resolve"
LUT_3D_SIZE 5
0.0450599 0.0383459 0.0479591
0.204547 0.0659495 0.0558022
0.552926 0 0.0782788
0.591959 0 0.0826734
0.591959 0 0.0826734
0.0292515 0.145266 0.0763867
0.113359 0.129122 0.0735027
0.563012 0.148638 0.0739147
0.650462 0.118441 0.0779126
0.630961 0.073106 0.0772717
0 0.37557 0.108034
0 0.344793 0.104311
0.584253 0.45153 0.0102235
0.807446 0.441367 0.00764477
0.78677 0.391623 0.0421607
0 0.452491 0.120455
0 0.442481 0.113024
0.47512 0.602045 0
0.931228 0.716091 0
0.95317 0.708858 0
0 0.470436 0.1346
0 0.470436 0.1346
0.337835 0.578943 0.100252
0.901854 0.754208 0
1 0.778546 0
0.005066 0 0.255787
0.226673 0.0288701 0.217655
0.609232 0 0.19675
0.641993 0 0.185657
0.637186 0 0.145693
0 0.167895 0.176226
0.110231 0.13431 0.113008
0.590723 0.140719 0.0817121
0.673396 0.101854 0.0895552
0.643946 0.0436866 0.0785534
0 0.40296 0.13666
0 0.355627 0.107256
0.572625 0.445228 0.0167239
0.796445 0.421332 0.0197604
0.77882 0.374426 0.053193
0 0.448981 0.117601
0 0.439887 0.111498
0.446296 0.588785 0
0.922118 0.708263 0
0.948638 0.70071 0
0 0.470436 0.1346
0 0.470436 0.1346
0.316442 0.57113 0.104585
0.889708 0.751095 0
1 0.778546 0
0 0 0.48986
0.213993 0 0.529976
0.649058 0 0.579431
0.689723 0 0.586923
0.68574 0 0.568048
0 0.104479 0.571603
0.00299077 0.0575113 0.538735
0.610208 0.0125582 0.544167
0.711742 0 0.535683
0.695293 0 0.483787
0 0.540047 0.660883
0 0.488701 0.594369
0.594705 0.551354 0.542718
0.852567 0.501274 0.491157
0.833387 0.434409 0.422812
0 0.587045 0.613931
0 0.571008 0.545571
0.397787 0.691081 0.472663
0.965576 0.792233 0.373754
0.990509 0.773678 0.319219
0 0.577249 0.517845
0 0.566567 0.466484
0.165347 0.641093 0.422034
0.889799 0.79733 0.349248
1 0.815412 0.325093
0 0 0.500771
0.173724 0 0.544366
0.648569 0 0.616541
0.700648 0 0.632364
0.700648 0 0.632364
0 0.0433967 0.601114
0 1.5259e-05 0.598749
0.597467 0 0.662547
0.734646 0 0.678157
0.724819 0 0.663142
0 0.544564 0.763592
0 0.492119 0.746487
0.519478 0.545083 0.788067
0.848585 0.502602 0.805188
0.834455 0.443244 0.783612
0 0.613962 0.784741
0 0.611795 0.781918
0.108553 0.727214 0.819989
0.948287 0.875731 0.888487
0.983749 0.866545 0.882414
0 0.624887 0.788495
0 0.624811 0.78584
0 0.699947 0.810468
0.848371 0.876204 0.86363
0.999298 0.909834 0.872541
0 0 0.500771
0.126162 0 0.537957
0.636759 0 0.614282
0.700648 0 0.632364
0.700648 0 0.632364
0 0.00923171 0.592645
0 0 0.588067
0.565438 0 0.650156
0.729381 0 0.669825
0.719051 0 0.65539
0 0.524193 0.756573
0 0.467308 0.737057
0.463508 0.501442 0.773861
0.833539 0.465888 0.798581
0.824445 0.412497 0.782559
0 0.612634 0.784833
0 0.611353 0.784237
0.020798 0.710292 0.824186
0.930419 0.86949 0.906508
0.980392 0.861006 0.91078
0 0.625528 0.793484
0 0.625528 0.793484
0 0.689845 0.823484
0.80592 0.87277 0.896422
0.999817 0.918379 0.924636
