Vakken/Video videoverdieping/Opdrachten/Kortfilm/LUTS/takato152_cine.cube
TITLE "Generated by Resolve"
LUT_3D_SIZE 9
0.0450599 0.0383459 0.0479591
0.0481422 0.0416419 0.0498817
0.204547 0.0659495 0.0558022
0.42414 0.0322271 0.0628824
0.552926 0 0.0782788
0.591959 0 0.0826734
0.591959 0 0.0826734
0.591959 0 0.0826734
0.591959 0 0.0826734
0.0533303 0.0651713 0.0584268
0.0539254 0.0585031 0.0576944
0.145098 0.0746777 0.0605478
0.381369 0.0851453 0.0611887
0.541024 0.00167849 0.0737163
0.59736 0 0.0800641
0.598627 0 0.0815137
0.59324 0 0.0824445
0.591959 0 0.0826734
0.0292515 0.145266 0.0763867
0.0419623 0.126787 0.0736248
0.113359 0.129122 0.0735027
0.356619 0.160418 0.0695506
0.563012 0.148638 0.0739147
0.642252 0.130953 0.0776532
0.650462 0.118441 0.0779126
0.640406 0.0982681 0.0776074
0.630961 0.073106 0.0772717
0 0.264302 0.095552
0 0.245212 0.0928511
0.0273899 0.226932 0.088777
0.323262 0.272725 0.0791638
0.585794 0.288441 0.0675212
0.706859 0.275944 0.0727092
0.733364 0.273503 0.0753033
0.722179 0.25098 0.0773632
0.71017 0.229404 0.0780957
0 0.37557 0.108034
0 0.362448 0.106828
0 0.344793 0.104311
0.26421 0.397604 0.0863355
0.584253 0.45153 0.0102235
0.760815 0.446906 0.00300603
0.807446 0.441367 0.00764477
0.799329 0.418387 0.0217288
0.78677 0.391623 0.0421607
0 0.426764 0.110246
0 0.422095 0.110216
0 0.417029 0.110018
0.18822 0.467155 0.0889296
0.547738 0.572168 0
0.803174 0.611994 0
0.889708 0.615137 0
0.8981 0.60679 0
0.885496 0.582849 0
0 0.452491 0.120455
0 0.446891 0.115908
0 0.442481 0.113024
0.0602426 0.480949 0.0963149
0.47512 0.602045 0
0.784192 0.68954 0
0.931228 0.716091 0
0.959533 0.71986 0
0.95317 0.708858 0
0 0.470436 0.1346
0 0.470436 0.1346
0 0.470436 0.1346
0.105303 0.510445 0.121096
0.437552 0.613581 0.0706035
0.739712 0.708156 0
0.936843 0.75491 0
0.989288 0.76582 0
0.989487 0.762615 0
0 0.470436 0.1346
0 0.470436 0.1346
0 0.470436 0.1346
0 0.487968 0.128923
0.337835 0.578943 0.100252
0.652598 0.686 0
0.901854 0.754208 0
0.994781 0.777203 0
1 0.778546 0
0.0449378 0.0399786 0.072694
0.0440986 0.0404059 0.0618143
0.218982 0.0681621 0.0632181
0.445777 0.0162203 0.0693828
0.574502 0 0.0838636
0.611627 0 0.0865339
0.606699 0 0.0837415
0.601465 0 0.0837262
0.596246 0 0.0832685
0.0527962 0.0650492 0.0628214
0.054612 0.0586862 0.0567636
0.144686 0.0750439 0.0597543
0.384573 0.0830549 0.0605478
0.543954 0.000366217 0.0741894
0.597574 0 0.0803235
0.597131 0 0.0817731
0.591959 0 0.0826734
0.591959 0 0.0826734
0.0240177 0.144778 0.0746166
0.0429236 0.124971 0.0724804
0.10898 0.124727 0.0726329
0.346197 0.155612 0.0692149
0.555428 0.143633 0.07364
0.637934 0.124605 0.0775311
0.647669 0.112825 0.0778363
0.637675 0.0920272 0.0775158
0.628367 0.0658122 0.0771649
0 0.259251 0.0948348
0 0.240146 0.0921492
0.0156405 0.220966 0.0884871
0.312306 0.265415 0.079469
0.576699 0.282231 0.0681926
0.701869 0.269291 0.073579
0.730205 0.26714 0.0758831
0.718914 0.244923 0.0776684
0.706798 0.223423 0.0782483
0 0.372091 0.107713
0 0.358953 0.106508
0 0.340261 0.104051
0.251484 0.389456 0.0875257
0.573663 0.443702 0.0162966
0.753719 0.439078 0.00462348
0.802777 0.432883 0.0126497
0.795819 0.410925 0.0273747
0.783276 0.384192 0.0478676
0 0.425528 0.110231
0 0.420768 0.110231
0 0.415366 0.110079
0.175799 0.460777 0.0907912
0.53579 0.565377 0
0.795575 0.606195 0
0.885054 0.608392 0
0.894591 0.600137 0
0.881987 0.576196 0
0 0.451011 0.119249
0 0.44564 0.115053
0 0.441291 0.112261
0.0358892 0.47657 0.0975967
0.462943 0.596414 0
0.775677 0.685954 0
0.927657 0.712825 0
0.957763 0.716793 0
0.951385 0.70576 0
0 0.470436 0.1346
0 0.470436 0.1346
0 0.470436 0.1346
0.092195 0.507881 0.121614
0.424598 0.607996 0.0712902
0.729931 0.704417 0
0.931395 0.752621 0
0.987472 0.764279 0
0.988266 0.761181 0
0 0.470436 0.1346
0 0.470436 0.1346
0 0.470436 0.1346
0 0.486336 0.129473
0.328801 0.575631 0.102083
0.643656 0.683284 0
0.896666 0.75288 0
0.993683 0.776898 0
1 0.778546 0
0.005066 0 0.255787
0.0274968 0 0.223743
0.226673 0.0288701 0.217655
0.473884 0 0.197604
0.609232 0 0.19675
0.644022 0 0.206119
0.641993 0 0.185657
0.639841 0 0.16585
0.637186 0 0.145693
0.0124208 0.0662089 0.196429
0.0412909 0.0594797 0.155108
0.147051 0.0734722 0.147509
0.411719 0.0775769 0.129152
0.584482 0 0.124437
0.63798 0 0.129656
0.636378 0 0.12079
0.629511 0 0.109941
0.625803 0 0.102403
0 0.167895 0.176226
0.000198367 0.140658 0.13959
0.110231 0.13431 0.113008
0.370367 0.161501 0.0890364
0.590723 0.140719 0.0817121
0.665888 0.111986 0.0855116
0.673396 0.101854 0.0895552
0.658366 0.073579 0.0829938
0.643946 0.0436866 0.0785534
0 0.293965 0.143206
0 0.265339 0.123949
0.00265507 0.236469 0.10486
0.325567 0.277317 0.0885786
0.596216 0.289311 0.0710765
0.718349 0.269902 0.0732738
0.742184 0.263493 0.0746471
0.724269 0.23917 0.0776074
0.706111 0.21622 0.0784466
0 0.40296 0.13666
0 0.381079 0.118624
0 0.355627 0.107256
0.249989 0.398703 0.0841535
0.572625 0.445228 0.0167239
0.748837 0.432059 0.00654612
0.796445 0.421332 0.0197604
0.790967 0.400595 0.0352941
0.77882 0.374426 0.053193
0 0.439872 0.125231
0 0.427893 0.118105
0 0.415473 0.111498
0.158862 0.45214 0.0932631
0.519463 0.555917 0
0.784878 0.597665 0
0.878553 0.599145 0
0.889799 0.591012 0
0.877043 0.566735 0
0 0.448981 0.117601
0 0.444022 0.114015
0 0.439887 0.111498
0.0145418 0.47097 0.0992294
0.446296 0.588785 0
0.763836 0.680598 0
0.922118 0.708263 0
0.955337 0.712612 0
0.948638 0.70071 0
0 0.470436 0.1346
0 0.470436 0.1346
0 0.470436 0.1346
0.0677806 0.504921 0.122576
0.406714 0.60029 0.0731975
0.716167 0.699229 0
0.923888 0.749462 0
0.984985 0.762158 0
0.986587 0.75906 0
0 0.470436 0.1346
0 0.470436 0.1346
0 0.470436 0.1346
0 0.484108 0.130175
0.316442 0.57113 0.104585
0.631312 0.679362 0
0.889708 0.751095 0
0.992157 0.776471 0
1 0.778546 0
0 0 0.429908
0 0 0.41561
0.232471 0 0.434104
0.492897 0 0.438346
0.630274 0 0.4383
0.665919 0 0.446204
0.663264 0 0.424216
0.660594 0 0.401526
0.657725 0 0.37847
0 0 0.417075
0 0 0.37557
0.139025 0 0.376944
0.421332 3.0518e-05 0.366537
0.602823 0 0.35378
0.655756 0 0.362097
0.655604 0 0.347036
0.652857 0 0.322469
0.651164 0 0.29781
0 0.173541 0.425361
0 0.147036 0.383459
0.0472419 0.139879 0.346242
0.373632 0.160708 0.330282
0.610666 0.132006 0.2925
0.686595 0.0847639 0.276814
0.695109 0.0839246 0.270405
0.684672 0.0319219 0.239078
0.675456 0 0.212207
0 0.35288 0.415641
0 0.321782 0.376104
0 0.285557 0.325093
0.322698 0.312001 0.29247
0.625132 0.314107 0.246906
0.755001 0.287129 0.218708
0.775677 0.277882 0.223682
0.761791 0.249683 0.194644
0.747204 0.223514 0.165805
0 0.483711 0.386618
0 0.459968 0.346151
0 0.428107 0.296727
0.22118 0.462974 0.25452
0.617578 0.505989 0.206317
0.809384 0.482887 0.161318
0.848844 0.46247 0.152865
0.838376 0.433265 0.131655
0.821241 0.398749 0.111788
0 0.518715 0.352438
0 0.50454 0.310979
0 0.489326 0.267063
0.0563363 0.518029 0.218128
0.557687 0.621088 0.148898
0.838483 0.650996 0.0218967
0.925612 0.641428 0.00860609
0.928115 0.622675 0.0175937
0.911665 0.592889 0.00410468
0 0.523873 0.332433
0 0.510094 0.287755
0 0.496864 0.247868
4.57771e-05 0.51606 0.203647
0.455497 0.623758 0.136919
0.791852 0.708797 0.000259403
0.950195 0.731929 6.10361e-05
0.973465 0.727535 0
0.957855 0.706752 0
0 0.534081 0.330022
0 0.52607 0.302724
0 0.517571 0.276005
3.0518e-05 0.537118 0.24416
0.384741 0.615228 0.192462
0.701549 0.697032 0.0696574
0.916014 0.746227 0.000717174
0.981949 0.759701 0
0.984665 0.756649 0
0 0.506859 0.248859
0 0.495369 0.219944
0 0.48365 0.185473
0 0.482963 0.136248
0.302205 0.566094 0.107042
0.617533 0.674937 0
0.881804 0.749081 0
0.990143 0.775998 0
1 0.778546 0
0 0 0.48986
0 0 0.491463
0.213993 0 0.529976
0.495781 0 0.562692
0.649058 0 0.579431
0.689815 0 0.59266
0.689723 0 0.586923
0.688136 0 0.578454
0.68574 0 0.568048
0 0 0.522957
0 0 0.502235
0.0907149 0 0.518791
0.424933 0 0.544686
0.620554 0 0.552438
0.680034 0 0.560021
0.682795 0 0.552789
0.680873 0 0.540169
0.677592 0 0.523629
0 0.104479 0.571603
0 0.0289921 0.548547
0.00299077 0.0575113 0.538735
0.357534 0.0856184 0.557122
0.610208 0.0125582 0.544167
0.701289 0 0.540383
0.711742 0 0.535683
0.703059 0 0.509087
0.695293 0 0.483787
0 0.37229 0.638865
0 0.340871 0.612055
0 0.297475 0.578347
0.276692 0.324849 0.57322
0.61268 0.322423 0.552361
0.754452 0.290349 0.526467
0.774838 0.279393 0.526894
0.763119 0.249775 0.492851
0.750256 0.221057 0.456764
0 0.540047 0.660883
0 0.520409 0.633387
0 0.488701 0.594369
0.0137026 0.515526 0.572976
0.594705 0.551354 0.542718
0.809277 0.524437 0.501305
0.852567 0.501274 0.491157
0.845487 0.471046 0.463371
0.833387 0.434409 0.422812
0 0.583261 0.641108
0 0.575174 0.610224
0 0.56492 0.576059
0 0.593301 0.547219
0.523903 0.691157 0.514046
0.843931 0.72079 0.464683
0.939086 0.706981 0.435599
0.943404 0.688319 0.423163
0.932235 0.654749 0.379599
0 0.587045 0.613931
0 0.578485 0.579797
0 0.571008 0.545571
0 0.590875 0.512825
0.397787 0.691081 0.472663
0.790433 0.773663 0.424552
0.965576 0.792233 0.373754
0.99295 0.790066 0.36434
0.990509 0.773678 0.319219
0 0.59263 0.59089
0 0.588129 0.567315
0 0.582559 0.542947
0 0.602136 0.516838
0.305028 0.67715 0.477821
0.704814 0.76582 0.426505
0.939773 0.805966 0.362783
1 0.810575 0.324514
1 0.800198 0.27834
0 0.577249 0.517845
0 0.572015 0.492348
0 0.566567 0.466484
0 0.569955 0.442557
0.165347 0.641093 0.422034
0.609979 0.739055 0.393439
0.889799 0.79733 0.349248
0.995514 0.817334 0.33077
1 0.815412 0.325093
0 0 0.500771
0 0 0.50576
0.19234 0 0.547219
0.485756 0 0.590707
0.653529 0 0.617044
0.697551 0 0.628855
0.698787 0 0.628244
0.698009 0 0.626398
0.69723 0 0.624384
0 0 0.546517
0 0 0.534493
0.0282902 0 0.552575
0.409125 0 0.591073
0.620645 0 0.611673
0.687434 0 0.618677
0.696269 0 0.620935
0.695476 0 0.618463
0.69482 0 0.615824
0 0.0675517 0.603082
0 0 0.590021
0 0.00582895 0.59472
0.336049 0.0278782 0.630625
0.609903 0 0.648051
0.715373 0 0.654215
0.729107 0 0.654475
0.723156 0 0.642069
0.71725 0 0.629145
0 0.362631 0.69308
0 0.329198 0.678782
0 0.280598 0.663676
0.224933 0.311086 0.682902
0.593668 0.309483 0.702037
0.751186 0.269993 0.696788
0.777173 0.259449 0.6981
0.768093 0.225895 0.682033
0.756817 0.187289 0.662196
0 0.546227 0.753521
0 0.52842 0.743877
0 0.500069 0.730129
0 0.521492 0.740093
0.555596 0.558343 0.750835
0.800336 0.539101 0.748959
0.853315 0.514031 0.744442
0.847944 0.486458 0.728771
0.834943 0.448524 0.701106
0 0.601282 0.763958
0 0.598627 0.758785
0 0.595041 0.752194
0 0.621805 0.758892
0.454093 0.718349 0.76701
0.823438 0.764324 0.77232
0.93402 0.752544 0.760952
0.940322 0.734722 0.750378
0.929046 0.702693 0.719707
0 0.609857 0.761868
0 0.60795 0.753628
0 0.606622 0.744121
0 0.628565 0.742687
0.248066 0.727901 0.744198
0.758053 0.823575 0.751003
0.954376 0.85211 0.734081
0.984771 0.85069 0.726497
0.982086 0.836774 0.695109
0 0.622278 0.760632
0 0.621271 0.75169
0 0.619684 0.741009
0 0.636744 0.734249
0.0679179 0.711254 0.726452
0.660716 0.808225 0.722484
0.923217 0.861067 0.702358
0.991333 0.869215 0.680537
0.99559 0.864118 0.655848
0 0.619303 0.731395
0 0.6159 0.716426
0 0.613016 0.700771
0 0.616892 0.687205
0 0.686244 0.687968
0.562173 0.781445 0.684398
0.867399 0.846296 0.668345
0.983307 0.868666 0.657374
0.998413 0.871778 0.655482
0 0 0.500771
0 0 0.504341
0.173724 0 0.544366
0.472389 0 0.588647
0.648569 0 0.616541
0.697398 0 0.630579
0.700648 0 0.632364
0.700648 0 0.632364
0.700648 0 0.632364
0 0 0.542168
0 0 0.53167
0 0 0.548974
0.388968 0 0.589578
0.611948 0 0.614588
0.688777 0 0.626368
0.700648 0 0.632364
0.700648 0 0.632364
0.700648 0 0.632364
0 0.0433967 0.601114
0 0.00936904 0.592828
0 1.5259e-05 0.598749
0.316258 0.010193 0.638193
0.597467 0 0.662547
0.715846 0 0.673961
0.734646 0 0.678157
0.729809 0 0.670481
0.724819 0 0.663142
0 0.354894 0.696788
0 0.322042 0.683818
0 0.27071 0.670054
0.178683 0.303777 0.694697
0.57116 0.303822 0.725933
0.745541 0.264378 0.733318
0.777401 0.254124 0.734539
0.770733 0.221271 0.725399
0.760189 0.165255 0.713359
0 0.544564 0.763592
0 0.524895 0.756817
0 0.492119 0.746487
0 0.509224 0.764675
0.519478 0.545083 0.788067
0.785657 0.529732 0.805859
0.848585 0.502602 0.805188
0.847028 0.481147 0.798428
0.834455 0.443244 0.783612
0 0.604532 0.781247
0 0.600443 0.779873
0 0.595224 0.777935
0 0.617456 0.796414
0.396185 0.71075 0.823224
0.801846 0.766491 0.863066
0.929671 0.75787 0.871122
0.939712 0.742641 0.868498
0.928252 0.711177 0.855406
0 0.613962 0.784741
0 0.612863 0.783368
0 0.611795 0.781918
0 0.630686 0.79501
0.108553 0.727214 0.819989
0.726497 0.834958 0.867247
0.948287 0.875731 0.888487
0.985855 0.876997 0.890333
0.983749 0.866545 0.882414
0 0.62533 0.791424
0 0.625254 0.790784
0 0.623697 0.788632
0 0.639719 0.796979
0.000762951 0.714443 0.8159
0.616342 0.819547 0.851911
0.911681 0.88925 0.880613
0.991485 0.904616 0.885283
0.996841 0.903395 0.878843
0 0.624887 0.788495
0 0.624643 0.78703
0 0.624811 0.78584
0 0.627436 0.785504
0 0.699947 0.810468
0.508553 0.794278 0.832914
0.848371 0.876204 0.86363
0.981399 0.906111 0.873106
0.999298 0.909834 0.872541
0 0 0.500771
0 0 0.502876
0.151965 0 0.541299
0.458457 0 0.58648
0.643244 0 0.615427
0.696193 0 0.629877
0.700648 0 0.632364
0.700648 0 0.632364
0.700648 0 0.632364
0 0 0.537591
0 0 0.527367
0 0 0.542153
0.368719 0 0.582956
0.599939 0 0.609491
0.686152 0 0.625101
0.700648 0 0.632364
0.700648 0 0.632364
0.700648 0 0.632364
0 0.0161898 0.595911
0 0.00292973 0.5897
0 3.0518e-05 0.593591
0.296605 0 0.630823
0.581994 0 0.656641
0.710521 0 0.669337
0.732082 0 0.674067
0.727184 0 0.666392
0.722103 0 0.659434
0 0.338033 0.690333
0 0.305516 0.677089
0 0.249897 0.660853
0.134874 0.282887 0.686717
0.550576 0.283604 0.718425
0.735119 0.243885 0.726986
0.771908 0.23447 0.730358
0.76759 0.206836 0.724178
0.758099 0.155459 0.714214
0 0.535393 0.760555
0 0.514046 0.752956
0 0.479561 0.741619
0 0.48687 0.757397
0.491035 0.524208 0.782284
0.769711 0.51191 0.803647
0.84213 0.487907 0.805661
0.842634 0.467674 0.8009
0.830808 0.432227 0.789014
0 0.602731 0.781399
0 0.598489 0.780652
0 0.59202 0.778363
0 0.607263 0.795666
0.353964 0.696986 0.822919
0.777523 0.754131 0.867597
0.922667 0.7476 0.880674
0.936584 0.734844 0.879881
0.925155 0.704234 0.871092
0 0.613077 0.785122
0 0.612284 0.784619
0 0.61178 0.784405
0 0.626551 0.797086
0.0412146 0.718288 0.825223
0.698009 0.828992 0.876768
0.939284 0.875013 0.908385
0.984192 0.877348 0.914199
0.98291 0.868055 0.911604
0 0.625528 0.793484
0 0.624964 0.793057
0 0.622553 0.791226
0 0.634607 0.799939
0 0.706157 0.824613
0.577935 0.812863 0.863554
0.897536 0.89044 0.906645
0.989929 0.909697 0.919066
0.997131 0.910124 0.919463
0 0.625528 0.793484
0 0.625528 0.793439
0 0.625513 0.793271
0 0.625513 0.793133
0 0.695018 0.823621
0.468101 0.789197 0.851347
0.825132 0.876921 0.896742
0.977722 0.912978 0.917433
0.999969 0.918181 0.921004
0 0 0.500771
0 0 0.501747
0.126162 0 0.537957
0.444083 0 0.584253
0.636759 0 0.614282
0.694957 0 0.62916
0.700648 0 0.632364
0.700648 0 0.632364
0.700648 0 0.632364
0 0 0.532998
0 0 0.52311
0 0 0.535058
0.347753 0 0.575921
0.589471 0 0.606561
0.683436 0 0.623804
0.700648 0 0.632364
0.700648 0 0.632364
0.700648 0 0.632364
0 0.00923171 0.592645
0 0 0.586023
0 0 0.588067
0.275685 0 0.623072
0.565438 0 0.650156
0.704204 0 0.664363
0.729381 0 0.669825
0.724376 0 0.662562
0.719051 0 0.65539
0 0.320989 0.683391
0 0.285328 0.669337
0 0.230274 0.652461
0.0768444 0.26154 0.678096
0.529503 0.263783 0.710811
0.723323 0.223011 0.72047
0.765301 0.211185 0.723888
0.762356 0.178515 0.7187
0.753445 0.121752 0.708995
0 0.524193 0.756573
0 0.500511 0.748089
0 0.467308 0.737057
0 0.463371 0.748837
0.463508 0.501442 0.773861
0.753094 0.48954 0.795895
0.833539 0.465888 0.798581
0.836118 0.448142 0.794354
0.824445 0.412497 0.782559
0 0.600549 0.781033
0 0.595026 0.779431
0 0.588281 0.777203
0 0.596155 0.791241
0.298772 0.680323 0.817044
0.756527 0.737591 0.861845
0.91368 0.730632 0.875914
0.930282 0.717968 0.875044
0.917998 0.684916 0.865507
0 0.612634 0.784833
0 0.612009 0.784512
0 0.611353 0.784237
0 0.622309 0.79443
0.020798 0.710292 0.824186
0.676524 0.821073 0.873167
0.930419 0.86949 0.906508
0.981765 0.871382 0.912825
0.980392 0.861006 0.91078
0 0.625528 0.793484
0 0.623667 0.792081
0 0.621546 0.790555
0 0.629221 0.796201
0 0.697322 0.823072
0.549035 0.805493 0.860212
0.884657 0.886854 0.905699
0.987762 0.908858 0.920439
0.996841 0.909422 0.921843
0 0.625528 0.793484
0 0.625528 0.793484
0 0.625528 0.793484
0 0.625528 0.793484
0 0.689845 0.823484
0.433799 0.782055 0.848814
0.80592 0.87277 0.896422
0.973663 0.912886 0.920378
0.999817 0.918379 0.924636
