Vakken/Video videoverdieping/Opdrachten/Kortfilm/LUTS/takato152_cine.cube
TITLE "Generated by Resolve"
LUT_3D_SIZE 33
0.0450599 0.0383459 0.0479591
0.044419 0.0385901 0.0484321
0.0450752 0.0391852 0.0490272
0.0429847 0.0399786 0.0494545
0.0481422 0.0416419 0.0498817
0.0718547 0.0471046 0.0510719
0.097612 0.0539559 0.0527657
0.150225 0.0598459 0.0543832
0.204547 0.0659495 0.0558022
0.262425 0.0688334 0.0573281
0.321721 0.066865 0.0586252
0.375204 0.0593576 0.0603647
0.42414 0.0322271 0.0628824
0.467582 0 0.0670939
0.503059 0 0.0721141
0.531365 0 0.0761578
0.552926 0 0.0782788
0.569116 0 0.0795148
0.580423 0 0.0807965
0.588205 0 0.0820478
0.591959 0 0.0826734
0.591959 0 0.0826734
0.591959 0 0.0826734
0.591959 0 0.0826734
0.591959 0 0.0826734
0.591959 0 0.0826734
0.591959 0 0.0826734
0.591959 0 0.0826734
0.591959 0 0.0826734
0.591959 0 0.0826734
0.591959 0 0.0826734
0.591959 0 0.0826734
0.591959 0 0.0826734
0.0478065 0.0426032 0.0505837
0.0470283 0.0421912 0.0504921
0.0460517 0.041886 0.0507362
0.0475624 0.0420539 0.0509041
0.043946 0.0423438 0.0509499
0.0656901 0.0459449 0.0514534
0.0847486 0.0524147 0.0526894
0.130739 0.0578927 0.0539712
0.185443 0.0639506 0.055314
0.241108 0.0690013 0.0568399
0.301152 0.0680095 0.0581826
0.35697 0.0627298 0.0596017
0.407355 0.0493019 0.0618601
0.453025 0.0068513 0.0654002
0.491066 0 0.0703441
0.522347 0 0.0749981
0.545892 0 0.0776989
0.563806 0 0.0790875
0.577127 0 0.0803388
0.58558 0 0.0816052
0.591959 0 0.0826734
0.591959 0 0.0826734
0.591959 0 0.0826734
0.591959 0 0.0826734
0.591959 0 0.0826734
0.591959 0 0.0826734
0.591959 0 0.0826734
0.591959 0 0.0826734
0.591959 0 0.0826734
0.591959 0 0.0826734
0.591959 0 0.0826734
0.591959 0 0.0826734
0.591959 0 0.0826734
0.0506294 0.0474861 0.0528267
0.0501259 0.0463722 0.0525063
0.0481575 0.0449531 0.0526741
0.0491951 0.0441749 0.0528572
0.0458839 0.0442206 0.0530404
0.0607614 0.0465095 0.0534066
0.081529 0.0526894 0.0545357
0.115648 0.0590524 0.0558328
0.172305 0.0662089 0.0565957
0.227451 0.0729381 0.0572061
0.286336 0.0742962 0.0581521
0.34403 0.0704356 0.0592966
0.394324 0.0591287 0.0613413
0.440726 0.0254978 0.0640726
0.479683 0.000350958 0.0685893
0.512032 0 0.0734569
0.538689 0 0.0770733
0.55819 0 0.0786603
0.572915 0 0.0798962
0.583047 0 0.081178
0.590433 0 0.082414
0.591959 0 0.0826734
0.591959 0 0.0826734
0.591959 0 0.0826734
0.591959 0 0.0826734
0.591959 0 0.0826734
0.591959 0 0.0826734
0.591959 0 0.0826734
0.591959 0 0.0826734
0.591959 0 0.0826734
0.591959 0 0.0826734
0.591959 0 0.0826734
0.591959 0 0.0826734
0.0521248 0.0567025 0.0554208
0.0520027 0.0551614 0.0550088
0.0512245 0.0531014 0.0549477
0.0509346 0.0511177 0.055024
0.0505074 0.0500801 0.0552071
0.0550546 0.050248 0.0554971
0.0782635 0.054612 0.0563668
0.104677 0.0606394 0.0576638
0.15845 0.0679942 0.0584268
0.214649 0.0763714 0.0581521
0.273518 0.0798505 0.0584421
0.334371 0.0789807 0.0594186
0.388144 0.0731823 0.0611887
0.436393 0.0572976 0.0640269
0.477852 0.017792 0.067155
0.511788 0.000198367 0.0714885
0.539025 0 0.0753643
0.559167 0 0.0776684
0.573663 0 0.078996
0.583764 0 0.080293
0.590204 0 0.0816358
0.592966 0 0.0825055
0.591959 0 0.0826734
0.591959 0 0.0826734
0.591959 0 0.0826734
0.591959 0 0.0826734
0.591959 0 0.0826734
0.591959 0 0.0826734
0.591959 0 0.0826734
0.591959 0 0.0826734
0.591959 0 0.0826734
0.591959 0 0.0826734
0.591959 0 0.0826734
0.0533303 0.0651713 0.0584268
0.0531319 0.0637369 0.0579385
0.0528572 0.062089 0.0576333
0.0524147 0.0597848 0.057557
0.0539254 0.0585031 0.0576944
0.0530404 0.0581674 0.0580148
0.0738994 0.0613565 0.0586709
0.0962081 0.067277 0.059678
0.145098 0.0746777 0.0605478
0.20351 0.0827192 0.0601511
0.261448 0.0885176 0.059678
0.323735 0.0884413 0.0599527
0.381369 0.0851453 0.0611887
0.43183 0.076173 0.0638437
0.476143 0.0559701 0.0672618
0.51133 0.0193332 0.0700847
0.541024 0.00167849 0.0737163
0.563058 3.0518e-05 0.0765393
0.578775 0 0.0780194
0.590219 0 0.0790875
0.59736 0 0.0800641
0.602594 0 0.0809644
0.601267 0 0.0811322
0.599954 0 0.0813001
0.598627 0 0.0815137
0.597284 0 0.0817578
0.595941 0 0.0819867
0.594583 0 0.0822156
0.59324 0 0.0824445
0.591959 0 0.0826734
0.591959 0 0.0826734
0.591959 0 0.0826734
0.591959 0 0.0826734
0.0538949 0.0794995 0.0621195
0.0541848 0.076524 0.0614939
0.0543374 0.0738537 0.0609445
0.0541238 0.0702373 0.0605783
0.0556649 0.067628 0.0604868
0.0544594 0.0662242 0.0608377
0.0692912 0.0677653 0.0614633
0.0948043 0.074052 0.0621347
0.132189 0.0821241 0.0627604
0.193088 0.0907301 0.0627146
0.252399 0.098909 0.0620127
0.314534 0.102327 0.0617685
0.375753 0.101991 0.062211
0.428168 0.096788 0.0641337
0.475654 0.0851759 0.0675364
0.513329 0.0686351 0.0702525
0.543435 0.0410315 0.072221
0.567391 0.0159304 0.0743572
0.58381 0.00621042 0.076051
0.59585 0 0.0773022
0.604303 0 0.0782025
0.610269 0 0.078996
0.610681 0 0.0794537
0.609384 0 0.0798047
0.608103 0 0.0801556
0.606806 0 0.080415
0.605493 0 0.0805829
0.604166 0 0.0807507
0.602853 0 0.0809339
0.601541 0 0.0811017
0.600229 0 0.0812695
0.598901 0 0.0814679
0.597559 0 0.0817121
0.0515755 0.100175 0.0662547
0.0519722 0.0970016 0.0656596
0.052369 0.093904 0.0650645
0.0533303 0.0890974 0.0645609
0.0552071 0.0842756 0.0641031
0.0562753 0.0816358 0.064271
0.062562 0.0809796 0.0647746
0.0921187 0.0851606 0.065156
0.123766 0.0924392 0.0652323
0.182055 0.100633 0.0654002
0.24387 0.109865 0.0648356
0.306172 0.115053 0.0646372
0.369787 0.116136 0.0645151
0.425711 0.11397 0.0654154
0.474968 0.107164 0.0680095
0.516838 0.0971847 0.0710307
0.549203 0.0865034 0.0728771
0.574426 0.0728466 0.0740673
0.592416 0.061677 0.0749676
0.604501 0.0527962 0.0755169
0.613062 0.0479591 0.0760357
0.619226 0.0452125 0.0768902
0.621805 0.0384527 0.0774548
0.62005 0.0287327 0.0776837
0.61828 0.0189975 0.0778973
0.61648 0.00906386 0.0781262
0.614755 0 0.0783551
0.613474 0 0.078706
0.612192 0 0.079057
0.610925 0 0.0793927
0.609644 0 0.0797436
0.608362 0 0.0800793
0.60708 0 0.0803845
0.0452277 0.121599 0.0712139
0.0465095 0.118364 0.0703899
0.0477302 0.115267 0.0695964
0.049958 0.110903 0.0688792
0.0525368 0.104891 0.0683757
0.0570382 0.101259 0.0682994
0.057496 0.100359 0.0688182
0.0861372 0.103227 0.0690471
0.116182 0.110323 0.0688487
0.170489 0.118486 0.0683604
0.235096 0.126848 0.0679332
0.298268 0.134051 0.067689
0.363363 0.136294 0.0669718
0.423514 0.13547 0.0669718
0.475288 0.130755 0.0686503
0.520195 0.122591 0.0716564
0.555474 0.114961 0.0737621
0.583551 0.10811 0.0749981
0.603738 0.101991 0.0758984
0.617578 0.097261 0.0765087
0.627176 0.0937667 0.0769207
0.633143 0.0926986 0.0772412
0.637522 0.0915847 0.0775158
0.635187 0.0850233 0.0774243
0.632868 0.0784772 0.0773327
0.630488 0.0717632 0.0772412
0.628153 0.0652171 0.0771649
0.625834 0.0586557 0.0770733
0.62388 0.0499428 0.0771954
0.622126 0.0402228 0.0774243
0.620371 0.0304875 0.0776379
0.618601 0.0207675 0.0778668
0.616846 0.0110475 0.0780804
0.0292515 0.145266 0.0763867
0.0320745 0.141619 0.0756237
0.0345922 0.138109 0.074876
0.0373388 0.13431 0.0741588
0.0419623 0.126787 0.0736248
0.0518959 0.121294 0.0732891
0.0535744 0.119753 0.07364
0.077409 0.122301 0.0740673
0.113359 0.129122 0.0735027
0.15845 0.138018 0.0726177
0.225376 0.147189 0.0714427
0.290684 0.155749 0.0703593
0.356619 0.160418 0.0695506
0.421164 0.161975 0.0686961
0.475975 0.160159 0.0692912
0.524758 0.154665 0.0716259
0.563012 0.148638 0.0739147
0.592859 0.142931 0.0754711
0.616114 0.137896 0.0765545
0.63151 0.134005 0.0772259
0.642252 0.130953 0.0776532
0.649302 0.129244 0.0778668
0.65391 0.128099 0.0779736
0.65304 0.123598 0.0779889
0.650462 0.118441 0.0779126
0.647944 0.113405 0.0778363
0.645426 0.108354 0.07776
0.642924 0.103304 0.0776837
0.640406 0.0982681 0.0776074
0.637949 0.0927749 0.0775311
0.635615 0.0862135 0.0774395
0.63328 0.0796674 0.077348
0.630961 0.073106 0.0772717
0 0.173541 0.0813916
0 0.169284 0.0806744
0.00337224 0.165072 0.079942
0.00859083 0.161074 0.0792248
0.0156558 0.15378 0.0786755
0.0309911 0.146029 0.078294
0.0447395 0.143008 0.0784009
0.0618143 0.14374 0.0787976
0.10724 0.149615 0.0784619
0.14963 0.158801 0.0773327
0.214313 0.168276 0.0758221
0.282216 0.177844 0.0738231
0.349844 0.18468 0.0721294
0.417884 0.188052 0.0707256
0.477165 0.188952 0.070161
0.528923 0.186069 0.0715801
0.572229 0.181445 0.0735027
0.604212 0.176883 0.0753948
0.628794 0.172869 0.0768139
0.646494 0.169833 0.0775616
0.658366 0.167773 0.0778973
0.666438 0.1664 0.0781262
0.671138 0.165835 0.0782025
0.672511 0.16321 0.0781872
0.669612 0.157794 0.0781567
0.66688 0.152285 0.0781262
0.66421 0.146746 0.0781109
0.661524 0.141192 0.0780804
0.658854 0.135653 0.0780499
0.656184 0.130114 0.0780346
0.653513 0.124559 0.0780041
0.65098 0.119478 0.0779278
0.648463 0.114427 0.0778515
0 0.202426 0.0865034
0 0.198016 0.0856489
0 0.193805 0.0848249
0 0.189593 0.0840314
0 0.183673 0.0834211
0.0033875 0.174975 0.0828412
0.0237736 0.169772 0.0821393
0.0349584 0.169894 0.0823987
0.0949111 0.174624 0.0822919
0.139361 0.183734 0.0813306
0.201541 0.193835 0.0796521
0.272984 0.204089 0.0772869
0.341741 0.212558 0.0744488
0.412161 0.217304 0.0724956
0.47715 0.219318 0.0712291
0.532479 0.218387 0.0713207
0.580087 0.214694 0.0724651
0.615793 0.21059 0.0742504
0.642649 0.205966 0.0765698
0.662043 0.203128 0.0775921
0.67538 0.201511 0.0779278
0.684611 0.201099 0.0780499
0.690089 0.201434 0.0782483
0.693828 0.201434 0.0783703
0.690761 0.196323 0.0783551
0.687694 0.191211 0.0783551
0.684688 0.186007 0.0783246
0.681727 0.180468 0.078294
0.678828 0.175036 0.0782635
0.675929 0.169619 0.078233
0.673045 0.164202 0.0782025
0.670146 0.158785 0.0781567
0.667369 0.153292 0.0781415
0 0.232197 0.0911116
0 0.22768 0.0905318
0 0.223178 0.0899672
0 0.21886 0.0894179
0 0.214054 0.088838
0 0.205035 0.087892
0.00129702 0.198245 0.0867475
0.00329595 0.196536 0.0860914
0.0705119 0.2 0.0853742
0.130861 0.209461 0.0844892
0.187411 0.221302 0.0829023
0.26154 0.232425 0.0802777
0.333059 0.242588 0.0768597
0.404288 0.249577 0.0735637
0.473655 0.253422 0.0710613
0.532662 0.254078 0.0700999
0.585351 0.251377 0.0704814
0.625422 0.247639 0.0716716
0.654932 0.243305 0.0739757
0.677058 0.239246 0.0761425
0.691905 0.237491 0.0766155
0.702358 0.23653 0.076997
0.709285 0.236942 0.0773632
0.713787 0.23769 0.07776
0.712642 0.233799 0.0779736
0.709621 0.228428 0.0781109
0.7066 0.223056 0.0782635
0.703563 0.21767 0.0784161
0.700511 0.212558 0.0784009
0.697444 0.207462 0.0783856
0.694377 0.20235 0.0783703
0.69131 0.197253 0.0783703
0.688258 0.192142 0.0783551
0 0.264302 0.095552
0 0.259449 0.0948653
0 0.254704 0.0941939
0 0.249958 0.0935225
0 0.245212 0.0928511
0 0.237003 0.092195
0 0.228382 0.0914015
0 0.225376 0.0902266
0.0273899 0.226932 0.088777
0.117754 0.23508 0.0874037
0.174289 0.24828 0.0858778
0.247684 0.260746 0.0833448
0.323262 0.272725 0.0791638
0.395453 0.281392 0.0747387
0.467353 0.287205 0.0706951
0.530388 0.289662 0.0679332
0.585794 0.288441 0.0675212
0.631937 0.285405 0.0678721
0.664866 0.281743 0.0694285
0.689326 0.278111 0.071397
0.706859 0.275944 0.0727092
0.718456 0.275273 0.0731518
0.726619 0.274983 0.0738842
0.731762 0.275563 0.0746319
0.733364 0.273503 0.0753033
0.73051 0.267781 0.0758221
0.727733 0.262181 0.0763409
0.724956 0.25658 0.0768444
0.722179 0.25098 0.0773632
0.719249 0.245533 0.0776532
0.716228 0.240146 0.0777905
0.713207 0.234775 0.0779431
0.71017 0.229404 0.0780957
0 0.297627 0.0995499
0 0.292897 0.0989242
0 0.288029 0.0983444
0 0.283116 0.0977798
0 0.278325 0.0972152
0 0.271519 0.0965286
0 0.262165 0.095613
0 0.256764 0.0942702
0.00146487 0.257176 0.09308
0.0827802 0.263249 0.0905776
0.158938 0.276616 0.0888685
0.232288 0.291127 0.0858015
0.311864 0.304112 0.0809491
0.386587 0.315084 0.075288
0.459953 0.322164 0.0693217
0.527092 0.326116 0.0649271
0.585 0.326421 0.0628519
0.635111 0.323812 0.0627451
0.672572 0.320348 0.0632486
0.700328 0.316686 0.0644083
0.719982 0.314519 0.0656596
0.733303 0.313787 0.0666819
0.742351 0.313237 0.0676738
0.747631 0.312871 0.0686809
0.751446 0.312322 0.0695048
0.748989 0.306966 0.0703746
0.746532 0.30161 0.0712596
0.74403 0.296132 0.0721599
0.741573 0.290776 0.0730449
0.739116 0.28542 0.07393
0.736568 0.280003 0.0747082
0.733791 0.274403 0.075227
0.73109 0.268925 0.0757305
0 0.327153 0.103212
0 0.323125 0.102785
0 0.319265 0.102358
0 0.314977 0.101839
0 0.310536 0.101244
0 0.305684 0.100633
0 0.296483 0.0997787
0 0.29012 0.0986496
0 0.289418 0.0978866
0.0393835 0.293492 0.0951095
0.143557 0.306279 0.0922103
0.214252 0.322545 0.0884871
0.298787 0.337743 0.0827802
0.378149 0.351446 0.0747997
0.452842 0.360449 0.0663767
0.523919 0.365881 0.0600595
0.584207 0.367376 0.0555123
0.638239 0.365469 0.0537728
0.679713 0.362219 0.0531472
0.71043 0.358328 0.0540932
0.733303 0.3552 0.0555734
0.748074 0.35404 0.0569009
0.757992 0.353307 0.0581521
0.763989 0.352209 0.0592203
0.767498 0.35111 0.0602884
0.766415 0.346334 0.0619669
0.763928 0.340703 0.0633555
0.761517 0.335225 0.0645457
0.759121 0.329747 0.0657359
0.75671 0.324269 0.0669261
0.754299 0.318791 0.0681163
0.751888 0.313313 0.0692912
0.749447 0.307942 0.070222
0 0.35259 0.105867
0 0.348867 0.105501
0 0.345296 0.105135
0 0.341726 0.104784
0 0.33814 0.104417
0 0.334371 0.104005
0 0.327321 0.103349
0 0.320027 0.102419
0 0.319066 0.10164
0.0121157 0.323018 0.100267
0.119646 0.334081 0.0962234
0.196597 0.352026 0.0914321
0.282445 0.369757 0.0847791
0.368078 0.38703 0.0745861
0.446021 0.399466 0.0624704
0.520378 0.407141 0.0523079
0.584558 0.410437 0.0412451
0.64036 0.409674 0.0273747
0.686976 0.406851 0.0292363
0.721172 0.403693 0.0298772
0.746502 0.400244 0.0291752
0.764004 0.39791 0.0305943
0.775006 0.396689 0.0339208
0.782132 0.395529 0.0368505
0.785672 0.394156 0.0392615
0.786191 0.390417 0.0430915
0.783062 0.383734 0.0482185
0.780087 0.377279 0.0523079
0.777447 0.371298 0.0541695
0.774807 0.365332 0.0560311
0.772168 0.359365 0.0578927
0.769528 0.353384 0.0597543
0.766888 0.347417 0.0616159
0 0.37557 0.108034
0 0.372168 0.107713
0 0.368902 0.107424
0 0.365637 0.107118
0 0.362448 0.106828
0 0.359258 0.106538
0 0.354177 0.10605
0 0.347189 0.105425
0 0.344793 0.104311
0 0.348608 0.103593
0.0770275 0.358618 0.0993362
0.179019 0.377295 0.0938582
0.26421 0.397604 0.0863355
0.354421 0.417304 0.0747234
0.436912 0.434272 0.0581674
0.514229 0.444846 0.0357061
0.584253 0.45153 0.0102235
0.643305 0.453849 0.00198367
0.693324 0.452049 0.00393683
0.731853 0.449821 0.00503548
0.760815 0.446906 0.00300603
0.781048 0.444663 0
0.79382 0.442832 0
0.80264 0.441993 0.00370794
0.807446 0.441367 0.00764477
0.810208 0.439826 0.0104372
0.806577 0.43267 0.0142061
0.80296 0.425528 0.0179599
0.799329 0.418387 0.0217288
0.79617 0.411688 0.0267948
0.793027 0.405005 0.0319219
0.789899 0.398322 0.0370489
0.78677 0.391623 0.0421607
0 0.394202 0.109834
0 0.391806 0.109651
0 0.389059 0.109377
0 0.386328 0.109102
0 0.383642 0.108827
0 0.380911 0.108553
0 0.377935 0.108248
0 0.371786 0.107698
0 0.36878 0.1066
0 0.372152 0.105562
0.0386053 0.381216 0.101732
0.160403 0.400031 0.0952163
0.245792 0.422934 0.0866712
0.337972 0.444221 0.0742504
0.424323 0.463661 0.0507973
0.504814 0.478157 0.0137026
0.58085 0.488701 7.62951e-05
0.644205 0.494377 0
0.699062 0.495003 0
0.741512 0.493904 0
0.774029 0.492226 0
0.798138 0.490242 0
0.81323 0.488975 0
0.823514 0.488319 0
0.830442 0.488487 0
0.83476 0.488731 0
0.832929 0.483406 0
0.829221 0.476432 0
0.825513 0.469459 0
0.82179 0.46247 0
0.818128 0.455406 0.00222782
0.814496 0.448264 0.00598154
0.810864 0.441123 0.00975052
0 0.407874 0.110399
0 0.406119 0.110399
0 0.404456 0.110414
0 0.402335 0.110292
0 0.400259 0.11017
0 0.398123 0.110048
0 0.396048 0.109926
0 0.39237 0.10956
0 0.38883 0.108782
0 0.392309 0.107118
0.0138094 0.401282 0.10396
0.137606 0.418723 0.0965133
0.228504 0.444144 0.086717
0.319982 0.468147 0.073106
0.409644 0.490196 0.0468757
0.492882 0.508492 0.00404364
0.57351 0.523033 3.0518e-05
0.642969 0.532464 0
0.701915 0.536217 0
0.7505 0.536889 0
0.78613 0.535882 0
0.812894 0.534234 0
0.831434 0.533043 0
0.842924 0.532158 0
0.851316 0.532204 0
0.856748 0.533059 0
0.858091 0.530617 0
0.854673 0.524224 0
0.85127 0.517815 0
0.847852 0.511406 0
0.844434 0.505013 0
0.840955 0.498451 0
0.837232 0.491478 0
0 0.418326 0.110292
0 0.416922 0.110323
0 0.415549 0.110353
0 0.414191 0.110399
0 0.412604 0.110399
0 0.410971 0.110399
0 0.409339 0.110399
0 0.40737 0.110246
0 0.404868 0.10985
0 0.407492 0.108156
0 0.416358 0.105638
0.0915694 0.432471 0.0981613
0.210086 0.458625 0.0875563
0.300801 0.485664 0.0725109
0.392432 0.510323 0.0384527
0.478981 0.53344 0
0.562448 0.551461 1.5259e-05
0.638163 0.564935 0
0.702159 0.572976 0
0.756237 0.576333 0
0.79675 0.577569 0
0.826795 0.576745 0
0.847913 0.575952 0
0.861997 0.575692 0
0.871504 0.575418 0
0.877592 0.575875 0
0.881773 0.575784 0
0.878538 0.569589 0
0.875242 0.563302 0
0.871962 0.557015 0
0.868681 0.550744 0
0.865385 0.544457 0
0.862104 0.53817 0
0 0.426764 0.110246
0 0.425574 0.110231
0 0.424399 0.110231
0 0.423255 0.110216
0 0.422095 0.110216
0 0.42089 0.110216
0 0.419547 0.110262
0 0.418265 0.110246
0 0.417029 0.110018
0 0.41915 0.108614
0 0.427527 0.106294
0.0483864 0.441733 0.0999161
0.18822 0.467155 0.0889296
0.279973 0.496712 0.0735027
0.373266 0.523445 0.0373236
0.462669 0.549874 0.0011902
0.547738 0.572168 0
0.628748 0.589563 0
0.6972 0.601495 0
0.757092 0.60824 0
0.803174 0.611994 0
0.836912 0.613306 0
0.862043 0.613718 0
0.87837 0.61442 0
0.889708 0.615137 0
0.897093 0.615641 0
0.901991 0.616159 0
0.901015 0.612268 0
0.8981 0.60679 0
0.894942 0.600809 0
0.891798 0.594827 0
0.888655 0.588846 0
0.885496 0.582849 0
0 0.432853 0.110201
0 0.432029 0.110201
0 0.431174 0.110216
0 0.43032 0.110216
0 0.42948 0.110231
0 0.428626 0.110246
0 0.427771 0.110246
0 0.426642 0.110246
0 0.426886 0.109911
0 0.428138 0.109102
0 0.436255 0.106676
0.0194247 0.449592 0.101579
0.165164 0.472129 0.0906539
0.259113 0.502937 0.0746929
0.352468 0.532143 0.0396735
0.444709 0.561166 0.000839246
0.531441 0.586664 0
0.615244 0.607675 0
0.68864 0.623499 0
0.752071 0.633417 0
0.804776 0.639735 0
0.843015 0.642969 0
0.871412 0.644541 0
0.891463 0.646403 0
0.904311 0.647929 0
0.913176 0.648905 0
0.918456 0.649546 0
0.920165 0.647883 0
0.917784 0.643534 0
0.915404 0.63917 0
0.912612 0.633951 0
0.909819 0.628748 0
0.907103 0.623652 0
0 0.437446 0.110689
0 0.436683 0.11043
0 0.435966 0.110262
0 0.435309 0.110246
0 0.434669 0.110231
0 0.434043 0.110216
0 0.433402 0.110216
0 0.432776 0.110201
0 0.433478 0.109957
0 0.43563 0.109377
0 0.442634 0.106996
0 0.455497 0.102754
0.116579 0.476036 0.0926528
0.239887 0.506157 0.0784772
0.331655 0.537026 0.0416419
0.425116 0.56762 0.00169375
0.513863 0.596658 0
0.598871 0.620157 0
0.676829 0.639506 0
0.744244 0.653437 0
0.801633 0.662226 0
0.845289 0.667979 0
0.877989 0.670924 0
0.900923 0.673411 0
0.916106 0.675669 0
0.92636 0.677089 0
0.931975 0.677378 0
0.936019 0.677302 0
0.934005 0.673518 0
0.931991 0.669718 0
0.929976 0.665919 0
0.927733 0.661768 0
0.925353 0.657404 0
0 0.443687 0.113802
0 0.442527 0.113054
0 0.441413 0.112337
0 0.44033 0.11165
0 0.439582 0.111406
0 0.438834 0.111147
0 0.438102 0.110903
0 0.437369 0.110658
0 0.437278 0.110292
0 0.440299 0.109545
0 0.446845 0.10721
0.00184634 0.45951 0.103075
0.0809339 0.477821 0.0941482
0.220142 0.506294 0.0807507
0.310201 0.538277 0.0514076
0.404288 0.569879 0.00373846
0.494759 0.60119 0
0.580697 0.627665 0
0.662623 0.649851 0
0.732723 0.666819 0
0.795117 0.679164 0
0.843824 0.687297 0
0.880476 0.692226 0
0.907668 0.695598 0
0.925124 0.698604 0
0.936675 0.70071 0
0.943908 0.701656 0
0.948119 0.701549 0
0.947692 0.698985 0
0.945891 0.695659 0
0.944076 0.692348 0
0.942275 0.689036 0
0.940414 0.685588 0
0 0.452491 0.120455
0 0.451072 0.119295
0 0.449683 0.118166
0 0.44828 0.117037
0 0.446891 0.115908
0 0.445731 0.115114
0 0.444648 0.114412
0 0.443565 0.11371
0 0.442481 0.113024
0 0.446021 0.111223
0 0.451087 0.108721
0 0.463416 0.104173
0.0602426 0.480949 0.0963149
0.2038 0.506111 0.0846418
0.291264 0.53724 0.0596628
0.382925 0.568917 0.0108644
0.47512 0.602045 0
0.56141 0.630686 0
0.645319 0.655131 0
0.719127 0.674922 0
0.784192 0.68954 0
0.838544 0.70045 0
0.879561 0.707744 0
0.910094 0.712276 0
0.931228 0.716091 0
0.944533 0.718944 0
0.953201 0.72047 0
0.957855 0.720974 0
0.959533 0.71986 0
0.957946 0.717113 0
0.956344 0.714366 0
0.954757 0.711604 0
0.95317 0.708858 0
0 0.462608 0.128878
0 0.461051 0.127565
0 0.459556 0.126329
0 0.458076 0.125078
0 0.456611 0.123857
0 0.455131 0.122606
0 0.453712 0.121431
0 0.452354 0.120333
0 0.45098 0.119219
0 0.453788 0.116732
3.0518e-05 0.460136 0.11313
0.000534066 0.470634 0.107622
0.0540627 0.48716 0.10103
0.193942 0.510262 0.0908064
0.281529 0.538994 0.0720684
0.36701 0.56907 0.0237736
0.456977 0.601358 0
0.543526 0.631922 0
0.627482 0.657633 0
0.704662 0.679438 0
0.771862 0.696437 0
0.829892 0.708965 0
0.8748 0.718166 0
0.909667 0.72433 0
0.933745 0.728832 0
0.94963 0.732357 0
0.960266 0.734661 0
0.965835 0.735439 0
0.969573 0.735729 0
0.968292 0.733791 0
0.966903 0.731594 0
0.965499 0.729397 0
0.964126 0.72726 0
0 0.470436 0.1346
0 0.470436 0.1346
0 0.469368 0.133822
0 0.467994 0.132815
0 0.466575 0.131777
0 0.465202 0.13077
0 0.463828 0.129763
0 0.462409 0.12871
0 0.460945 0.127489
0 0.461509 0.125566
0 0.470512 0.120546
0.00691234 0.481361 0.114382
0.0878614 0.497536 0.108324
0.198795 0.518868 0.101411
0.282078 0.54519 0.0858167
0.361028 0.573587 0.0541543
0.445991 0.602975 0.00294499
0.530587 0.633341 0
0.612314 0.659907 0
0.69131 0.682963 0
0.759594 0.70132 0
0.821027 0.715633 0
0.869581 0.726268 0
0.906966 0.733577 0
0.935042 0.738918 0
0.95314 0.742916 0
0.965072 0.745586 0
0.972473 0.746899 0
0.976883 0.747448 0
0.976928 0.746365 0
0.975814 0.744839 0
0.974609 0.743084 0
0.973404 0.741329 0
0 0.470436 0.1346
0 0.470436 0.1346
0 0.470436 0.1346
0 0.470436 0.1346
0 0.470436 0.1346
0 0.470436 0.1346
0 0.470436 0.1346
0 0.470436 0.1346
0 0.470436 0.1346
