Vakken/Crossmedia/Illu & Foto II/Indienen/Opdrachten les 1- 5 Seth Van den Bossche/Les 3 - opdracht - Seth Van den Bossche/LUTbeeld.CUBE
#Created by: Adobe Photoshop Export Color Lookup Plugin
TITLE "LutBeeldOpdrachtIllu"
#LUT size
LUT_3D_SIZE 32
#data domain
DOMAIN_MIN 0.0 0.0 0.0
DOMAIN_MAX 1.0 1.0 1.0
#LUT data points
0.000000 0.000000 0.000000
0.040405 0.007294 0.007294
0.073883 0.013367 0.013367
0.106506 0.019196 0.019196
0.139191 0.022491 0.022491
0.172150 0.020935 0.020935
0.205231 0.012054 0.012054
0.238342 0.000000 0.000000
0.271576 0.000000 0.000000
0.304291 0.000000 0.000000
0.336578 0.000000 0.000000
0.368469 0.000000 0.000000
0.399750 0.000000 0.000000
0.430328 0.000000 0.000000
0.460022 0.000000 0.000000
0.488831 0.000000 0.000000
0.516907 0.000000 0.000000
0.544312 0.000000 0.000000
0.571381 0.000000 0.000000
0.598267 0.000000 0.000000
0.625122 0.000000 0.000000
0.652191 0.000000 0.000000
0.679657 0.000000 0.000000
0.707703 0.000000 0.000000
0.736542 0.000000 0.000000
0.766357 0.000000 0.000000
0.797394 0.000000 0.000000
0.829773 0.000000 0.000000
0.863403 0.000000 0.000000
0.874268 0.000000 0.000000
0.874268 0.000000 0.000000
0.874268 0.000000 0.000000
0.003265 0.036926 0.003265
0.034637 0.034637 0.000244
0.070251 0.040833 0.006683
0.103943 0.046844 0.012512
0.137207 0.050781 0.015808
0.170502 0.050659 0.013855
0.203888 0.044495 0.004120
0.237335 0.030975 0.000000
0.270599 0.014282 0.000000
0.303345 0.003540 0.000000
0.335754 0.000000 0.000000
0.367737 0.000000 0.000000
0.399109 0.000000 0.000000
0.429749 0.000000 0.000000
0.459503 0.000000 0.000000
0.488373 0.000000 0.000000
0.516449 0.000000 0.000000
0.543976 0.000000 0.000000
0.571045 0.000000 0.000000
0.597931 0.000000 0.000000
0.624817 0.000000 0.000000
0.651917 0.000000 0.000000
0.679382 0.000000 0.000000
0.707428 0.000000 0.000000
0.736267 0.000000 0.000000
0.766113 0.000000 0.000000
0.797150 0.000000 0.000000
0.829498 0.000000 0.000000
0.863159 0.000000 0.000000
0.874268 0.000000 0.000000
0.874268 0.000000 0.000000
0.874268 0.000000 0.000000
0.004761 0.069000 0.004761
0.036743 0.067474 0.001862
0.065735 0.065735 0.000000
0.100861 0.070862 0.004547
0.134796 0.074554 0.007629
0.168549 0.075439 0.005188
0.202393 0.072144 0.000000
0.236237 0.064056 0.000000
0.269775 0.052368 0.000000
0.302765 0.044281 0.000000
0.335266 0.036987 0.000000
0.367249 0.028595 0.000000
0.398621 0.018982 0.000000
0.429169 0.007355 0.000000
0.458954 0.000000 0.000000
0.487854 0.000000 0.000000
0.515991 0.000000 0.000000
0.543488 0.000000 0.000000
0.570648 0.000000 0.000000
0.597565 0.000000 0.000000
0.624512 0.000000 0.000000
0.651581 0.000000 0.000000
0.679077 0.000000 0.000000
0.707123 0.000000 0.000000
0.735992 0.000000 0.000000
0.765839 0.000000 0.000000
0.796875 0.000000 0.000000
0.829224 0.000000 0.000000
0.862854 0.000000 0.000000
0.874268 0.000000 0.000000
0.874268 0.000000 0.000000
0.874268 0.000000 0.000000
0.003662 0.100128 0.003662
0.036896 0.099121 0.000488
0.066742 0.097931 0.000000
0.096130 0.096130 0.000000
0.131195 0.099915 0.000000
0.165710 0.101746 0.000000
0.200073 0.100433 0.000000
0.234375 0.095734 0.000000
0.268341 0.088837 0.000000
0.301666 0.084198 0.000000
0.334473 0.080200 0.000000
0.366730 0.075409 0.000000
0.398407 0.069519 0.000000
0.429169 0.062317 0.000000
0.459015 0.053375 0.000000
0.487823 0.041962 0.000000
0.515808 0.028046 0.000000
0.543091 0.012238 0.000000
0.570068 0.000000 0.000000
0.597015 0.000000 0.000000
0.623993 0.000000 0.000000
0.651093 0.000000 0.000000
0.678650 0.000000 0.000000
0.706696 0.000000 0.000000
0.735565 0.000000 0.000000
0.765411 0.000000 0.000000
0.796448 0.000000 0.000000
0.828827 0.000000 0.000000
0.862427 0.000000 0.000000
0.874268 0.000000 0.000000
0.874268 0.000000 0.000000
0.874268 0.000000 0.000000
0.000000 0.131104 0.000000
0.032288 0.130402 0.000000
0.064758 0.129517 0.000000
0.095886 0.128174 0.000000
0.126282 0.126282 0.000000
0.161804 0.128815 0.000000
0.196899 0.129059 0.000000
0.231689 0.126495 0.000000
0.266174 0.122192 0.000000
0.299896 0.119202 0.000000
0.333130 0.116638 0.000000
0.365692 0.113586 0.000000
0.397614 0.109894 0.000000
0.428680 0.105591 0.000000
0.458740 0.100525 0.000000
0.487823 0.094604 0.000000
0.516052 0.087555 0.000000
0.543579 0.079163 0.000000
0.570648 0.068939 0.000000
0.597443 0.056030 0.000000
0.624146 0.038818 0.000000
0.650848 0.018433 0.000000
0.678009 0.000000 0.000000
0.706085 0.000000 0.000000
0.734955 0.000000 0.000000
0.764801 0.000000 0.000000
0.795868 0.000000 0.000000
0.828278 0.000000 0.000000
0.861938 0.000000 0.000000
0.874268 0.000000 0.000000
0.874268 0.000000 0.000000
0.874268 0.000000 0.000000
0.000000 0.162140 0.000000
0.019653 0.161560 0.000000
0.056885 0.160919 0.000000
0.091980 0.159943 0.000000
0.124634 0.158539 0.000000
0.156494 0.156494 0.000000
0.192566 0.157928 0.000000
0.228149 0.156982 0.000000
0.263184 0.154449 0.000000
0.297516 0.152374 0.000000
0.331116 0.150665 0.000000
0.364075 0.148468 0.000000
0.396332 0.145996 0.000000
0.427643 0.143005 0.000000
0.458008 0.139587 0.000000
0.487305 0.135620 0.000000
0.515747 0.131073 0.000000
0.543457 0.125885 0.000000
0.570831 0.119873 0.000000
0.597839 0.112946 0.000000
0.624817 0.104858 0.000000
0.651886 0.095367 0.000000
0.679260 0.083862 0.000000
0.707123 0.069763 0.000000
0.735626 0.051086 0.000000
0.764771 0.025879 0.000000
0.795135 0.000000 0.000000
0.827545 0.000000 0.000000
0.861206 0.000000 0.000000
0.874268 0.000000 0.000000
0.874268 0.000000 0.000000
0.874268 0.000000 0.000000
0.000000 0.193481 0.000000
0.000000 0.192841 0.000000
0.038055 0.192444 0.000000
0.082153 0.191742 0.000000
0.119049 0.190674 0.000000
0.153595 0.189087 0.000000
0.187042 0.187042 0.000000
0.223511 0.187408 0.000000
0.259338 0.186127 0.000000
0.294281 0.184875 0.000000
0.328430 0.183655 0.000000
0.361877 0.182129 0.000000
0.394531 0.180298 0.000000
0.426208 0.178223 0.000000
0.456848 0.175751 0.000000
0.486359 0.172913 0.000000
0.515045 0.169647 0.000000
0.542969 0.165924 0.000000
0.570496 0.161743 0.000000
0.597687 0.157013 0.000000
0.624878 0.151611 0.000000
0.652130 0.145569 0.000000
0.679779 0.138702 0.000000
0.707916 0.130829 0.000000
0.736786 0.121735 0.000000
0.766571 0.111176 0.000000
0.797455 0.098663 0.000000
0.829498 0.083313 0.000000
0.862579 0.063416 0.000000
0.875458 0.034973 0.000000
0.874268 0.000000 0.000000
0.874268 0.000000 0.000000
0.000000 0.225037 0.000000
0.000000 0.224487 0.000000
0.004211 0.223877 0.000000
0.063385 0.223480 0.000000
0.108276 0.222748 0.000000
0.146820 0.221497 0.000000
0.182953 0.219879 0.000000
0.217743 0.217743 0.000000
0.254486 0.217468 0.000000
0.290253 0.216797 0.000000
0.325104 0.216003 0.000000
0.359039 0.215027 0.000000
0.392151 0.213715 0.000000
0.424255 0.212189 0.000000
0.455231 0.210388 0.000000
0.485107 0.208313 0.000000
0.513977 0.205933 0.000000
0.542145 0.203156 0.000000
0.569824 0.200043 0.000000
0.597198 0.196564 0.000000
0.624542 0.192657 0.000000
0.651978 0.188293 0.000000
0.679810 0.183380 0.000000
0.708160 0.177856 0.000000
0.737213 0.171692 0.000000
0.767242 0.164856 0.000000
0.798401 0.157074 0.000000
0.830841 0.148315 0.000000
0.864532 0.138306 0.000000
0.879150 0.126526 0.000000
0.878601 0.112640 0.000000
0.877869 0.096069 0.000000
0.000000 0.256531 0.000000
0.000000 0.256042 0.000000
0.000000 0.255463 0.000000
0.030548 0.254944 0.000000
0.092010 0.254578 0.000000
0.136414 0.253693 0.000000
0.175842 0.252411 0.000000
0.212921 0.250702 0.000000
0.248535 0.248535 0.000000
0.285309 0.248322 0.000000
0.320953 0.247925 0.000000
0.355591 0.247284 0.000000
0.389252 0.246429 0.000000
0.421783 0.245361 0.000000
0.453156 0.244080 0.000000
0.483368 0.242554 0.000000
0.512573 0.240784 0.000000
0.540985 0.238770 0.000000
0.568878 0.236450 0.000000
0.596436 0.233795 0.000000
0.623932 0.230835 0.000000
0.651520 0.227539 0.000000
0.679474 0.223877 0.000000
0.707977 0.219818 0.000000
0.737213 0.215240 0.000000
0.767395 0.210175 0.000000
0.798767 0.204590 0.000000
0.831482 0.198395 0.000000
0.865417 0.191528 0.000000
0.881470 0.183533 0.000000
0.881104 0.174469 0.000000
0.880737 0.164429 0.000000
0.000000 0.287659 0.000000
0.000000 0.287262 0.000000
0.000000 0.286743 0.000000
0.000000 0.286041 0.000000
0.072784 0.286011 0.000000
0.124695 0.285522 0.000000
0.167480 0.284546 0.000000
0.206665 0.283203 0.000000
0.243774 0.281494 0.000000
0.279388 0.279388 0.000000
0.315979 0.279266 0.000000
0.351379 0.278961 0.000000
0.385712 0.278473 0.000000
0.418823 0.277802 0.000000
0.450684 0.276947 0.000000
0.481232 0.275879 0.000000
0.510803 0.274597 0.000000
0.539459 0.273132 0.000000
0.567566 0.271362 0.000000
0.595337 0.269409 0.000000
0.623016 0.267151 0.000000
0.650787 0.264618 0.000000
0.678864 0.261841 0.000000
0.707520 0.258728 0.000000
0.736908 0.255219 0.000000
0.767273 0.251373 0.000000
0.798798 0.247131 0.000000
0.831696 0.242493 0.000000
0.865814 0.237335 0.000000
0.883453 0.231323 0.000000
0.883148 0.224457 0.000000
0.882843 0.216980 0.000000
0.000000 0.318604 0.000000
0.000000 0.318237 0.000000
0.000000 0.317780 0.000000
0.000000 0.317200 0.000000
0.045013 0.316956 0.000000
0.110474 0.316864 0.000000
0.157623 0.316162 0.000000
0.199219 0.315216 0.000000
0.237885 0.313843 0.000000
0.274750 0.312134 0.000000
0.310059 0.310059 0.000000
0.346436 0.310059 0.000000
0.381500 0.309875 0.000000
0.415222 0.309540 0.000000
0.447693 0.309021 0.000000
0.478699 0.308319 0.000000
0.508606 0.307465 0.000000
0.537598 0.306458 0.000000
0.565948 0.305145 0.000000
0.593964 0.303741 0.000000
0.621796 0.302032 0.000000
0.649719 0.300140 0.000000
0.678009 0.298004 0.000000
0.706757 0.295563 0.000000
0.736298 0.292908 0.000000
0.766785 0.289917 0.000000
0.798523 0.286682 0.000000
0.831512 0.283051 0.000000
0.865814 0.279083 0.000000
0.885223 0.274384 0.000000
0.885010 0.268860 0.000000
0.884796 0.262878 0.000000
0.000000 0.349213 0.000000
0.000000 0.348907 0.000000
0.000000 0.348511 0.000000
0.000000 0.347961 0.000000
0.001465 0.347260 0.000000
0.091461 0.347656 0.000000
0.145447 0.347351 0.000000
0.190186 0.346680 0.000000
0.230927 0.345612 0.000000
0.269165 0.344299 0.000000
0.305573 0.342621 0.000000
0.340576 0.340576 0.000000
0.376526 0.340668 0.000000
0.411041 0.340607 0.000000
0.444092 0.340424 0.000000
0.475677 0.340088 0.000000
0.506042 0.339569 0.000000
0.535370 0.338867 0.000000
0.563995 0.337982 0.000000
0.592255 0.336975 0.000000
0.620300 0.335754 0.000000
0.648438 0.334290 0.000000
0.676819 0.332703 0.000000
0.705780 0.330902 0.000000
0.735443 0.328766 0.000000
0.766083 0.326508 0.000000
0.797882 0.323975 0.000000
0.831055 0.321167 0.000000
0.865540 0.318115 0.000000
0.886871 0.314331 0.000000
0.886719 0.309723 0.000000
0.886505 0.304810 0.000000
0.000000 0.379364 0.000000
0.000000 0.379089 0.000000
0.000000 0.378784 0.000000
0.000000 0.378265 0.000000
0.000000 0.377625 0.000000
0.063721 0.377808 0.000000
0.130096 0.377899 0.000000
0.179260 0.377502 0.000000
0.222565 0.376740 0.000000
0.262543 0.375702 0.000000
0.300293 0.374359 0.000000
0.336273 0.372742 0.000000
0.370789 0.370789 0.000000
0.406128 0.370972 0.000000
0.439911 0.371063 0.000000
0.472168 0.370972 0.000000
0.502991 0.370697 0.000000
0.532684 0.370361 0.000000
0.561737 0.369843 0.000000
0.590210 0.369202 0.000000
0.618500 0.368347 0.000000
0.646820 0.367310 0.000000
0.675415 0.366119 0.000000
0.704498 0.364807 0.000000
0.734344 0.363281 0.000000
0.765076 0.361511 0.000000
0.797058 0.359558 0.000000
0.830353 0.357391 0.000000
0.864929 0.354980 0.000000
0.888489 0.351990 0.000000
0.888336 0.348053 0.000000
0.888153 0.343872 0.000000
0.000000 0.408997 0.000000
0.000000 0.408752 0.000000
0.000000 0.408478 0.000000
0.000000 0.408020 0.000000
0.000000 0.407440 0.000000
0.016113 0.406921 0.000000
0.110199 0.407623 0.000000
0.166016 0.407562 0.000000
0.212646 0.407074 0.000000
0.254761 0.406311 0.000000
0.294006 0.405304 0.000000
0.331207 0.403961 0.000000
0.366638 0.402344 0.000000
0.400513 0.400513 0.000000
0.435120 0.400787 0.000000
0.468048 0.400970 0.000000
0.499451 0.401001 0.000000
0.529663 0.400879 0.000000
0.559021 0.400665 0.000000
0.587830 0.400269 0.000000
0.616394 0.399780 0.000000
0.644928 0.399109 0.000000
0.673706 0.398346 0.000000
0.702972 0.397400 0.000000
0.732941 0.396240 0.000000
0.763824 0.394989 0.000000
0.795898 0.393463 0.000000
0.829346 0.391815 0.000000
0.864075 0.389984 0.000000
0.890045 0.387634 0.000000
0.889893 0.384277 0.000000
0.889771 0.380707 0.000000
0.000000 0.437897 0.000000
0.000000 0.437653 0.000000
0.000000 0.437408 0.000000
0.000000 0.436981 0.000000
0.000000 0.436523 0.000000
0.000000 0.435852 0.000000
0.082397 0.436462 0.000000
0.149689 0.436768 0.000000
0.200836 0.436554 0.000000
0.245605 0.436066 0.000000
0.286713 0.435303 0.000000
0.325256 0.434265 0.000000
0.361816 0.432953 0.000000
0.396545 0.431458 0.000000
0.429657 0.429657 0.000000
0.463440 0.429993 0.000000
0.495453 0.430267 0.000000
0.526154 0.430420 0.000000
0.555969 0.430420 0.000000
0.585114 0.430328 0.000000
0.613922 0.430115 0.000000
0.642700 0.429749 0.000000
0.671692 0.429260 0.000000
0.701080 0.428680 0.000000
0.731201 0.427887 0.000000
0.762268 0.426971 0.000000
0.794464 0.425934 0.000000
0.828064 0.424683 0.000000
0.862885 0.423309 0.000000
0.891632 0.421509 0.000000
0.891449 0.418610 0.000000
0.891327 0.415497 0.000000
0.000000 0.465973 0.000000
0.000000 0.465790 0.000000
0.000000 0.465515 0.000000
0.000000 0.465240 0.000000
0.000000 0.464752 0.000000
0.000000 0.464172 0.000000
0.034821 0.464020 0.000000
0.128967 0.464966 0.000000
0.186676 0.465088 0.000000
0.234894 0.464783 0.000000
0.278229 0.464264 0.000000
0.318420 0.463501 0.000000
0.356232 0.462524 0.000000
0.391968 0.461304 0.000000
0.425903 0.459778 0.000000
0.458069 0.458069 0.000000
0.490875 0.458557 0.000000
0.522186 0.458893 0.000000
0.552460 0.459167 0.000000
0.582001 0.459259 0.000000
0.611115 0.459259 0.000000
0.640167 0.459229 0.000000
0.669373 0.458954 0.000000
0.698975 0.458618 0.000000
0.729279 0.458160 0.000000
0.760437 0.457550 0.000000
0.792816 0.456879 0.000000
0.826477 0.455994 0.000000
0.861542 0.455017 0.000000
0.893066 0.453674 0.000000
0.892944 0.451172 0.000000
0.892822 0.448486 0.000000
0.000000 0.493317 0.000000
0.000000 0.493103 0.000000
0.000000 0.492889 0.000000
0.000000 0.492554 0.000000
0.000000 0.492188 0.000000
0.000000 0.491669 0.000000
0.000000 0.490997 0.000000
0.101074 0.492126 0.000000
0.169403 0.492554 0.000000
0.222198 0.492554 0.000000
0.268372 0.492279 0.000000
0.310486 0.491730 0.000000
0.349762 0.490967 0.000000
0.386688 0.489990 0.000000
0.421539 0.488770 0.000000
0.454559 0.487396 0.000000
0.485718 0.485718 0.000000
0.517700 0.486267 0.000000
0.548523 0.486725 0.000000
0.578522 0.487030 0.000000
0.607971 0.487244 0.000000
0.637299 0.487396 0.000000
0.666718 0.487396 0.000000
0.696564 0.487305 0.000000
0.726990 0.487122 0.000000
0.758331 0.486786 0.000000
0.790802 0.486328 0.000000
0.824615 0.485809 0.000000
0.859802 0.485138 0.000000
0.894592 0.484283 0.000000
0.894440 0.482056 0.000000
0.894348 0.479706 0.000000
0.000000 0.519836 0.000000
0.000000 0.519684 0.000000
0.000000 0.519531 0.000000
0.000000 0.519257 0.000000
0.000000 0.518860 0.000000
0.000000 0.518402 0.000000
0.000000 0.517792 0.000000
0.057007 0.518158 0.000000
0.147949 0.519196 0.000000
0.207245 0.519470 0.000000
0.256897 0.519379 0.000000
0.301361 0.519043 0.000000
0.342407 0.518494 0.000000
0.380646 0.517700 0.000000
0.416595 0.516785 0.000000
0.450439 0.515594 0.000000
0.482391 0.514252 0.000000
0.512726 0.512726 0.000000
0.544128 0.513336 0.000000
0.574554 0.513855 0.000000
0.604431 0.514221 0.000000
0.634033 0.514557 0.000000
0.663788 0.514771 0.000000
0.693756 0.514923 0.000000
0.724426 0.514923 0.000000
0.755890 0.514832 0.000000
0.788513 0.514618 0.000000
0.822479 0.514374 0.000000
0.857758 0.513947 0.000000
0.894165 0.513458 0.000000
0.895966 0.511536 0.000000
0.895813 0.509430 0.000000
0.000000 0.545990 0.000000
0.000000 0.545837 0.000000
0.000000 0.545654 0.000000
0.000000 0.545349 0.000000
0.000000 0.545074 0.000000
0.000000 0.544617 0.000000
0.000000 0.544067 0.000000
0.000000 0.543427 0.000000
0.119843 0.545105 0.000000
0.189240 0.545715 0.000000
0.243530 0.545837 0.000000
0.290894 0.545746 0.000000
0.333954 0.545319 0.000000
0.373749 0.544800 0.000000
0.410889 0.544067 0.000000
0.445770 0.543152 0.000000
0.478577 0.541992 0.000000
0.509521 0.540741 0.000000
0.539215 0.539215 0.000000
0.570190 0.539886 0.000000
0.600494 0.540466 0.000000
0.630493 0.540955 0.000000
0.660461 0.541382 0.000000
0.690704 0.541656 0.000000
0.721558 0.541870 0.000000
0.753235 0.541992 0.000000
0.785980 0.542053 0.000000
0.820099 0.541992 0.000000
0.855530 0.541779 0.000000
0.891998 0.541565 0.000000
0.897369 0.539948 0.000000
0.897247 0.538116 0.000000
0.000000 0.571716 0.000000
0.000000 0.571564 0.000000
0.000000 0.571442 0.000000
0.000000 0.571198 0.000000
0.000000 0.570862 0.000000
0.000000 0.570496 0.000000
0.000000 0.569977 0.000000
0.000000 0.569397 0.000000
0.078461 0.570282 0.000000
0.167084 0.571442 0.000000
0.227844 0.571838 0.000000
0.278839 0.571899 0.000000
0.324310 0.571747 0.000000
0.365845 0.571381 0.000000
0.404419 0.570831 0.000000
0.440460 0.570099 0.000000
0.474182 0.569214 0.000000
0.505890 0.568085 0.000000
0.536163 0.566803 0.000000
0.565369 0.565369 0.000000
0.596130 0.566101 0.000000
0.626526 0.566742 0.000000
0.656799 0.567322 0.000000
0.687347 0.567810 0.000000
0.718353 0.568268 0.000000
0.750183 0.568573 0.000000
0.783112 0.568756 0.000000
0.817322 0.568909 0.000000
0.852936 0.568939 0.000000
0.889587 0.568909 0.000000
0.898773 0.567627 0.000000
0.898712 0.565918 0.000000
0.000000 0.597321 0.000000
0.000000 0.597198 0.000000
0.000000 0.597046 0.000000
0.000000 0.596802 0.000000
0.000000 0.596527 0.000000
0.000000 0.596161 0.000000
0.000000 0.595703 0.000000
0.000000 0.595154 0.000000
0.000000 0.594482 0.000000
0.138763 0.596771 0.000000
0.209167 0.597504 0.000000
0.264801 0.597839 0.000000
0.313263 0.597870 0.000000
0.356964 0.597626 0.000000
0.397186 0.597260 0.000000
0.434479 0.596710 0.000000
0.469208 0.595978 0.000000
0.501740 0.595062 0.000000
0.532684 0.593994 0.000000
0.562439 0.592743 0.000000
0.591339 0.591339 0.000000
0.622131 0.592163 0.000000
0.652771 0.592926 0.000000
0.683563 0.593567 0.000000
0.714813 0.594147 0.000000
0.746857 0.594635 0.000000
0.779938 0.595032 0.000000
0.814240 0.595337 0.000000
0.850037 0.595581 0.000000
0.886871 0.595703 0.000000
0.900208 0.594788 0.000000
0.900146 0.593170 0.000000
0.000000 0.622925 0.000000
0.000000 0.622803 0.000000
0.000000 0.622650 0.000000
0.000000 0.622467 0.000000
0.000000 0.622162 0.000000
0.000000 0.621826 0.000000
0.000000 0.621338 0.000000
0.000000 0.620819 0.000000
0.000000 0.620239 0.000000
0.098907 0.621735 0.000000
0.186432 0.623047 0.000000
0.248505 0.623596 0.000000
0.300629 0.623810 0.000000
0.346863 0.623779 0.000000
0.388885 0.623596 0.000000
0.427704 0.623199 0.000000
0.463654 0.622650 0.000000
0.497101 0.621918 0.000000
0.528778 0.621002 0.000000
0.559113 0.619934 0.000000
0.588501 0.618713 0.000000
0.617310 0.617310 0.000000
0.648376 0.618256 0.000000
0.679443 0.619019 0.000000
0.710938 0.619781 0.000000
0.743195 0.620453 0.000000
0.776398 0.621033 0.000000
0.810913 0.621521 0.000000
0.846832 0.621948 0.000000
0.883820 0.622284 0.000000
0.901642 0.621643 0.000000
0.901581 0.620178 0.000000
0.000000 0.648682 0.000000
0.000000 0.648560 0.000000
0.000000 0.648438 0.000000
0.000000 0.648224 0.000000
0.000000 0.647980 0.000000
0.000000 0.647614 0.000000
0.000000 0.647186 0.000000
0.000000 0.646729 0.000000
0.000000 0.646118 0.000000
0.021759 0.645874 0.000000
0.157837 0.648499 0.000000
0.229218 0.649414 0.000000
0.286072 0.649841 0.000000
0.335327 0.649994 0.000000
0.379639 0.649963 0.000000
0.420074 0.649750 0.000000
0.457397 0.649353 0.000000
0.491913 0.648773 0.000000
0.524384 0.648041 0.000000
0.555328 0.647156 0.000000
0.585266 0.646118 0.000000
0.614563 0.644897 0.000000
0.643524 0.643524 0.000000
0.674988 0.644531 0.000000
0.706696 0.645447 0.000000
0.739166 0.646240 0.000000
0.772583 0.646942 0.000000
0.807190 0.647675 0.000000
0.843262 0.648254 0.000000
0.880524 0.648743 0.000000
0.903076 0.648468 0.000000
0.903015 0.647095 0.000000
0.000000 0.674744 0.000000
0.000000 0.674622 0.000000
0.000000 0.674500 0.000000
0.000000 0.674316 0.000000
0.000000 0.674072 0.000000
0.000000 0.673767 0.000000
0.000000 0.673340 0.000000
0.000000 0.672852 0.000000
0.000000 0.672333 0.000000
0.000000 0.671692 0.000000
0.119049 0.673889 0.000000
0.205994 0.675354 0.000000
0.269165 0.676117 0.000000
0.322235 0.676514 0.000000
0.369080 0.676636 0.000000
0.411499 0.676544 0.000000
0.450348 0.676300 0.000000
0.486053 0.675903 0.000000
0.519470 0.675293 0.000000
0.551178 0.674591 0.000000
0.581665 0.673706 0.000000
0.611450 0.672638 0.000000
0.640808 0.671478 0.000000
0.670074 0.670074 0.000000
0.702148 0.671143 0.000000
0.734802 0.672150 0.000000
0.768372 0.673065 0.000000
0.803192 0.673920 0.000000
0.839386 0.674683 0.000000
0.876801 0.675385 0.000000
0.904510 0.675446 0.000000
0.904449 0.674164 0.000000
0.000000 0.701324 0.000000
0.000000 0.701233 0.000000
0.000000 0.701111 0.000000
0.000000 0.700928 0.000000
0.000000 0.700653 0.000000
0.000000 0.700378 0.000000
0.000000 0.699951 0.000000
0.000000 0.699524 0.000000
0.000000 0.698975 0.000000
0.000000 0.698364 0.000000
0.052216 0.698914 0.000000
0.177185 0.701630 0.000000
0.249451 0.702728 0.000000
0.307190 0.703339 0.000000
0.357178 0.703735 0.000000
0.401855 0.703766 0.000000
0.442474 0.703735 0.000000
0.479553 0.703430 0.000000
0.514008 0.703033 0.000000
0.546509 0.702423 0.000000
0.577698 0.701721 0.000000
0.607971 0.700775 0.000000
0.637756 0.699738 0.000000
0.667389 0.698517 0.000000
0.697144 0.697144 0.000000
0.730072 0.698364 0.000000
0.763885 0.699463 0.000000
0.798828 0.700470 0.000000
0.835175 0.701416 0.000000
0.872803 0.702271 0.000000
0.905914 0.702850 0.000000
0.905853 0.701538 0.000000
0.000000 0.728577 0.000000
0.000000 0.728455 0.000000
0.000000 0.728333 0.000000
0.000000 0.728210 0.000000
0.000000 0.727936 0.000000
0.000000 0.727631 0.000000
0.000000 0.727264 0.000000
0.000000 0.726807 0.000000
0.000000 0.726318 0.000000
0.000000 0.725647 0.000000
0.000000 0.725006 0.000000
0.139130 0.728149 0.000000
0.225830 0.729828 0.000000
0.289856 0.730774 0.000000
0.343658 0.731323 0.000000
0.391022 0.731628 0.000000
0.433624 0.731689 0.000000
0.472290 0.731598 0.000000
0.507904 0.731323 0.000000
0.541382 0.730896 0.000000
0.573242 0.730286 0.000000
0.604065 0.729553 0.000000
0.634338 0.728638 0.000000
0.664398 0.727570 0.000000
0.694519 0.726379 0.000000
0.725006 0.725006 0.000000
0.758972 0.726288 0.000000
0.794098 0.727478 0.000000
0.830627 0.728638 0.000000
0.868408 0.729675 0.000000
0.907104 0.730682 0.000000
0.907227 0.729462 0.000000
0.000000 0.756683 0.000000
0.000000 0.756592 0.000000
0.000000 0.756470 0.000000
0.000000 0.756287 0.000000
0.000000 0.756042 0.000000
0.000000 0.755798 0.000000
0.000000 0.755432 0.000000
0.000000 0.754974 0.000000
0.000000 0.754456 0.000000
0.000000 0.753845 0.000000
0.000000 0.753204 0.000000
0.079803 0.754700 0.000000
0.196747 0.757568 0.000000
0.269653 0.758911 0.000000
0.328217 0.759735 0.000000
0.378784 0.760254 0.000000
0.423767 0.760529 0.000000
0.464233 0.760590 0.000000
0.501190 0.760468 0.000000
0.535645 0.760162 0.000000
0.568329 0.759674 0.000000
0.599762 0.759094 0.000000
0.630615 0.758362 0.000000
0.661072 0.757416 0.000000
0.691528 0.756348 0.000000
0.722321 0.755127 0.000000
0.753754 0.753754 0.000000
0.789032 0.755127 0.000000
0.825714 0.756531 0.000000
0.863678 0.757782 0.000000
0.902649 0.758942 0.000000
0.908661 0.758087 0.000000
0.000000 0.785828 0.000000
0.000000 0.785706 0.000000
0.000000 0.785614 0.000000
0.000000 0.785431 0.000000
0.000000 0.785187 0.000000
0.000000 0.784912 0.000000
0.000000 0.784546 0.000000
0.000000 0.784119 0.000000
0.000000 0.783600 0.000000
0.000000 0.783020 0.000000
0.000000 0.782318 0.000000
0.000000 0.781586 0.000000
0.159332 0.785858 0.000000
0.245728 0.787872 0.000000
0.310547 0.789032 0.000000
0.364960 0.789825 0.000000
0.412628 0.790283 0.000000
0.455200 0.790558 0.000000
