Vakken/Crossmedia/Illu & Foto II/Indienen/Opdrachten les 1- 5 Seth Van den Bossche/Les 3 - opdracht - Seth Van den Bossche/LUTbeeld.CUBE
#Created by: Adobe Photoshop Export Color Lookup Plugin
TITLE "LutBeeldOpdrachtIllu"
#LUT size
LUT_3D_SIZE 5
#data domain
#LUT data points
DOMAIN_MIN 0.000000 0.000000 0.000000
DOMAIN_MAX 0.903226 0.903226 0.903226
0.000000 0.000000 0.000000
0.238342 0.000000 0.000000
0.460022 0.000000 0.000000
0.652191 0.000000 0.000000
0.863403 0.000000 0.000000
0.000000 0.225037 0.000000
0.217743 0.217743 0.000000
0.455231 0.210388 0.000000
0.651978 0.188293 0.000000
0.864532 0.138306 0.000000
0.000000 0.437897 0.000000
0.149689 0.436768 0.000000
0.429657 0.429657 0.000000
0.642700 0.429749 0.000000
0.862885 0.423309 0.000000
0.000000 0.622925 0.000000
0.000000 0.620819 0.000000
0.388885 0.623596 0.000000
0.617310 0.617310 0.000000
0.846832 0.621948 0.000000
0.000000 0.816132 0.000000
0.000000 0.814453 0.000000
0.289948 0.819397 0.000000
0.589905 0.821442 0.000000
0.814789 0.814789 0.000000
0.046448 0.046448 0.245911
0.243896 0.000000 0.243896
0.468994 0.000000 0.238647
0.663025 0.000000 0.220306
0.877289 0.000000 0.180664
0.000000 0.227509 0.227509
0.222290 0.222290 0.222290
0.449493 0.234863 0.234863
0.656403 0.229401 0.229401
0.878448 0.197571 0.197571
0.000000 0.440918 0.164978
0.188507 0.431000 0.188507
0.422485 0.422485 0.150452
0.641479 0.438416 0.122772
0.860626 0.435822 0.004211
0.000000 0.622925 0.000000
0.000000 0.614624 0.000000
0.396851 0.617737 0.000000
0.611603 0.611603 0.000000
0.844360 0.624786 0.000000
0.000000 0.816132 0.000000
0.000000 0.812134 0.000000
0.315063 0.818115 0.000000
0.593658 0.819550 0.000000
0.812988 0.812988 0.000000
0.101105 0.101105 0.471771
0.265686 0.075226 0.477661
0.478485 0.000000 0.478485
0.676727 0.000000 0.479401
0.901825 0.000000 0.475098
0.006165 0.248901 0.466034
0.258850 0.258850 0.457214
0.457916 0.239777 0.457916
0.669037 0.234467 0.476288
0.901642 0.202393 0.478668
0.000000 0.446472 0.446472
0.190735 0.435669 0.435669
0.445557 0.445557 0.445557
0.646790 0.466522 0.466522
0.891663 0.485016 0.485016
0.000000 0.632812 0.409241
0.000000 0.624390 0.411072
0.434479 0.628326 0.434479
0.621002 0.621002 0.414337
0.869690 0.652344 0.428528
0.000000 0.827759 0.321381
0.000000 0.824219 0.336365
0.386078 0.842285 0.386078
0.619690 0.839752 0.356140
0.828308 0.828308 0.295013
0.169739 0.169739 0.668762
0.299683 0.157196 0.676758
0.497864 0.095062 0.685760
0.689728 0.000000 0.689728
0.923370 0.000000 0.694916
0.129730 0.285675 0.668243
0.302490 0.302490 0.668030
0.493774 0.286438 0.677185
0.681274 0.239380 0.681274
0.922638 0.206696 0.695618
0.000000 0.465210 0.657593
0.242401 0.472290 0.659912
0.482361 0.482361 0.653778
0.657471 0.474426 0.657471
0.911072 0.493439 0.692047
0.000000 0.639618 0.639618
0.000000 0.630798 0.630798
0.438568 0.633820 0.633820
0.648224 0.648224 0.648224
0.886749 0.682312 0.682312
0.000000 0.840454 0.614105
0.000000 0.836304 0.614899
0.390533 0.853027 0.634338
0.654266 0.861206 0.654266
0.852509 0.852509 0.639923
0.240997 0.240997 0.872101
0.344147 0.233734 0.884338
0.523376 0.201569 0.906952
0.710724 0.091797 0.930328
0.944611 0.000000 0.944611
0.215729 0.332275 0.877502
0.350403 0.350403 0.889801
0.525269 0.338043 0.912476
0.711792 0.301636 0.934448
0.943359 0.210876 0.943359
0.081024 0.492554 0.881134
0.300537 0.505188 0.898010
0.527618 0.527618 0.905273
0.706268 0.520996 0.920471
0.930511 0.501709 0.930511
0.000000 0.658051 0.872253
0.130890 0.663635 0.877075
0.486572 0.681030 0.892578
0.695343 0.695343 0.895294
0.904297 0.693268 0.904297
0.000000 0.851044 0.851044
0.000000 0.846588 0.846588
0.394501 0.862762 0.862762
0.659668 0.869995 0.869995
0.880188 0.880188 0.880188
