Vakken/Crossmedia/Illu & Foto II/Indienen/Opdrachten les 1- 5 Seth Van den Bossche/Les 3 - opdracht - Seth Van den Bossche/LUTbeeld.CUBE
#Created by: Adobe Photoshop Export Color Lookup Plugin
TITLE "LutBeeldOpdrachtIllu"
#LUT size
LUT_3D_SIZE 8
#data domain
#LUT data points
DOMAIN_MIN 0.000000 0.000000 0.000000
DOMAIN_MAX 0.903226 0.903226 0.903226
0.000000 0.000000 0.000000
0.139191 0.022491 0.022491
0.271576 0.000000 0.000000
0.399750 0.000000 0.000000
0.516907 0.000000 0.000000
0.625122 0.000000 0.000000
0.736542 0.000000 0.000000
0.863403 0.000000 0.000000
0.000000 0.131104 0.000000
0.126282 0.126282 0.000000
0.266174 0.122192 0.000000
0.397614 0.109894 0.000000
0.516052 0.087555 0.000000
0.624146 0.038818 0.000000
0.734955 0.000000 0.000000
0.861938 0.000000 0.000000
0.000000 0.256531 0.000000
0.092010 0.254578 0.000000
0.248535 0.248535 0.000000
0.389252 0.246429 0.000000
0.512573 0.240784 0.000000
0.623932 0.230835 0.000000
0.737213 0.215240 0.000000
0.865417 0.191528 0.000000
0.000000 0.379364 0.000000
0.000000 0.377625 0.000000
0.222565 0.376740 0.000000
0.370789 0.370789 0.000000
0.502991 0.370697 0.000000
0.618500 0.368347 0.000000
0.734344 0.363281 0.000000
0.864929 0.354980 0.000000
0.000000 0.493317 0.000000
0.000000 0.492188 0.000000
0.169403 0.492554 0.000000
0.349762 0.490967 0.000000
0.485718 0.485718 0.000000
0.607971 0.487244 0.000000
0.726990 0.487122 0.000000
0.859802 0.485138 0.000000
0.000000 0.597321 0.000000
0.000000 0.596527 0.000000
0.000000 0.594482 0.000000
0.313263 0.597870 0.000000
0.469208 0.595978 0.000000
0.591339 0.591339 0.000000
0.714813 0.594147 0.000000
0.850037 0.595581 0.000000
0.000000 0.701324 0.000000
0.000000 0.700653 0.000000
0.000000 0.698975 0.000000
0.249451 0.702728 0.000000
0.442474 0.703735 0.000000
0.577698 0.701721 0.000000
0.697144 0.697144 0.000000
0.835175 0.701416 0.000000
0.000000 0.816132 0.000000
0.000000 0.815491 0.000000
0.000000 0.813904 0.000000
0.104523 0.814575 0.000000
0.400146 0.821198 0.000000
0.556915 0.821777 0.000000
0.684570 0.819550 0.000000
0.814789 0.814789 0.000000
0.038177 0.038177 0.143768
0.140808 0.022766 0.140808
0.275116 0.000000 0.139191
0.404144 0.000000 0.128815
0.521210 0.000000 0.110596
0.628479 0.000000 0.076416
0.736542 0.000000 0.000000
0.863403 0.000000 0.000000
0.000000 0.131958 0.131958
0.127808 0.127808 0.127808
0.257568 0.133789 0.133789
0.393890 0.131622 0.131622
0.516022 0.118042 0.118042
0.625946 0.089264 0.089264
0.734375 0.021118 0.021118
0.860657 0.000000 0.000000
0.000000 0.257721 0.100861
0.110809 0.246674 0.110809
0.240631 0.240631 0.092743
0.383881 0.249603 0.082794
0.509674 0.248871 0.053741
0.620941 0.241333 0.000000
0.735504 0.228516 0.000000
0.864838 0.208008 0.000000
0.000000 0.379364 0.000000
0.024261 0.371124 0.024261
0.226166 0.369446 0.000000
0.363739 0.363739 0.000000
0.498260 0.370300 0.000000
0.615509 0.371399 0.000000
0.732422 0.368500 0.000000
0.863983 0.361816 0.000000
0.000000 0.493317 0.000000
0.000000 0.487610 0.000000
0.183289 0.488342 0.000000
0.350281 0.486542 0.000000
0.481445 0.481445 0.000000
0.605133 0.486755 0.000000
0.725098 0.488770 0.000000
0.858826 0.488281 0.000000
0.000000 0.597321 0.000000
0.000000 0.593750 0.000000
0.062988 0.593018 0.000000
0.318665 0.595245 0.000000
0.469116 0.593323 0.000000
0.588776 0.588776 0.000000
0.713074 0.593964 0.000000
0.849060 0.596924 0.000000
0.000000 0.701324 0.000000
0.000000 0.698944 0.000000
0.000000 0.697296 0.000000
0.260132 0.701324 0.000000
0.445251 0.702148 0.000000
0.577728 0.700073 0.000000
0.695618 0.695618 0.000000
0.834320 0.701691 0.000000
0.000000 0.816132 0.000000
0.000000 0.814606 0.000000
0.000000 0.813049 0.000000
0.133850 0.814819 0.000000
0.405426 0.820618 0.000000
0.558746 0.821045 0.000000
0.684937 0.818817 0.000000
0.814056 0.814056 0.000000
0.045624 0.045624 0.279633
0.153625 0.028168 0.281189
0.278839 0.000000 0.278839
0.409454 0.000000 0.277313
0.527771 0.000000 0.272888
0.637512 0.000000 0.264709
0.751465 0.000000 0.251862
0.881409 0.000000 0.232697
0.000000 0.144012 0.274658
0.146576 0.146576 0.263123
0.260681 0.135376 0.260681
0.398682 0.133301 0.271118
0.522186 0.119659 0.272003
0.634338 0.090607 0.266388
0.748291 0.021576 0.254578
0.878937 0.000000 0.236725
0.000000 0.259766 0.259766
0.111572 0.248352 0.248352
0.254456 0.254456 0.254456
0.379791 0.261139 0.261139
0.509033 0.270081 0.270081
0.626831 0.270599 0.270599
0.746613 0.263519 0.263519
0.882294 0.248932 0.248932
0.000000 0.383423 0.235474
0.024475 0.374695 0.235107
0.242493 0.368408 0.242493
0.362579 0.362579 0.230286
0.498505 0.378540 0.236694
0.619476 0.386383 0.234161
0.740662 0.387787 0.223083
0.876984 0.384003 0.202545
0.000000 0.496918 0.186981
0.000000 0.491364 0.194611
0.215515 0.488708 0.215515
0.359039 0.486023 0.199402
0.479889 0.479889 0.170197
0.605835 0.491943 0.159058
0.728088 0.497833 0.134735
0.862579 0.498779 0.087036
0.000000 0.598602 0.061951
0.000000 0.595703 0.092285
0.142181 0.595062 0.142181
0.334534 0.594452 0.111603
0.470642 0.588959 0.029724
0.583405 0.583405 0.000000
0.709137 0.593781 0.000000
0.846863 0.600281 0.000000
0.000000 0.701324 0.000000
0.000000 0.698944 0.000000
0.000000 0.693451 0.000000
0.284393 0.698212 0.000000
0.452057 0.698608 0.000000
0.578156 0.696564 0.000000
0.692169 0.692169 0.000000
0.832336 0.702423 0.000000
0.000000 0.816132 0.000000
0.000000 0.814606 0.000000
0.000000 0.810974 0.000000
0.187592 0.814758 0.000000
0.418152 0.819092 0.000000
0.563324 0.819366 0.000000
0.686035 0.817139 0.000000
0.812439 0.812439 0.000000
0.081757 0.081757 0.410522
0.169830 0.071472 0.413666
0.289307 0.031525 0.415466
0.414429 0.000000 0.414429
0.533691 0.000000 0.414795
0.644867 0.000000 0.413269
0.761383 0.000000 0.409546
0.895447 0.000000 0.403137
0.050659 0.161102 0.408600
0.169220 0.169220 0.402710
0.282593 0.158997 0.404541
0.403320 0.134949 0.403320
0.527832 0.121124 0.410614
0.641418 0.091766 0.412201
0.757935 0.021820 0.409363
0.892609 0.000000 0.403992
0.000000 0.270172 0.401001
0.136719 0.270142 0.395477
0.271545 0.271545 0.385193
0.383911 0.264130 0.383911
0.514221 0.273285 0.400909
0.633423 0.273956 0.409760
0.755737 0.266907 0.412384
0.895294 0.252319 0.410004
0.000000 0.386108 0.386108
0.024658 0.377167 0.377167
0.243958 0.370544 0.370544
0.383209 0.383209 0.383209
0.499023 0.390808 0.390808
0.620026 0.405487 0.405487
0.745850 0.414001 0.414001
0.890381 0.416473 0.416473
0.000000 0.500610 0.366669
0.000000 0.494812 0.364502
0.217072 0.491699 0.368073
0.374207 0.488220 0.374207
0.483093 0.483093 0.364410
0.608765 0.501678 0.377808
0.736359 0.514679 0.384827
0.881805 0.522217 0.385437
0.000000 0.604889 0.333282
0.000000 0.601349 0.335510
0.143494 0.599670 0.345306
0.362274 0.599548 0.362274
0.485382 0.596771 0.350647
0.591522 0.591522 0.332458
0.721680 0.608459 0.336456
0.867523 0.619873 0.333374
0.000000 0.708984 0.276245
0.000000 0.706696 0.282440
0.000000 0.701538 0.297028
0.328003 0.711456 0.328003
0.474274 0.710388 0.312988
0.591431 0.706726 0.289032
0.700378 0.700378 0.252014
0.845825 0.716003 0.239685
0.000000 0.821869 0.163055
0.000000 0.820862 0.177338
0.000000 0.818329 0.208618
0.256897 0.831940 0.256897
0.445953 0.833008 0.233643
0.578613 0.830017 0.193634
0.693817 0.822388 0.118835
0.810150 0.810150 0.000000
0.120483 0.120483 0.529572
0.192322 0.114044 0.533020
0.303925 0.092651 0.537048
0.424622 0.026886 0.538940
0.539459 0.000000 0.539459
0.651917 0.000000 0.541138
0.770752 0.000000 0.541565
0.908112 0.000000 0.540527
0.101196 0.184631 0.529144
0.194183 0.194183 0.527069
0.301941 0.185394 0.530975
0.420654 0.164978 0.533508
0.533386 0.122620 0.533386
0.648285 0.092865 0.538574
0.767120 0.022095 0.540039
0.905121 0.000000 0.540070
0.013153 0.284668 0.523773
0.165466 0.289825 0.523773
0.297577 0.297577 0.516998
0.410217 0.290619 0.519318
0.519379 0.276428 0.519379
0.639862 0.277191 0.532776
0.764496 0.270142 0.540222
0.907410 0.255463 0.543518
0.000000 0.396362 0.516907
0.087433 0.395966 0.514038
0.270538 0.396790 0.509247
0.399475 0.399475 0.503845
0.503723 0.394867 0.503723
0.625946 0.409760 0.523010
0.753998 0.418488 0.536774
0.901917 0.421082 0.545105
0.000000 0.503723 0.503723
0.000000 0.497833 0.497833
0.218445 0.494446 0.494446
0.376251 0.490631 0.490631
0.505035 0.505035 0.505035
0.613373 0.514496 0.514496
0.740540 0.532288 0.532288
0.891479 0.545990 0.545990
0.000000 0.608917 0.488586
0.000000 0.605194 0.486877
0.144470 0.603180 0.488525
0.364441 0.602753 0.493530
0.500092 0.602539 0.500092
0.597900 0.597900 0.492279
0.727356 0.619446 0.509399
0.878937 0.637421 0.522156
0.000000 0.714722 0.464447
0.000000 0.712280 0.465332
0.000000 0.706665 0.467560
0.330292 0.716095 0.483490
0.497009 0.717285 0.497009
0.604309 0.714203 0.488281
0.708954 0.708954 0.475403
0.861053 0.732574 0.486694
0.000000 0.831940 0.426727
0.000000 0.830475 0.429657
0.000000 0.827057 0.436737
0.259155 0.839600 0.457001
0.480469 0.849243 0.480469
0.601227 0.847656 0.470093
0.714874 0.843597 0.454681
0.836914 0.836914 0.432831
0.159760 0.159760 0.640686
0.219543 0.155334 0.644318
0.322113 0.141266 0.649750
0.438202 0.107697 0.654541
0.548767 0.005981 0.656616
0.658844 0.000000 0.658844
0.780029 0.000000 0.661835
0.920380 0.000000 0.663788
0.145905 0.212799 0.640930
0.222351 0.222351 0.640930
0.322357 0.215057 0.646301
0.436920 0.198181 0.651276
0.547516 0.164948 0.654510
0.655090 0.093933 0.655090
0.776215 0.022339 0.659241
0.917267 0.000000 0.662476
0.098969 0.304871 0.638763
0.197540 0.310852 0.639648
0.322662 0.322662 0.636993
0.432770 0.316376 0.641663
0.540710 0.303284 0.645020
0.646301 0.280426 0.646301
0.773285 0.273346 0.657776
0.919312 0.258484 0.664948
0.000000 0.409088 0.631683
0.137604 0.413544 0.633942
0.296906 0.419495 0.632599
0.427002 0.427002 0.627655
0.530487 0.422791 0.630707
0.631866 0.414032 0.631866
0.762115 0.422882 0.650604
0.913330 0.425598 0.663727
0.000000 0.513336 0.624847
0.000000 0.511200 0.620850
0.248016 0.515930 0.623260
0.404297 0.517273 0.619446
0.521606 0.521606 0.617859
0.618835 0.519196 0.618835
0.748047 0.537201 0.641418
0.902252 0.551056 0.660461
0.000000 0.612488 0.612488
0.000000 0.608704 0.608704
0.145416 0.606537 0.606537
0.366547 0.605774 0.605774
0.502472 0.605347 0.605347
0.619354 0.619354 0.619354
0.735504 0.633209 0.633209
0.888062 0.655823 0.655823
0.000000 0.719513 0.599792
0.000000 0.716980 0.598694
0.000000 0.711121 0.596252
0.332367 0.720276 0.606873
0.499542 0.721130 0.612305
0.619385 0.723236 0.619385
0.718475 0.718475 0.612579
0.871552 0.746948 0.634216
0.000000 0.838867 0.580780
0.000000 0.837341 0.581360
0.000000 0.833588 0.582886
0.261017 0.845856 0.596008
0.483185 0.855011 0.609924
0.622772 0.859131 0.622772
0.730530 0.855438 0.615326
0.849579 0.849579 0.604919
0.200043 0.200043 0.757202
0.250427 0.196869 0.761261
0.343658 0.186829 0.768372
0.453705 0.164246 0.775909
0.561798 0.117004 0.782043
0.668732 0.000000 0.784912
0.789215 0.000000 0.789215
0.932495 0.000000 0.794006
0.189362 0.244476 0.757812
0.253601 0.253601 0.759460
0.345123 0.247650 0.766418
0.453949 0.233887 0.773987
0.561554 0.207611 0.780609
0.669159 0.158295 0.785126
0.785278 0.022614 0.785278
0.929291 0.000000 0.791779
0.156433 0.327942 0.757263
0.232300 0.334381 0.759430
0.348175 0.348175 0.760437
0.453705 0.342560 0.767700
0.559235 0.330902 0.774292
0.665466 0.310394 0.779266
0.782013 0.276489 0.782013
0.931091 0.261505 0.793793
0.056183 0.425995 0.750793
0.184235 0.431976 0.755890
0.324127 0.440948 0.758026
0.452972 0.452972 0.756714
0.554718 0.449158 0.762787
0.657776 0.441101 0.767487
0.770355 0.427246 0.770355
0.924683 0.430023 0.789917
0.000000 0.524658 0.744324
0.042450 0.525970 0.743774
0.279419 0.534851 0.751312
0.431152 0.541595 0.750946
0.549347 0.549347 0.748718
0.648163 0.547211 0.753082
0.755646 0.542084 0.755646
0.912994 0.556152 0.782471
0.000000 0.622314 0.736725
0.000000 0.620911 0.734009
0.191803 0.626038 0.738281
0.394897 0.630951 0.740601
0.530548 0.634186 0.739349
0.639679 0.639679 0.740234
0.742554 0.638763 0.742554
0.898163 0.661774 0.772858
0.000000 0.723969 0.723969
0.000000 0.721375 0.721375
0.000000 0.715363 0.715363
0.334381 0.724304 0.724304
0.501984 0.724915 0.724915
0.622162 0.726807 0.726807
0.739227 0.739227 0.739227
0.882721 0.762543 0.762543
0.000000 0.845093 0.712036
0.000000 0.843506 0.711456
0.000000 0.839600 0.710144
0.262695 0.851654 0.721619
0.485718 0.860504 0.731995
0.625702 0.864258 0.739502
0.747101 0.867615 0.747101
0.862122 0.862122 0.740112
0.240997 0.240997 0.872101
0.283875 0.238586 0.877167
0.368011 0.231232 0.887238
0.471100 0.214874 0.900055
0.575592 0.183319 0.913910
0.682678 0.119965 0.927338
0.801331 0.000000 0.937775
0.944611 0.000000 0.944611
0.232361 0.278625 0.874420
0.287201 0.287201 0.879517
0.370087 0.282471 0.889496
0.472290 0.271423 0.902405
0.576294 0.250488 0.916504
0.683533 0.213318 0.930878
0.803131 0.142639 0.939819
0.941284 0.000000 0.941284
0.207214 0.353607 0.878601
0.269012 0.360199 0.884033
0.374908 0.374908 0.893860
0.474548 0.370117 0.906647
0.576996 0.359955 0.920837
0.683289 0.341980 0.931427
0.802643 0.312500 0.938507
0.942841 0.264496 0.942841
0.147461 0.446442 0.881958
0.229645 0.451782 0.888885
0.352966 0.462433 0.899628
0.477570 0.477570 0.905426
0.576935 0.474243 0.915222
0.680908 0.466980 0.923950
0.797974 0.454346 0.931091
0.936035 0.434448 0.936035
0.000000 0.537720 0.878143
0.143005 0.544037 0.887360
0.312622 0.553253 0.896637
0.456909 0.563873 0.901733
0.576202 0.576202 0.903809
0.676788 0.574402 0.912079
0.790009 0.569672 0.918945
0.923798 0.561218 0.923798
0.000000 0.633545 0.873993
0.000000 0.633606 0.872192
0.237701 0.644287 0.885803
0.422729 0.653625 0.893433
0.557739 0.662323 0.896423
0.671417 0.671417 0.897430
0.779999 0.670837 0.903778
0.908356 0.667786 0.908356
0.000000 0.735138 0.865204
0.000000 0.734406 0.863434
0.000000 0.732605 0.859192
0.366272 0.750061 0.879303
0.529877 0.757233 0.884125
0.653595 0.763062 0.886017
0.769348 0.769348 0.888153
0.892334 0.769928 0.892334
0.000000 0.851044 0.851044
0.000000 0.849396 0.849396
0.000000 0.845337 0.845337
0.264343 0.857208 0.857208
0.488220 0.865845 0.865845
0.628632 0.869324 0.869324
0.750702 0.872406 0.872406
0.880188 0.880188 0.880188
