Vakken/Crossmedia/Illu & Foto II/Les 3/Opdracht/LUTbeeld.3DL
#Created by: Adobe Photoshop Export Color Lookup Plugin
#Description: LutBeeldOpdrachtIllu
0 33 66 99 132 165 198 231 264 297 330 363 396 429 462 495 528 561 594 627 660 693 726 759 792 825 858 891 924 957 990 1023
0 0 0
40 40 175
77 77 314
118 118 452
156 156 589
184 184 728
194 194 868
190 190 1007
187 187 1145
216 216 1282
256 256 1417
296 296 1550
335 335 1681
374 374 1809
414 414 1932
454 454 2052
493 493 2169
533 533 2283
573 573 2397
614 614 2510
654 654 2624
695 695 2739
736 736 2856
778 778 2976
819 819 3101
861 861 3230
903 903 3365
945 945 3506
987 987 3571
1028 1028 3578
1069 1069 3584
1110 1110 3591
13 151 13
13 152 152
51 187 301
93 224 442
130 257 582
158 281 722
168 292 863
162 292 1004
158 292 1143
190 313 1280
233 343 1416
276 375 1549
317 407 1681
359 441 1808
400 475 1932
440 510 2052
481 546 2169
522 582 2283
563 619 2397
604 657 2510
645 695 2624
687 734 2739
728 773 2856
770 813 2977
812 852 3101
855 893 3231
897 933 3366
939 974 3507
981 1014 3573
1022 1054 3579
1064 1094 3586
1105 1133 3592
19 283 19
19 283 161
20 284 284
63 314 430
100 342 573
126 364 715
135 376 858
128 379 999
123 381 1139
156 398 1278
205 423 1414
251 449 1548
296 477 1680
339 506 1808
382 537 1931
425 568 2051
467 601 2169
509 634 2284
551 669 2397
593 703 2511
635 739 2624
677 776 2740
719 813 2857
762 851 2977
804 889 3102
847 927 3231
890 966 3367
933 1006 3508
975 1045 3575
1016 1083 3581
1058 1122 3588
1099 1161 3594
15 410 15
15 411 161
15 411 288
15 412 412
54 438 559
80 459 704
87 472 849
78 478 992
72 482 1133
105 496 1273
156 517 1410
211 539 1545
261 563 1677
309 588 1806
356 615 1930
401 643 2051
446 672 2168
489 702 2283
533 733 2397
576 766 2511
619 799 2625
662 833 2740
705 867 2857
749 903 2978
792 939 3103
835 975 3232
879 1012 3368
922 1050 3509
965 1087 3577
1007 1124 3584
1049 1161 3590
1091 1198 3597
0 537 0
0 537 143
0 538 281
0 539 412
0 540 540
11 561 689
16 576 836
3 584 981
0 590 1125
32 603 1265
87 620 1404
145 639 1540
207 660 1673
264 682 1803
316 705 1928
366 730 2049
414 756 2167
461 783 2282
507 811 2397
552 841 2510
597 871 2625
642 903 2740
687 935 2858
731 968 2979
775 1001 3103
820 1035 3233
864 1070 3369
908 1106 3510
952 1141 3581
994 1176 3587
1037 1211 3593
1079 1246 3599
0 664 0
0 665 92
0 666 251
0 667 397
0 668 535
0 669 669
0 686 820
0 697 969
0 704 1115
0 715 1257
0 729 1395
55 746 1532
122 764 1667
192 784 1797
257 805 1924
316 827 2046
370 850 2164
422 875 2281
472 901 2395
520 927 2510
568 955 2624
615 983 2740
661 1013 2858
707 1043 2979
753 1075 3104
799 1106 3234
844 1139 3370
890 1173 3511
934 1206 3584
978 1238 3591
1021 1271 3597
1064 1305 3603
0 792 0
0 792 0
0 794 180
0 796 360
0 797 514
0 799 659
0 800 800
0 813 953
0 822 1102
0 832 1246
0 845 1387
0 859 1524
2 874 1658
83 891 1790
163 910 1917
240 931 2041
307 952 2161
367 974 2277
423 997 2393
477 1022 2507
528 1047 2622
578 1073 2738
627 1100 2857
676 1129 2978
724 1157 3104
772 1187 3234
819 1217 3370
866 1249 3512
912 1279 3589
957 1310 3595
1001 1340 3601
1046 1372 3607
0 922 0
0 922 0
0 922 46
0 925 291
0 927 474
0 928 634
0 930 785
0 932 932
0 942 1085
0 952 1233
0 963 1376
0 975 1516
0 989 1651
0 1003 1782
25 1019 1908
118 1038 2033
210 1058 2154
288 1078 2272
356 1100 2389
418 1122 2504
476 1145 2620
531 1170 2736
584 1195 2855
636 1221 2977
687 1247 3103
737 1275 3233
787 1303 3370
836 1332 3512
883 1361 3593
930 1389 3599
976 1417 3605
1022 1447 3611
0 1050 0
0 1050 0
0 1050 0
0 1052 172
0 1055 413
0 1058 595
0 1060 759
0 1062 914
0 1064 1064
0 1073 1215
0 1083 1362
0 1094 1505
0 1106 1642
0 1119 1775
0 1133 1902
0 1148 2025
54 1166 2145
159 1185 2264
257 1206 2383
336 1227 2499
405 1248 2616
469 1271 2733
529 1294 2852
586 1318 2975
641 1343 3101
694 1368 3232
747 1395 3369
798 1422 3512
849 1448 3598
897 1474 3604
945 1501 3610
993 1528 3616
0 1178 0
0 1178 0
0 1178 0
0 1178 23
0 1182 343
0 1185 550
0 1188 727
0 1190 890
0 1192 1045
0 1195 1195
0 1204 1345
0 1214 1491
0 1225 1631
0 1237 1766
0 1250 1895
0 1264 2019
0 1278 2139
0 1294 2255
89 1312 2373
207 1333 2491
304 1353 2609
384 1375 2728
455 1396 2848
519 1419 2971
581 1442 3098
640 1466 3229
697 1490 3367
752 1515 3510
805 1540 3602
857 1564 3608
908 1588 3614
958 1613 3620
0 1305 0
0 1305 0
0 1305 0
0 1305 0
0 1308 247
0 1312 497
0 1315 690
0 1317 862
0 1320 1023
0 1322 1177
0 1325 1325
0 1334 1474
0 1344 1617
0 1356 1755
0 1367 1886
0 1380 2012
0 1393 2133
0 1407 2251
0 1422 2366
0 1438 2480
130 1458 2599
254 1479 2720
351 1500 2841
432 1521 2966
504 1543 3093
571 1565 3226
634 1588 3364
695 1612 3507
753 1635 3606
808 1657 3612
862 1679 3618
915 1702 3625
0 1430 0
0 1430 0
0 1430 0
0 1430 0
0 1431 90
0 1437 428
0 1440 643
0 1443 827
0 1446 996
0 1449 1156
0 1451 1308
0 1454 1454
0 1463 1601
0 1474 1741
0 1485 1875
0 1496 2003
0 1508 2126
0 1522 2245
0 1535 2361
0 1549 2476
0 1565 2591
26 1581 2706
178 1602 2831
303 1623 2957
398 1644 3086
480 1666 3219
554 1688 3358
623 1709 3503
687 1731 3609
748 1752 3616
807 1773 3623
863 1794 3629
0 1553 0
0 1553 0
0 1553 0
0 1553 0
0 1553 0
0 1559 332
0 1563 586
0 1567 786
0 1570 964
0 1573 1130
0 1576 1287
0 1578 1437
0 1581 1581
0 1591 1725
0 1601 1862
0 1612 1992
0 1623 2117
0 1635 2237
0 1648 2355
0 1661 2471
0 1675 2587
0 1690 2702
0 1705 2820
68 1723 2942
230 1744 3074
350 1765 3210
446 1786 3350
529 1807 3496
604 1828 3612
673 1847 3619
738 1866 3626
801 1886 3632
0 1675 0
0 1675 0
0 1675 0
0 1675 0
0 1675 0
0 1678 179
0 1684 514
0 1688 736
0 1691 927
0 1694 1100
0 1698 1263
0 1700 1418
0 1703 1565
0 1706 1706
0 1716 1846
0 1726 1979
0 1736 2106
0 1748 2229
0 1759 2348
0 1772 2465
0 1785 2581
0 1798 2698
0 1812 2816
0 1827 2936
0 1842 3060
116 1861 3193
281 1883 3338
398 1904 3485
494 1924 3612
577 1942 3620
653 1960 3628
723 1979 3635
0 1793 0
0 1793 0
0 1793 0
0 1793 0
0 1793 0
0 1793 0
0 1801 418
0 1806 676
0 1810 882
0 1813 1066
0 1816 1236
0 1820 1396
0 1823 1547
0 1825 1691
0 1828 1828
0 1838 1964
0 1848 2094
0 1858 2218
0 1869 2339
0 1881 2458
0 1892 2575
0 1905 2693
0 1918 2812
0 1931 2933
0 1945 3057
0 1960 3185
0 1975 3318
172 1996 3468
332 2017 3608
446 2035 3619
541 2052 3628
625 2070 3636
0 1908 0
0 1908 0
0 1908 0
0 1908 0
0 1908 0
0 1908 0
0 1913 277
0 1920 601
0 1924 829
0 1928 1025
0 1931 1203
0 1935 1370
0 1938 1526
0 1941 1674
0 1944 1814
0 1947 1947
0 1956 2079
0 1966 2206
0 1976 2329
0 1987 2449
0 1998 2567
0 2010 2686
0 2022 2806
0 2034 2928
0 2048 3053
0 2061 3182
0 2075 3315
0 2089 3454
11 2104 3594
232 2124 3611
381 2143 3624
494 2160 3635
0 2020 0
0 2020 0
0 2020 0
0 2020 0
0 2020 0
0 2020 0
0 2020 13
0 2030 504
0 2035 766
0 2039 978
0 2043 1166
0 2047 1340
0 2050 1502
0 2053 1654
0 2057 1798
0 2060 1934
0 2063 2063
0 2072 2192
0 2082 2316
0 2092 2438
0 2102 2559
0 2113 2679
0 2124 2800
0 2136 2922
0 2148 3048
0 2161 3178
0 2174 3312
0 2188 3452
0 2202 3596
0 2213 3604
71 2228 3610
287 2248 3628
0 2129 0
0 2129 0
0 2129 0
0 2129 0
0 2129 0
0 2129 0
0 2129 0
0 2136 369
0 2143 688
0 2147 922
0 2152 1123
0 2155 1305
0 2159 1474
0 2163 1631
0 2166 1779
0 2169 1918
0 2172 2050
0 2176 2176
0 2185 2303
0 2195 2427
0 2205 2549
0 2215 2670
0 2226 2792
0 2237 2916
0 2249 3042
0 2261 3172
0 2273 3308
0 2286 3448
0 2299 3593
0 2310 3614
0 2321 3615
0 2333 3616
0 2236 0
0 2236 0
0 2236 0
0 2236 0
0 2236 0
0 2236 0
0 2236 0
0 2238 127
0 2248 591
0 2254 856
0 2258 1073
0 2262 1266
0 2266 1442
0 2270 1605
0 2274 1758
0 2277 1901
0 2281 2036
0 2284 2164
0 2287 2287
0 2296 2413
0 2306 2537
0 2316 2659
0 2327 2782
0 2337 2907
0 2348 3035
0 2360 3166
0 2372 3302
0 2384 3444
0 2397 3589
0 2408 3624
0 2418 3625
0 2429 3626
0 2341 0
0 2341 0
0 2341 0
0 2341 0
0 2341 0
0 2341 0
0 2341 0
0 2341 0
0 2351 461
0 2358 777
0 2363 1016
0 2368 1221
0 2372 1406
0 2376 1576
0 2380 1734
0 2384 1881
0 2387 2019
0 2391 2150
0 2394 2276
0 2398 2398
0 2407 2523
0 2417 2647
0 2427 2772
0 2437 2898
0 2448 3026
0 2459 3159
0 2471 3296
0 2483 3438
0 2495 3585
0 2506 3634
0 2515 3636
0 2525 3637
0 2446 0
0 2446 0
0 2446 0
0 2446 0
0 2446 0
0 2446 0
0 2446 0
0 2446 0
0 2451 254
0 2461 679
0 2467 947
0 2473 1169
0 2477 1365
0 2482 1543
0 2486 1707
0 2490 1859
0 2494 2001
0 2497 2135
0 2501 2263
0 2505 2387
0 2508 2508
0 2518 2634
0 2528 2760
0 2538 2887
0 2548 3017
0 2559 3150
0 2570 3288
0 2582 3431
0 2594 3579
0 2605 3645
0 2614 3646
0 2624 3647
0 2551 0
0 2551 0
0 2551 0
0 2551 0
0 2551 0
0 2551 0
0 2551 0
0 2551 0
0 2551 0
0 2563 552
0 2571 866
0 2577 1109
0 2582 1318
0 2587 1505
0 2591 1676
0 2595 1834
0 2600 1980
0 2604 2117
0 2608 2248
0 2611 2374
0 2615 2497
0 2619 2619
0 2629 2747
0 2639 2875
0 2649 3006
0 2660 3140
0 2671 3279
0 2683 3423
0 2695 3572
0 2705 3655
0 2714 3656
0 2723 3657
0 2656 0
0 2656 0
0 2656 0
0 2656 0
0 2656 0
0 2656 0
0 2656 0
0 2656 0
0 2656 0
0 2665 366
0 2675 767
0 2682 1039
0 2688 1264
0 2693 1462
0 2698 1641
0 2702 1806
0 2707 1957
0 2711 2098
0 2716 2231
0 2720 2360
0 2724 2485
0 2728 2609
0 2732 2732
0 2742 2862
0 2752 2994
0 2763 3129
0 2774 3269
0 2786 3414
0 2797 3564
0 2808 3665
0 2817 3666
0 2826 3667
0 2763 0
0 2763 0
0 2763 0
0 2763 0
0 2763 0
0 2763 0
0 2763 0
0 2763 0
0 2763 0
0 2763 0
0 2779 642
0 2788 957
0 2795 1203
0 2800 1414
0 2806 1602
0 2811 1774
0 2816 1931
0 2820 2076
0 2825 2213
0 2829 2344
0 2834 2471
0 2838 2596
0 2842 2721
0 2846 2846
0 2857 2980
0 2868 3116
0 2879 3257
0 2890 3403
0 2902 3554
0 2914 3676
0 2922 3677
0 2931 3677
0 2872 0
0 2872 0
0 2872 0
0 2872 0
0 2872 0
0 2872 0
0 2872 0
0 2872 0
0 2872 0
0 2872 0
0 2885 469
0 2896 857
0 2903 1131
0 2910 1359
0 2916 1559
0 2921 1738
0 2927 1902
0 2932 2052
0 2937 2193
0 2942 2327
0 2946 2456
0 2951 2583
0 2956 2710
0 2960 2836
0 2965 2965
0 2976 3102
0 2987 3244
0 2999 3391
0 3010 3543
0 3022 3686
0 3031 3687
0 3039 3688
0 2984 0
0 2984 0
0 2984 0
0 2984 0
0 2984 0
0 2984 0
0 2984 0
0 2984 0
0 2984 0
0 2984 0
0 2987 141
0 3005 733
0 3014 1048
0 3022 1296
0 3028 1509
0 3035 1699
0 3041 1870
0 3046 2025
0 3052 2170
0 3057 2307
0 3062 2440
0 3067 2569
0 3072 2697
0 3077 2825
0 3082 2954
0 3087 3087
0 3098 3229
0 3110 3378
0 3122 3531
0 3135 3687
0 3143 3698
0 3151 3699
0 3099 0
0 3099 0
0 3099 0
0 3099 0
0 3099 0
0 3099 0
0 3099 0
0 3099 0
0 3099 0
0 3099 0
0 3099 0
0 3116 569
0 3128 948
0 3137 1224
0 3145 1453
0 3152 1654
0 3158 1833
0 3164 1996
0 3170 2145
0 3176 2286
0 3182 2421
0 3187 2552
0 3193 2682
0 3198 2812
0 3203 2943
0 3208 3076
0 3214 3214
0 3226 3363
0 3238 3517
0 3251 3675
0 3260 3709
0 3268 3709
0 3218 0
0 3218 0
0 3218 0
0 3218 0
0 3218 0
0 3218 0
0 3218 0
0 3218 0
0 3218 0
0 3218 0
0 3218 0
0 3227 305
0 3245 826
0 3256 1139
0 3265 1389
0 3273 1603
0 3280 1793
0 3287 1963
0 3293 2118
0 3300 2263
0 3306 2401
0 3312 2535
0 3318 2666
0 3324 2797
0 3329 2930
0 3335 3065
0 3341 3203
0 3346 3346
0 3359 3502
0 3373 3661
0 3382 3719
0 3391 3720
0 3342 0
0 3342 0
0 3342 0
0 3342 0
